; Generated by Kiri:Moto 3.9.2
; Sat Apr 22 2023 10:36:36 GMT-0700 (Pacific Daylight Time)
; Bed left:0 right:1195 top:1295 bottom:0
; Stock X:136 Y:757 Z:38
; Target: OpenBuild LeadCNC 1515
; Tool: 46200-K
; --- process ---
; processName = OpenBuild LeadCNC 1515
; camLevelTool = 1681668794759
; camLevelSpindle = 10000
; camLevelOver = 0
; camLevelSpeed = 1000
; camLevelDown = 0
; camRoughTool = 1681668794759
; camRoughSpindle = 18000
; camRoughDown = 15
; camRoughOver = 0.5
; camRoughSpeed = 2000
; camRoughPlunge = 300
; camRoughStock = 0
; camRoughVoid = true
; camRoughFlat = true
; camRoughTop = true
; camRoughIn = false
; camRoughOn = true
; camOutlineTool = 1681668794759
; camOutlineSpindle = 10000
; camOutlineDown = 10
; camOutlineOver = 0.4
; camOutlineSpeed = 1000
; camOutlinePlunge = 300
; camOutlineWide = false
; camOutlineDogbone = false
; camOutlineOmitThru = false
; camOutlineOut = false
; camOutlineIn = false
; camOutlineOn = true
; camContourTool = 1001
; camContourSpindle = 1000
; camContourOver = 0.5
; camContourSpeed = 1000
; camContourAngle = 85
; camContourBottom = true
; camContourCurves = false
; camContourIn = false
; camContourXOn = true
; camContourYOn = true
; camTraceTool = 1000
; camTraceSpindle = 1000
; camTraceType = follow
; camTraceOver = 0.5
; camTraceDown = 0
; camTraceSpeed = 250
; camTracePlunge = 200
; camTraceLines = false
; camTraceBottom = false
; camPocketSpindle = 10000
; camPocketTool = 1681668794759
; camPocketOver = 0.5
; camPocketDown = 10
; camPocketSpeed = 250
; camPocketPlunge = 200
; camPocketExpand = 1
; camPocketSmooth = 1
; camPocketContour = false
; camPocketEngrave = false
; camDrillTool = 1681670123284
; camDrillSpindle = 10000
; camDrillDownSpeed = 250
; camDrillDown = 10
; camDrillDwell = 250
; camDrillLift = 2
; camDrillMark = false
; camDrillingOn = false
; camRegisterSpeed = 1000
; camRegisterThru = 5
; camFlipAxis = X
; camFlipOther = 
; camLaserEnable = M321
; camLaserDisable = M322
; camLaserOn = M3
; camLaserOff = M5
; camLaserSpeed = 100
; camLaserPower = 1
; camLaserAdaptive = false
; camLaserAdaptMod = false
; camLaserFlatten = false
; camLaserFlatZ = 0
; camLaserPowerMin = 0
; camLaserPowerMax = 1
; camLaserZMin = 0
; camLaserZMax = 0
; camTabsWidth = 10
; camTabsHeight = 10
; camTabsDepth = 10
; camTabsMidline = true
; camDepthFirst = true
; camEaseDown = true
; camOriginTop = true
; camZAnchor = bottom
; camZOffset = 0
; camZBottom = 18
; camZClearance = 5
; camZThru = 0
; camFastFeed = 3000
; camFastFeedZ = 100
; camTolerance = 0
; camFlatness = 0.001
; camContourBridge = 10
; camStockX = 136
; camStockY = 757
; camStockZ = 38
; camStockOffset = false
; camStockClipTo = false
; camConventional = true
; outputInvertX = false
; outputInvertY = false
; camExpertFast = false
; camTrueShadow = false
; camForceZMax = false
; camStockIndexed = false
; camStockIndexGrid = false
; camIndexAxis = 0
; camIndexAbs = true
; camRoughOmitVoid = false
; camOutlineTop = false
; camOutlineOmitVoid = true
; camContourLeave = 0
; camContourReduce = 2
; camLatheTool = 1000
; camLatheSpindle = 1000
; camLatheOver = 0.1
; camLatheSpeed = 500
; camTraceThru = 0
; camTraceOffOver = 0
; camPocketRefine = 20
; camPocketFollow = 5
; camPocketOutline = false
; camOriginCenter = false
; camOriginOffX = 0
; camOriginOffY = 0
; camOriginOffZ = 0
; camFirstZMax = true
; camToolInit = false
; camRoughAll = true
; camLatheAngle = 1
; --- tools ---
; tool=[object Object] flute=undefined len=undefined metric=undefined
G21 ; set units to MM (required)
G90 ; absolute position mode (required)
G54 ; use working cordinates
; starting rough op
G0 Z5.0 F100
G0 X58.2891 Y289.8999 F3000
G1 Z-0.2000 F100
G1 X56.3863 Y290.3623 F500
G1 X54.5060 Y290.9065
G1 X52.6510 Y291.5318
G1 X50.8250 Y292.2368
G1 X49.0312 Y293.0202
G1 X47.2730 Y293.8806
G1 X45.5536 Y294.8166
G1 X43.8766 Y295.8259
G1 X42.2448 Y296.9072
G1 X40.6614 Y298.0580
G1 X39.1293 Y299.2765
G1 X37.6517 Y300.5600
G1 X36.2307 Y301.9066
G1 X34.8696 Y303.3134
G1 X33.5708 Y304.7777
G1 X32.3366 Y306.2971
G1 X31.1694 Y307.8685
G1 X30.0714 Y309.4890
G1 X29.0446 Y311.1555
G1 X28.0910 Y312.8650
G1 X27.2124 Y314.6142
G1 X26.4104 Y316.3998
G1 X25.6865 Y318.2186
G1 X25.0421 Y320.0670
G1 X24.4785 Y321.9413
G1 X23.9966 Y323.8386
G1 X23.5973 Y325.7550
G1 X23.2842 Y327.6698
G1 X12.4619 Y404.2502
G1 X12.1762 Y406.6454
G1 X11.9931 Y409.0684
G1 X11.9152 Y411.4965
G1 X11.9425 Y413.9251
G1 X12.0728 Y416.3128
G1 X12.3122 Y418.7684
G1 X12.6542 Y421.1745
G1 X13.0921 Y423.5215
G1 X13.6485 Y425.9292
G1 X14.2996 Y428.2715
G1 X15.0508 Y430.5808
G1 X15.9017 Y432.8567
G1 X16.8503 Y435.0934
G1 X17.8953 Y437.2879
G1 X19.0340 Y439.4343
G1 X20.2639 Y441.5282
G1 X21.5846 Y443.5688
G1 X22.9917 Y445.5494
G1 X24.4835 Y447.4673
G1 X26.0566 Y449.3185
G1 X27.7087 Y451.1001
G1 X29.4364 Y452.8085
G1 X31.2363 Y454.4404
G1 X33.1045 Y455.9921
G1 X35.0396 Y457.4627
G1 X37.0351 Y458.8470
G1 X39.0903 Y460.1447
G1 X41.1991 Y461.3517
G1 X43.3084 Y462.4405
G1 X45.5615 Y463.4853
G1 X47.8095 Y464.4091
G1 X50.0944 Y465.2344
G1 X52.3899 Y465.9526
G1 X54.7541 Y466.5826
G1 X57.1352 Y467.1069
G1 X59.5282 Y467.5258
G1 X61.8932 Y467.8349
G1 X64.3574 Y468.0509
G1 X66.7842 Y468.1561
G1 X69.2148
G1 X71.6420 Y468.0509
G1 X74.0628 Y467.8406
G1 X76.4708 Y467.5259
G1 X78.8650 Y467.1069
G1 X81.2378 Y466.5847
G1 X83.5857 Y465.9603
G1 X85.9045 Y465.2347
G1 X88.1896 Y464.4095
G1 X90.4370 Y463.4860
G1 X92.6421 Y462.4661
G1 X94.8010 Y461.3516
G1 X96.9096 Y460.1447
G1 X98.9640 Y458.8476
G1 X100.9603 Y457.4628
G1 X102.8948 Y455.9927
G1 X104.7637 Y454.4404
G1 X106.5636 Y452.8085
G1 X108.2913 Y451.1001
G1 X109.9434 Y449.3185
G1 X111.5165 Y447.4673
G1 X113.0083 Y445.5494
G1 X114.4154 Y443.5689
G1 X115.7356 Y441.5290
G1 X116.9660 Y439.4343
G1 X118.1047 Y437.2879
G1 X119.1493 Y435.0944
G1 X120.0979 Y432.8577
G1 X120.9488 Y430.5819
G1 X121.7004 Y428.2713
G1 X122.3512 Y425.9305
G1 X122.8999 Y423.5639
G1 X123.3457 Y421.1754
G1 X123.6876 Y418.7700
G1 X123.9250 Y416.3521
G1 X124.0575 Y413.9260
G1 X124.0848 Y411.4965
G1 X124.0069 Y409.0693
G1 X123.8238 Y406.6455
G1 X123.5381 Y404.2503
G1 X112.7158 Y327.6698
G1 X112.4041 Y325.7636
G1 X112.0035 Y323.8389
G1 X111.5215 Y321.9413
G1 X110.9579 Y320.0670
G1 X110.3367 Y318.2852
G1 X109.5901 Y316.4009
G1 X108.7876 Y314.6142
G1 X107.9090 Y312.8650
G1 X106.9554 Y311.1555
G1 X105.9544 Y309.5308
G1 X104.8311 Y307.8691
G1 X103.6634 Y306.2971
G1 X102.4292 Y304.7777
G1 X101.1304 Y303.3134
G1 X99.7692 Y301.9065
G1 X98.3486 Y300.5602
G1 X96.8711 Y299.2768
G1 X95.3449 Y298.0630
G1 X93.7554 Y296.9073
G1 X92.1235 Y295.8260
G1 X90.4470 Y294.8169
G1 X88.7269 Y293.8806
G1 X86.9696 Y293.0206
G1 X85.1750 Y292.2367
G1 X83.3491 Y291.5318
G1 X81.4940 Y290.9065
G1 X79.6136 Y290.3623
G1 X77.7118 Y289.9001
G1 X75.7919 Y289.5208
G1 X73.8978 Y289.2312
G1 X71.9112 Y289.0132
G1 X69.9577 Y288.8860
G1 X68.0008 Y288.8436
G1 X66.0423 Y288.8860
G1 X64.0896 Y289.0131
G1 X62.1438 Y289.2248
G1 X60.2087 Y289.5207
G1 X58.2891 Y289.8999
G1 X58.6305 Y291.4507 F1000
G1 X56.7947 Y291.8968
G1 X54.9805 Y292.4219
G1 X53.1904 Y293.0252
G1 X51.4289 Y293.7053
G1 X49.6981 Y294.4612
G1 X48.0019 Y295.2913
G1 X46.3427 Y296.1945
G1 X44.7249 Y297.1683
G1 X43.1504 Y298.2115
G1 X41.6225 Y299.3220
G1 X40.1443 Y300.4976
G1 X38.7188 Y301.7358
G1 X37.3477 Y303.0352
G1 X36.0344 Y304.3926
G1 X34.7813 Y305.8053
G1 X33.5904 Y307.2714
G1 X32.4643 Y308.7875
G1 X31.4049 Y310.3510
G1 X30.4143 Y311.9588
G1 X29.4942 Y313.6083
G1 X28.6465 Y315.2960
G1 X27.8727 Y317.0188
G1 X27.1742 Y318.7737
G1 X26.5524 Y320.5572
G1 X26.0087 Y322.3654
G1 X25.5437 Y324.1960
G1 X25.1584 Y326.0453
G1 X24.8537 Y327.9091
G1 X14.0362 Y404.4554
G1 X13.7566 Y406.7992
G1 X13.5787 Y409.1538
G1 X13.5030 Y411.5130
G1 X13.5295 Y413.8728
G1 X13.6561 Y416.1925
G1 X13.8888 Y418.5795
G1 X14.2210 Y420.9171
G1 X14.6465 Y423.1969
G1 X15.1874 Y425.5378
G1 X15.8199 Y427.8132
G1 X16.5498 Y430.0571
G1 X17.3766 Y432.2685
G1 X18.2983 Y434.4419
G1 X19.3138 Y436.5744
G1 X20.4202 Y438.6599
G1 X21.6154 Y440.6947
G1 X22.8986 Y442.6774
G1 X24.2659 Y444.6019
G1 X25.7155 Y446.4655
G1 X27.2440 Y448.2643
G1 X28.8494 Y449.9955
G1 X30.5283 Y451.6556
G1 X32.2771 Y453.2412
G1 X34.0924 Y454.7490
G1 X35.9727 Y456.1779
G1 X37.9117 Y457.5230
G1 X39.9088 Y458.7840
G1 X41.9579 Y459.9568
G1 X44.0069 Y461.0146
G1 X46.1973 Y462.0303
G1 X48.3813 Y462.9278
G1 X50.6011 Y463.7295
G1 X52.8317 Y464.4275
G1 X55.1291 Y465.0396
G1 X57.4431 Y465.5491
G1 X59.7680 Y465.9561
G1 X62.0653 Y466.2564
G1 X64.4612 Y466.4664
G1 X66.8186 Y466.5686
G1 X69.1805
G1 X71.5390 Y466.4664
G1 X73.8910 Y466.2621
G1 X76.2309 Y465.9563
G1 X78.5573 Y465.5491
G1 X80.8632 Y465.0417
G1 X83.1445 Y464.4350
G1 X85.3975 Y463.7300
G1 X87.6180 Y462.9281
G1 X89.8018 Y462.0307
G1 X91.9444 Y461.0397
G1 X94.0423 Y459.9567
G1 X96.0911 Y458.7841
G1 X98.0875 Y457.5236
G1 X100.0272 Y456.1780
G1 X101.9069 Y454.7496
G1 X103.7230 Y453.2410
G1 X105.4717 Y451.6556
G1 X107.1506 Y449.9955
G1 X108.7560 Y448.2643
G1 X110.2845 Y446.4655
G1 X111.7341 Y444.6019
G1 X113.1014 Y442.6774
G1 X114.3842 Y440.6953
G1 X115.5797 Y438.6601
G1 X116.6863 Y436.5742
G1 X117.7012 Y434.4429
G1 X118.6230 Y432.2696
G1 X119.4498 Y430.0582
G1 X120.1802 Y427.8128
G1 X120.8125 Y425.5384
G1 X121.3457 Y423.2389
G1 X121.7789 Y420.9179
G1 X122.1111 Y418.5807
G1 X122.3418 Y416.2313
G1 X122.4705 Y413.8737
G1 X122.4970 Y411.5130
G1 X122.4213 Y409.1546
G1 X122.2434 Y406.7993
G1 X121.9638 Y404.4555
G1 X111.1463 Y327.9091
G1 X110.8429 Y326.0535
G1 X110.4564 Y324.1963
G1 X109.9913 Y322.3655
G1 X109.4475 Y320.5571
G1 X108.8486 Y318.8391
G1 X108.1273 Y317.0188
G1 X107.3535 Y315.2960
G1 X106.5059 Y313.6083
G1 X105.5857 Y311.9588
G1 X104.6205 Y310.3922
G1 X103.5356 Y308.7873
G1 X102.4096 Y307.2714
G1 X101.2187 Y305.8053
G1 X99.9657 Y304.3926
G1 X98.6521 Y303.0350
G1 X97.2817 Y301.7362
G1 X95.8560 Y300.4978
G1 X94.3835 Y299.3268
G1 X92.8498 Y298.2116
G1 X91.2753 Y297.1683
G1 X89.6579 Y296.1948
G1 X87.9980 Y295.2913
G1 X86.3027 Y294.4616
G1 X84.5712 Y293.7053
G1 X82.8095 Y293.0252
G1 X81.0196 Y292.4219
G1 X79.2052 Y291.8967
G1 X77.3703 Y291.4508
G1 X75.5181 Y291.0849
G1 X73.6911 Y290.8055
G1 X71.7731 Y290.5951
G1 X69.8889 Y290.4724
G1 X68.0007 Y290.4314
G1 X66.1112 Y290.4724
G1 X64.2270 Y290.5951
G1 X62.3497 Y290.7993
G1 X60.4826 Y291.0847
G1 X58.6305 Y291.4507
G1 X58.9718 Y293.0014
G1 X57.2029 Y293.4313
G1 X55.4551 Y293.9372
G1 X53.7301 Y294.5186
G1 X52.0326 Y295.1739
G1 X50.3651 Y295.9022
G1 X48.7305 Y296.7022
G1 X47.1318 Y297.5724
G1 X45.5731 Y298.5106
G1 X44.0559 Y299.5158
G1 X42.5838 Y300.5858
G1 X41.1593 Y301.7187
G1 X39.7858 Y302.9117
G1 X38.4647 Y304.1637
G1 X37.1991 Y305.4718
G1 X35.9918 Y306.8330
G1 X34.8443 Y308.2456
G1 X33.7593 Y309.7064
G1 X32.7383 Y311.2131
G1 X31.7840 Y312.7622
G1 X30.8973 Y314.3517
G1 X30.0805 Y315.9778
G1 X29.3350 Y317.6377
G1 X28.6619 Y319.3287
G1 X28.0627 Y321.0475
G1 X27.5389 Y322.7895
G1 X27.0908 Y324.5535
G1 X26.7196 Y326.3354
G1 X26.4232 Y328.1483
G1 X15.6104 Y404.6607
G1 X15.3370 Y406.9530
G1 X15.1643 Y409.2392
G1 X15.0908 Y411.5295
G1 X15.1165 Y413.8206
G1 X15.2394 Y416.0722
G1 X15.4654 Y418.3906
G1 X15.7879 Y420.6598
G1 X16.2009 Y422.8724
G1 X16.7263 Y425.1465
G1 X17.3402 Y427.3549
G1 X18.0488 Y429.5332
G1 X18.8515 Y431.6803
G1 X19.7464 Y433.7903
G1 X20.7323 Y435.8608
G1 X21.8066 Y437.8856
G1 X22.9668 Y439.8609
G1 X24.2127 Y441.7860
G1 X25.5401 Y443.6543
G1 X26.9475 Y445.4639
G1 X28.4315 Y447.2101
G1 X29.9899 Y448.8907
G1 X31.6200 Y450.5026
G1 X33.3180 Y452.0421
G1 X35.0803 Y453.5059
G1 X36.9058 Y454.8931
G1 X38.7882 Y456.1990
G1 X40.7272 Y457.4233
G1 X42.7166 Y458.5620
G1 X44.7054 Y459.5886
G1 X46.8331 Y460.5752
G1 X48.9529 Y461.4464
G1 X51.1081 Y462.2247
G1 X53.2735 Y462.9023
G1 X55.5042 Y463.4967
G1 X57.7509 Y463.9914
G1 X60.0078 Y464.3865
G1 X62.2375 Y464.6779
G1 X64.5650 Y464.8819
G1 X66.8530 Y464.9811
G1 X69.1461
G1 X71.4360 Y464.8819
G1 X73.7193 Y464.6835
G1 X75.9910 Y464.3866
G1 X78.2496 Y463.9913
G1 X80.4886 Y463.4986
G1 X82.7032 Y462.9096
G1 X84.8905 Y462.2252
G1 X87.0465 Y461.4466
G1 X89.1666 Y460.5754
G1 X91.2468 Y459.6133
G1 X93.2836 Y458.5619
G1 X95.2726 Y457.4234
G1 X97.2109 Y456.1996
G1 X99.0940 Y454.8933
G1 X100.9189 Y453.5065
G1 X102.6824 Y452.0417
G1 X104.3799 Y450.5027
G1 X106.0101 Y448.8907
G1 X107.5686 Y447.2101
G1 X109.0525 Y445.4639
G1 X110.4599 Y443.6543
G1 X111.7873 Y441.7860
G1 X113.0328 Y439.8616
G1 X114.1934 Y437.8858
G1 X115.2678 Y435.8605
G1 X116.2531 Y433.7915
G1 X117.1481 Y431.6813
G1 X117.9508 Y429.5345
G1 X118.6599 Y427.3545
G1 X119.2738 Y425.1464
G1 X119.7915 Y422.9137
G1 X120.2120 Y420.6604
G1 X120.5346 Y418.3913
G1 X120.7585 Y416.1105
G1 X120.8835 Y413.8215
G1 X120.9092 Y411.5295
G1 X120.8358 Y409.2399
G1 X120.6630 Y406.9532
G1 X120.3896 Y404.6606
G1 X109.5768 Y328.1483
G1 X109.2817 Y326.3434
G1 X108.9093 Y324.5538
G1 X108.4611 Y322.7894
G1 X107.9373 Y321.0475
G1 X107.3604 Y319.3929
G1 X106.6646 Y317.6367
G1 X105.9195 Y315.9778
G1 X105.1027 Y314.3517
G1 X104.2161 Y312.7622
G1 X103.2866 Y311.2535
G1 X102.2401 Y309.7055
G1 X101.1557 Y308.2456
G1 X100.0082 Y306.8329
G1 X98.8009 Y305.4718
G1 X97.5351 Y304.1635
G1 X96.2148 Y302.9122
G1 X94.8408 Y301.7188
G1 X93.4222 Y300.5906
G1 X91.9443 Y299.5160
G1 X90.4269 Y298.5106
G1 X88.8688 Y297.5728
G1 X87.2691 Y296.7020
G1 X85.6358 Y295.9026
G1 X83.9674 Y295.1739
G1 X82.2698 Y294.5185
G1 X80.5451 Y293.9372
G1 X78.7969 Y293.4312
G1 X77.0288 Y293.0015
G1 X75.2442 Y292.6489
G1 X73.4846 Y292.3799
G1 X71.6349 Y292.1769
G1 X69.8200 Y292.0587
G1 X68.0007 Y292.0193
G1 X66.1798 Y292.0588
G1 X64.3646 Y292.1770
G1 X62.5557 Y292.3737
G1 X60.7566 Y292.6488
G1 X58.9718 Y293.0014
G1 X59.3133 Y294.5521
G1 X57.6111 Y294.9658
G1 X55.9295 Y295.4525
G1 X54.2700 Y296.0119
G1 X52.6363 Y296.6426
G1 X51.0321 Y297.3432
G1 X49.4591 Y298.1130
G1 X47.9212 Y298.9502
G1 X46.4211 Y299.8531
G1 X44.9614 Y300.8202
G1 X43.5450 Y301.8497
G1 X42.1744 Y302.9397
G1 X40.8528 Y304.0877
G1 X39.5816 Y305.2924
G1 X38.3639 Y306.5510
G1 X37.2023 Y307.8606
G1 X36.0983 Y309.2196
G1 X35.0542 Y310.6254
G1 X34.0718 Y312.0752
G1 X33.1536 Y313.5655
G1 X32.3003 Y315.0951
G1 X31.5146 Y316.6596
G1 X30.7972 Y318.2567
G1 X30.1497 Y319.8837
G1 X29.5731 Y321.5376
G1 X29.0691 Y323.2137
G1 X28.6380 Y324.9109
G1 X28.2807 Y326.6256
G1 X27.9927 Y328.3875
G1 X17.1847 Y404.8659
G1 X16.9174 Y407.1067
G1 X16.7498 Y409.3246
G1 X16.6785 Y411.5460
G1 X16.7035 Y413.7684
G1 X16.8227 Y415.9519
G1 X17.0420 Y418.2017
G1 X17.3548 Y420.4024
G1 X17.7552 Y422.5479
G1 X18.2652 Y424.7552
G1 X18.8605 Y426.8966
G1 X19.5478 Y429.0094
G1 X20.3264 Y431.0921
G1 X21.1944 Y433.1388
G1 X22.1508 Y435.1472
G1 X23.1929 Y437.1114
G1 X24.3182 Y439.0272
G1 X25.5268 Y440.8947
G1 X26.8142 Y442.7067
G1 X28.1796 Y444.4622
G1 X29.6188 Y446.1558
G1 X31.1306 Y447.7861
G1 X32.7117 Y449.3496
G1 X34.3588 Y450.8429
G1 X36.0683 Y452.2628
G1 X37.8388 Y453.6083
G1 X39.6648 Y454.8750
G1 X41.5457 Y456.0626
G1 X43.4754 Y457.1671
G1 X45.4038 Y458.1626
G1 X47.4689 Y459.1202
G1 X49.5244 Y459.9649
G1 X51.6150 Y460.7199
G1 X53.7151 Y461.3771
G1 X55.8794 Y461.9538
G1 X58.0587 Y462.4336
G1 X60.2476 Y462.8168
G1 X62.4096 Y463.0994
G1 X64.6688 Y463.2974
G1 X66.8874 Y463.3936
G1 X69.1118
G1 X71.3329 Y463.2973
G1 X73.5476 Y463.1050
G1 X75.7512 Y462.8170
G1 X77.9420 Y462.4335
G1 X80.1140 Y461.9555
G1 X82.2619 Y461.3843
G1 X84.3835 Y460.7205
G1 X86.4749 Y459.9652
G1 X88.5314 Y459.1201
G1 X90.5492 Y458.1869
G1 X92.5249 Y457.1670
