( Made using CamBam - http://www.cambam.co.uk )
( snap-together-box 10/23/2012 11:49:42 PM )
( T1 : 2.0 )
G21 G90 G64 G40
G0 Z3.0
( T1 : 2.0 )
T1 M6
( Profile1 )
G17
M3
G0 X1.0 Y60.0
G0 Z0.2
G1 F300.0 Z-0.4
G1 F800.0 Y51.0
G1 X1.2929 Y50.7071
G1 X1.0 Y51.0
G1 X0.0
G3 X-1.0 Y50.0 I0.0 J-1.0
G1 Y40.0
G3 X0.0 Y39.0 I1.0 J0.0
G1 X1.0
G1 X1.2929 Y39.2929
G1 X1.0 Y39.0
G1 Y31.0
G1 X1.2929 Y30.7071
G1 X1.0 Y31.0
G1 X0.0
G3 X-1.0 Y30.0 I0.0 J-1.0
G1 Y20.0
G3 X0.0 Y19.0 I1.0 J0.0
G1 X1.0
G1 X1.2929 Y19.2929
G1 X1.0 Y19.0
G1 Y11.0
G1 X1.2929 Y10.7071
G1 X1.0 Y11.0
G1 X0.0
G3 X-1.0 Y10.0 I0.0 J-1.0
G1 Y2.0
G3 X0.0 Y1.0 I1.0 J0.0
G1 X9.0
G1 X9.2929 Y1.2929
G1 X9.0 Y1.0
G1 Y0.0
G3 X10.0 Y-1.0 I1.0 J0.0
G1 X20.0
G3 X21.0 Y0.0 I0.0 J1.0
G1 Y1.0
G1 X20.7071 Y1.2929
G1 X21.0 Y1.0
G1 X29.0
G1 X29.2929 Y1.2929
G1 X29.0 Y1.0
G1 Y0.0
G3 X30.0 Y-1.0 I1.0 J0.0
G1 X40.0
G3 X41.0 Y0.0 I0.0 J1.0
G1 Y1.0
G1 X40.7071 Y1.2929
G1 X41.0 Y1.0
G1 X49.0
G1 X49.2929 Y1.2929
G1 X49.0 Y1.0
G1 Y0.0
G3 X50.0 Y-1.0 I1.0 J0.0
G1 X58.0
G3 X59.0 Y0.0 I0.0 J1.0
G1 Y9.0
G1 X58.7071 Y9.2929
G1 X59.0 Y9.0
G1 X60.0
G3 X61.0 Y10.0 I0.0 J1.0
G1 Y20.0
G3 X60.0 Y21.0 I-1.0 J0.0
G1 X59.0
G1 X58.7071 Y20.7071
G1 X59.0 Y21.0
G1 Y29.0
G1 X58.7071 Y29.2929
G1 X59.0 Y29.0
G1 X60.0
G3 X61.0 Y30.0 I0.0 J1.0
G1 Y40.0
G3 X60.0 Y41.0 I-1.0 J0.0
G1 X59.0
G1 X58.7071 Y40.7071
G1 X59.0 Y41.0
G1 Y49.0
G1 X58.7071 Y49.2929
G1 X59.0 Y49.0
G1 X60.0
G3 X61.0 Y50.0 I0.0 J1.0
G1 Y58.0
G3 X60.0 Y59.0 I-1.0 J0.0
G1 X51.0
G1 X50.7071 Y58.7071
G1 X51.0 Y59.0
G1 Y60.0
G3 X50.0 Y61.0 I-1.0 J0.0
G1 X40.0
G3 X39.0 Y60.0 I0.0 J-1.0
G1 Y59.0
G1 X39.2929 Y58.7071
G1 X39.0 Y59.0
G1 X31.0
G1 X30.7071 Y58.7071
G1 X31.0 Y59.0
G1 Y60.0
G3 X30.0 Y61.0 I-1.0 J0.0
G1 X20.0
G3 X19.0 Y60.0 I0.0 J-1.0
G1 Y59.0
G1 X19.2929 Y58.7071
G1 X19.0 Y59.0
G1 X11.0
G1 X10.7071 Y58.7071
G1 X11.0 Y59.0
G1 Y60.0
G3 X10.0 Y61.0 I-1.0 J0.0
G1 X2.0
G3 X1.0 Y60.0 I0.0 J-1.0
G1 F300.0 Z-0.8
G1 F800.0 Y51.0
G1 X1.2929 Y50.7071
G1 X1.0 Y51.0
G1 X0.0
G3 X-1.0 Y50.0 I0.0 J-1.0
G1 Y40.0
G3 X0.0 Y39.0 I1.0 J0.0
G1 X1.0
G1 X1.2929 Y39.2929
G1 X1.0 Y39.0
G1 Y31.0
G1 X1.2929 Y30.7071
G1 X1.0 Y31.0
G1 X0.0
G3 X-1.0 Y30.0 I0.0 J-1.0
G1 Y20.0
G3 X0.0 Y19.0 I1.0 J0.0
G1 X1.0
G1 X1.2929 Y19.2929
G1 X1.0 Y19.0
G1 Y11.0
G1 X1.2929 Y10.7071
G1 X1.0 Y11.0
G1 X0.0
G3 X-1.0 Y10.0 I0.0 J-1.0
G1 Y2.0
G3 X0.0 Y1.0 I1.0 J0.0
G1 X9.0
G1 X9.2929 Y1.2929
G1 X9.0 Y1.0
G1 Y0.0
G3 X10.0 Y-1.0 I1.0 J0.0
G1 X20.0
G3 X21.0 Y0.0 I0.0 J1.0
G1 Y1.0
G1 X20.7071 Y1.2929
G1 X21.0 Y1.0
G1 X29.0
G1 X29.2929 Y1.2929
G1 X29.0 Y1.0
G1 Y0.0
G3 X30.0 Y-1.0 I1.0 J0.0
G1 X40.0
G3 X41.0 Y0.0 I0.0 J1.0
G1 Y1.0
G1 X40.7071 Y1.2929
G1 X41.0 Y1.0
G1 X49.0
G1 X49.2929 Y1.2929
G1 X49.0 Y1.0
G1 Y0.0
G3 X50.0 Y-1.0 I1.0 J0.0
G1 X58.0
G3 X59.0 Y0.0 I0.0 J1.0
G1 Y9.0
G1 X58.7071 Y9.2929
G1 X59.0 Y9.0
G1 X60.0
G3 X61.0 Y10.0 I0.0 J1.0
G1 Y20.0
G3 X60.0 Y21.0 I-1.0 J0.0
G1 X59.0
G1 X58.7071 Y20.7071
G1 X59.0 Y21.0
G1 Y29.0
G1 X58.7071 Y29.2929
G1 X59.0 Y29.0
G1 X60.0
G3 X61.0 Y30.0 I0.0 J1.0
G1 Y40.0
G3 X60.0 Y41.0 I-1.0 J0.0
G1 X59.0
G1 X58.7071 Y40.7071
G1 X59.0 Y41.0
G1 Y49.0
G1 X58.7071 Y49.2929
G1 X59.0 Y49.0
G1 X60.0
G3 X61.0 Y50.0 I0.0 J1.0
G1 Y58.0
G3 X60.0 Y59.0 I-1.0 J0.0
G1 X51.0
G1 X50.7071 Y58.7071
G1 X51.0 Y59.0
G1 Y60.0
G3 X50.0 Y61.0 I-1.0 J0.0
G1 X40.0
G3 X39.0 Y60.0 I0.0 J-1.0
G1 Y59.0
G1 X39.2929 Y58.7071
G1 X39.0 Y59.0
G1 X31.0
G1 X30.7071 Y58.7071
G1 X31.0 Y59.0
G1 Y60.0
G3 X30.0 Y61.0 I-1.0 J0.0
G1 X20.0
G3 X19.0 Y60.0 I0.0 J-1.0
G1 Y59.0
G1 X19.2929 Y58.7071
G1 X19.0 Y59.0
G1 X11.0
G1 X10.7071 Y58.7071
G1 X11.0 Y59.0
G1 Y60.0
G3 X10.0 Y61.0 I-1.0 J0.0
G1 X2.0
G3 X1.0 Y60.0 I0.0 J-1.0
G1 F300.0 Z-1.2
G1 F800.0 Y51.0
G1 X1.2929 Y50.7071
G1 X1.0 Y51.0
G1 X0.0
G3 X-1.0 Y50.0 I0.0 J-1.0
G1 Y40.0
G3 X0.0 Y39.0 I1.0 J0.0
G1 X1.0
G1 X1.2929 Y39.2929
G1 X1.0 Y39.0
G1 Y31.0
G1 X1.2929 Y30.7071
G1 X1.0 Y31.0
G1 X0.0
G3 X-1.0 Y30.0 I0.0 J-1.0
G1 Y20.0
G3 X0.0 Y19.0 I1.0 J0.0
G1 X1.0
G1 X1.2929 Y19.2929
G1 X1.0 Y19.0
G1 Y11.0
G1 X1.2929 Y10.7071
G1 X1.0 Y11.0
G1 X0.0
G3 X-1.0 Y10.0 I0.0 J-1.0
G1 Y2.0
G3 X0.0 Y1.0 I1.0 J0.0
G1 X9.0
G1 X9.2929 Y1.2929
G1 X9.0 Y1.0
G1 Y0.0
G3 X10.0 Y-1.0 I1.0 J0.0
G1 X20.0
G3 X21.0 Y0.0 I0.0 J1.0
G1 Y1.0
G1 X20.7071 Y1.2929
G1 X21.0 Y1.0
G1 X29.0
G1 X29.2929 Y1.2929
G1 X29.0 Y1.0
G1 Y0.0
G3 X30.0 Y-1.0 I1.0 J0.0
G1 X40.0
G3 X41.0 Y0.0 I0.0 J1.0
G1 Y1.0
G1 X40.7071 Y1.2929
G1 X41.0 Y1.0
G1 X49.0
G1 X49.2929 Y1.2929
G1 X49.0 Y1.0
G1 Y0.0
G3 X50.0 Y-1.0 I1.0 J0.0
G1 X58.0
G3 X59.0 Y0.0 I0.0 J1.0
G1 Y9.0
G1 X58.7071 Y9.2929
G1 X59.0 Y9.0
G1 X60.0
G3 X61.0 Y10.0 I0.0 J1.0
G1 Y20.0
G3 X60.0 Y21.0 I-1.0 J0.0
G1 X59.0
G1 X58.7071 Y20.7071
G1 X59.0 Y21.0
G1 Y29.0
G1 X58.7071 Y29.2929
G1 X59.0 Y29.0
G1 X60.0
G3 X61.0 Y30.0 I0.0 J1.0
G1 Y40.0
G3 X60.0 Y41.0 I-1.0 J0.0
G1 X59.0
G1 X58.7071 Y40.7071
G1 X59.0 Y41.0
G1 Y49.0
G1 X58.7071 Y49.2929
G1 X59.0 Y49.0
G1 X60.0
G3 X61.0 Y50.0 I0.0 J1.0
G1 Y58.0
G3 X60.0 Y59.0 I-1.0 J0.0
G1 X51.0
G1 X50.7071 Y58.7071
G1 X51.0 Y59.0
G1 Y60.0
G3 X50.0 Y61.0 I-1.0 J0.0
G1 X40.0
G3 X39.0 Y60.0 I0.0 J-1.0
G1 Y59.0
G1 X39.2929 Y58.7071
G1 X39.0 Y59.0
G1 X31.0
G1 X30.7071 Y58.7071
G1 X31.0 Y59.0
G1 Y60.0
G3 X30.0 Y61.0 I-1.0 J0.0
G1 X20.0
G3 X19.0 Y60.0 I0.0 J-1.0
G1 Y59.0
G1 X19.2929 Y58.7071
G1 X19.0 Y59.0
G1 X11.0
G1 X10.7071 Y58.7071
G1 X11.0 Y59.0
G1 Y60.0
G3 X10.0 Y61.0 I-1.0 J0.0
G1 X2.0
G3 X1.0 Y60.0 I0.0 J-1.0
G1 F300.0 Z-1.6
G1 F800.0 Y51.0
G1 X1.2929 Y50.7071
G1 X1.0 Y51.0
G1 X0.0
G3 X-1.0 Y50.0 I0.0 J-1.0
G1 Y40.0
G3 X0.0 Y39.0 I1.0 J0.0
G1 X1.0
G1 X1.2929 Y39.2929
G1 X1.0 Y39.0
G1 Y31.0
G1 X1.2929 Y30.7071
G1 X1.0 Y31.0
G1 X0.0
G3 X-1.0 Y30.0 I0.0 J-1.0
G1 Y20.0
G3 X0.0 Y19.0 I1.0 J0.0
G1 X1.0
G1 X1.2929 Y19.2929
G1 X1.0 Y19.0
G1 Y11.0
G1 X1.2929 Y10.7071
G1 X1.0 Y11.0
G1 X0.0
G3 X-1.0 Y10.0 I0.0 J-1.0
G1 Y2.0
G3 X0.0 Y1.0 I1.0 J0.0
G1 X9.0
G1 X9.2929 Y1.2929
G1 X9.0 Y1.0
G1 Y0.0
G3 X10.0 Y-1.0 I1.0 J0.0
G1 X20.0
G3 X21.0 Y0.0 I0.0 J1.0
G1 Y1.0
G1 X20.7071 Y1.2929
G1 X21.0 Y1.0
G1 X29.0
G1 X29.2929 Y1.2929
G1 X29.0 Y1.0
G1 Y0.0
G3 X30.0 Y-1.0 I1.0 J0.0
G1 X40.0
G3 X41.0 Y0.0 I0.0 J1.0
G1 Y1.0
G1 X40.7071 Y1.2929
G1 X41.0 Y1.0
G1 X49.0
G1 X49.2929 Y1.2929
G1 X49.0 Y1.0
G1 Y0.0
G3 X50.0 Y-1.0 I1.0 J0.0
G1 X58.0
G3 X59.0 Y0.0 I0.0 J1.0
G1 Y9.0
G1 X58.7071 Y9.2929
G1 X59.0 Y9.0
G1 X60.0
G3 X61.0 Y10.0 I0.0 J1.0
G1 Y20.0
G3 X60.0 Y21.0 I-1.0 J0.0
G1 X59.0
G1 X58.7071 Y20.7071
G1 X59.0 Y21.0
G1 Y29.0
G1 X58.7071 Y29.2929
G1 X59.0 Y29.0
G1 X60.0
G3 X61.0 Y30.0 I0.0 J1.0
G1 Y40.0
G3 X60.0 Y41.0 I-1.0 J0.0
G1 X59.0
G1 X58.7071 Y40.7071
G1 X59.0 Y41.0
G1 Y49.0
G1 X58.7071 Y49.2929
G1 X59.0 Y49.0
G1 X60.0
G3 X61.0 Y50.0 I0.0 J1.0
G1 Y58.0
G3 X60.0 Y59.0 I-1.0 J0.0
G1 X51.0
G1 X50.7071 Y58.7071
G1 X51.0 Y59.0
G1 Y60.0
G3 X50.0 Y61.0 I-1.0 J0.0
G1 X40.0
G3 X39.0 Y60.0 I0.0 J-1.0
G1 Y59.0
G1 X39.2929 Y58.7071
G1 X39.0 Y59.0
G1 X31.0
G1 X30.7071 Y58.7071
G1 X31.0 Y59.0
G1 Y60.0
G3 X30.0 Y61.0 I-1.0 J0.0
G1 X20.0
G3 X19.0 Y60.0 I0.0 J-1.0
G1 Y59.0
G1 X19.2929 Y58.7071
G1 X19.0 Y59.0
G1 X11.0
G1 X10.7071 Y58.7071
G1 X11.0 Y59.0
G1 Y60.0
G3 X10.0 Y61.0 I-1.0 J0.0
G1 X2.0
G3 X1.0 Y60.0 I0.0 J-1.0
G1 F300.0 Z-2.0
G1 F800.0 Y51.0
G1 X1.2929 Y50.7071
G1 X1.0 Y51.0
G1 X0.0
G3 X-1.0 Y50.0 I0.0 J-1.0
G1 Y40.0
G3 X0.0 Y39.0 I1.0 J0.0
G1 X1.0
G1 X1.2929 Y39.2929
G1 X1.0 Y39.0
G1 Y31.0
G1 X1.2929 Y30.7071
G1 X1.0 Y31.0
G1 X0.0
G3 X-1.0 Y30.0 I0.0 J-1.0
G1 Y20.0
G3 X0.0 Y19.0 I1.0 J0.0
G1 X1.0
G1 X1.2929 Y19.2929
G1 X1.0 Y19.0
G1 Y11.0
G1 X1.2929 Y10.7071
G1 X1.0 Y11.0
G1 X0.0
G3 X-1.0 Y10.0 I0.0 J-1.0
G1 Y2.0
G3 X0.0 Y1.0 I1.0 J0.0
G1 X9.0
G1 X9.2929 Y1.2929
G1 X9.0 Y1.0
G1 Y0.0
G3 X10.0 Y-1.0 I1.0 J0.0
G1 X20.0
G3 X21.0 Y0.0 I0.0 J1.0
G1 Y1.0
G1 X20.7071 Y1.2929
G1 X21.0 Y1.0
G1 X29.0
G1 X29.2929 Y1.2929
G1 X29.0 Y1.0
G1 Y0.0
G3 X30.0 Y-1.0 I1.0 J0.0
G1 X40.0
G3 X41.0 Y0.0 I0.0 J1.0
G1 Y1.0
G1 X40.7071 Y1.2929
G1 X41.0 Y1.0
G1 X49.0
G1 X49.2929 Y1.2929
G1 X49.0 Y1.0
G1 Y0.0
G3 X50.0 Y-1.0 I1.0 J0.0
G1 X58.0
G3 X59.0 Y0.0 I0.0 J1.0
G1 Y9.0
G1 X58.7071 Y9.2929
G1 X59.0 Y9.0
G1 X60.0
G3 X61.0 Y10.0 I0.0 J1.0
G1 Y20.0
G3 X60.0 Y21.0 I-1.0 J0.0
G1 X59.0
G1 X58.7071 Y20.7071
G1 X59.0 Y21.0
G1 Y29.0
G1 X58.7071 Y29.2929
G1 X59.0 Y29.0
G1 X60.0
G3 X61.0 Y30.0 I0.0 J1.0
G1 Y40.0
G3 X60.0 Y41.0 I-1.0 J0.0
G1 X59.0
G1 X58.7071 Y40.7071
G1 X59.0 Y41.0
G1 Y49.0
G1 X58.7071 Y49.2929
G1 X59.0 Y49.0
G1 X60.0
G3 X61.0 Y50.0 I0.0 J1.0
G1 Y58.0
G3 X60.0 Y59.0 I-1.0 J0.0
G1 X51.0
G1 X50.7071 Y58.7071
G1 X51.0 Y59.0
G1 Y60.0
G3 X50.0 Y61.0 I-1.0 J0.0
G1 X40.0
G3 X39.0 Y60.0 I0.0 J-1.0
G1 Y59.0
G1 X39.2929 Y58.7071
G1 X39.0 Y59.0
G1 X31.0
G1 X30.7071 Y58.7071
G1 X31.0 Y59.0
G1 Y60.0
G3 X30.0 Y61.0 I-1.0 J0.0
G1 X20.0
G3 X19.0 Y60.0 I0.0 J-1.0
G1 Y59.0
G1 X19.2929 Y58.7071
G1 X19.0 Y59.0
G1 X11.0
G1 X10.7071 Y58.7071
G1 X11.0 Y59.0
G1 Y60.0
G3 X10.0 Y61.0 I-1.0 J0.0
G1 X2.0
G3 X1.0 Y60.0 I0.0 J-1.0
G1 F300.0 Z-2.4
G1 F800.0 Y51.0
G1 X1.2929 Y50.7071
G1 X1.0 Y51.0
G1 X0.0
G3 X-1.0 Y50.0 I0.0 J-1.0
G1 Y40.0
G3 X0.0 Y39.0 I1.0 J0.0
G1 X1.0
G1 X1.2929 Y39.2929
G1 X1.0 Y39.0
G1 Y31.0
G1 X1.2929 Y30.7071
G1 X1.0 Y31.0
G1 X0.0
G3 X-1.0 Y30.0 I0.0 J-1.0
G1 Y20.0
G3 X0.0 Y19.0 I1.0 J0.0
G1 X1.0
G1 X1.2929 Y19.2929
G1 X1.0 Y19.0
G1 Y11.0
G1 X1.2929 Y10.7071
G1 X1.0 Y11.0
G1 X0.0
G3 X-1.0 Y10.0 I0.0 J-1.0
G1 Y2.0
G3 X0.0 Y1.0 I1.0 J0.0
G1 X9.0
G1 X9.2929 Y1.2929
G1 X9.0 Y1.0
G1 Y0.0
G3 X10.0 Y-1.0 I1.0 J0.0
G1 X20.0
G3 X21.0 Y0.0 I0.0 J1.0
G1 Y1.0
G1 X20.7071 Y1.2929
G1 X21.0 Y1.0
G1 X29.0
G1 X29.2929 Y1.2929
G1 X29.0 Y1.0
G1 Y0.0
G3 X30.0 Y-1.0 I1.0 J0.0
G1 X40.0
G3 X41.0 Y0.0 I0.0 J1.0
G1 Y1.0
G1 X40.7071 Y1.2929
G1 X41.0 Y1.0
G1 X49.0
G1 X49.2929 Y1.2929
G1 X49.0 Y1.0
G1 Y0.0
G3 X50.0 Y-1.0 I1.0 J0.0
G1 X58.0
G3 X59.0 Y0.0 I0.0 J1.0
G1 Y9.0
G1 X58.7071 Y9.2929
G1 X59.0 Y9.0
G1 X60.0
G3 X61.0 Y10.0 I0.0 J1.0
G1 Y20.0
G3 X60.0 Y21.0 I-1.0 J0.0
G1 X59.0
G1 X58.7071 Y20.7071
G1 X59.0 Y21.0
G1 Y29.0
G1 X58.7071 Y29.2929
G1 X59.0 Y29.0
G1 X60.0
G3 X61.0 Y30.0 I0.0 J1.0
G1 Y40.0
G3 X60.0 Y41.0 I-1.0 J0.0
G1 X59.0
G1 X58.7071 Y40.7071
G1 X59.0 Y41.0
G1 Y49.0
G1 X58.7071 Y49.2929
G1 X59.0 Y49.0
G1 X60.0
G3 X61.0 Y50.0 I0.0 J1.0
G1 Y58.0
G3 X60.0 Y59.0 I-1.0 J0.0
G1 X51.0
G1 X50.7071 Y58.7071
G1 X51.0 Y59.0
G1 Y60.0
G3 X50.0 Y61.0 I-1.0 J0.0
G1 X40.0
G3 X39.0 Y60.0 I0.0 J-1.0
G1 Y59.0
G1 X39.2929 Y58.7071
G1 X39.0 Y59.0
G1 X31.0
G1 X30.7071 Y58.7071
G1 X31.0 Y59.0
G1 Y60.0
G3 X30.0 Y61.0 I-1.0 J0.0
G1 X20.0
G3 X19.0 Y60.0 I0.0 J-1.0
G1 Y59.0
G1 X19.2929 Y58.7071
G1 X19.0 Y59.0
G1 X11.0
G1 X10.7071 Y58.7071
G1 X11.0 Y59.0
G1 Y60.0
G3 X10.0 Y61.0 I-1.0 J0.0
G1 X2.0
G3 X1.0 Y60.0 I0.0 J-1.0
G1 F300.0 Z-2.8
G1 F800.0 Y51.0
G1 X1.2929 Y50.7071
G1 X1.0 Y51.0
G1 X0.0
G3 X-1.0 Y50.0 I0.0 J-1.0
G1 Y40.0
G3 X0.0 Y39.0 I1.0 J0.0
G1 X1.0
G1 X1.2929 Y39.2929
G1 X1.0 Y39.0
G1 Y31.0
G1 X1.2929 Y30.7071
G1 X1.0 Y31.0
G1 X0.0
G3 X-1.0 Y30.0 I0.0 J-1.0
G1 Y26.4545
G0 Z-2.7
G1 Y23.6545
G1 F300.0 Z-2.8
G1 F800.0 Y20.0
G3 X0.0 Y19.0 I1.0 J0.0
G1 X1.0
G1 X1.2929 Y19.2929
G1 X1.0 Y19.0
G1 Y11.0
G1 X1.2929 Y10.7071
G1 X1.0 Y11.0
G1 X0.0
G3 X-1.0 Y10.0 I0.0 J-1.0
G1 Y2.0
G3 X0.0 Y1.0 I1.0 J0.0
G1 X9.0
G1 X9.2929 Y1.2929
G1 X9.0 Y1.0
G1 Y0.0
G3 X10.0 Y-1.0 I1.0 J0.0
G1 X13.449
G0 Z-2.7
G1 X16.249
G1 F300.0 Z-2.8
G1 F800.0 X20.0
G3 X21.0 Y0.0 I0.0 J1.0
G1 Y1.0
G1 X20.7071 Y1.2929
G1 X21.0 Y1.0
G1 X29.0
G1 X29.2929 Y1.2929
G1 X29.0 Y1.0
G1 Y0.0
G3 X30.0 Y-1.0 I1.0 J0.0
G1 X40.0
G3 X41.0 Y0.0 I0.0 J1.0
G1 Y1.0
G1 X40.7071 Y1.2929
G1 X41.0 Y1.0
G1 X49.0
G1 X49.2929 Y1.2929
G1 X49.0 Y1.0
G1 Y0.0
G3 X50.0 Y-1.0 I1.0 J0.0
G1 X51.9779
G0 Z-2.7
G1 X54.7779
G1 F300.0 Z-2.8
G1 F800.0 X58.0
G3 X59.0 Y0.0 I0.0 J1.0
G1 Y9.0
G1 X58.7071 Y9.2929
G1 X59.0 Y9.0
G1 X60.0
G3 X61.0 Y10.0 I0.0 J1.0
G1 Y20.0
G3 X60.0 Y21.0 I-1.0 J0.0
G1 X59.0
G1 X58.7071 Y20.7071
G1 X59.0 Y21.0
G1 Y29.0
G1 X58.7071 Y29.2929
G1 X59.0 Y29.0
G1 X60.0
G3 X61.0 Y30.0 I0.0 J1.0
G1 Y33.9793
G0 Z-2.7
G1 Y36.7793
G1 F300.0 Z-2.8
G1 F800.0 Y40.0
G3 X60.0 Y41.0 I-1.0 J0.0
G1 X59.0
G1 X58.7071 Y40.7071
G1 X59.0 Y41.0
G1 Y49.0
G1 X58.7071 Y49.2929
G1 X59.0 Y49.0
G1 X60.0
G3 X61.0 Y50.0 I0.0 J1.0
G1 Y58.0
G3 X60.0 Y59.0 I-1.0 J0.0
G1 X51.0
G1 X50.7071 Y58.7071
G1 X51.0 Y59.0
G1 Y60.0
G3 X50.0 Y61.0 I-1.0 J0.0
G1 X45.7123
G0 Z-2.7
G1 X42.9123
G1 F300.0 Z-2.8
G1 F800.0 X40.0
G3 X39.0 Y60.0 I0.0 J-1.0
G1 Y59.0
G1 X39.2929 Y58.7071
G1 X39.0 Y59.0
G1 X31.0
G1 X30.7071 Y58.7071
G1 X31.0 Y59.0
G1 Y60.0
G3 X30.0 Y61.0 I-1.0 J0.0
G1 X20.0
G3 X19.0 Y60.0 I0.0 J-1.0
G1 Y59.0
G1 X19.2929 Y58.7071
G1 X19.0 Y59.0
G1 X11.0
G1 X10.7071 Y58.7071
G1 X11.0 Y59.0
G1 Y60.0
G3 X10.0 Y61.0 I-1.0 J0.0
G1 X7.4352
G0 Z-2.7
G1 X4.6352
G1 F300.0 Z-2.8
G1 F800.0 X2.0
G3 X1.0 Y60.0 I0.0 J-1.0
G1 F300.0 Z-3.2
G1 F800.0 Y51.0
G1 X1.2929 Y50.7071
G1 X1.0 Y51.0
G1 X0.0
G3 X-1.0 Y50.0 I0.0 J-1.0
G1 Y40.0
G3 X0.0 Y39.0 I1.0 J0.0
G1 X1.0
G1 X1.2929 Y39.2929
G1 X1.0 Y39.0
G1 Y31.0
G1 X1.2929 Y30.7071
G1 X1.0 Y31.0
G1 X0.0
G3 X-1.0 Y30.0 I0.0 J-1.0
G1 Y26.4545
G0 Z-2.7
G1 Y23.6545
G1 F300.0 Z-3.2
G1 F800.0 Y20.0
G3 X0.0 Y19.0 I1.0 J0.0
G1 X1.0
G1 X1.2929 Y19.2929
G1 X1.0 Y19.0
G1 Y11.0
G1 X1.2929 Y10.7071
G1 X1.0 Y11.0
G1 X0.0
G3 X-1.0 Y10.0 I0.0 J-1.0
G1 Y2.0
G3 X0.0 Y1.0 I1.0 J0.0
G1 X9.0
G1 X9.2929 Y1.2929
G1 X9.0 Y1.0
G1 Y0.0
G3 X10.0 Y-1.0 I1.0 J0.0
G1 X13.449
G0 Z-2.7
G1 X16.249
G1 F300.0 Z-3.2
G1 F800.0 X20.0
G3 X21.0 Y0.0 I0.0 J1.0
G1 Y1.0
G1 X20.7071 Y1.2929
G1 X21.0 Y1.0
G1 X29.0
G1 X29.2929 Y1.2929
G1 X29.0 Y1.0
G1 Y0.0
G3 X30.0 Y-1.0 I1.0 J0.0
G1 X40.0
G3 X41.0 Y0.0 I0.0 J1.0
G1 Y1.0
G1 X40.7071 Y1.2929
G1 X41.0 Y1.0
G1 X49.0
G1 X49.2929 Y1.2929
G1 X49.0 Y1.0
G1 Y0.0
G3 X50.0 Y-1.0 I1.0 J0.0
G1 X51.9779
G0 Z-2.7
G1 X54.7779
G1 F300.0 Z-3.2
G1 F800.0 X58.0
G3 X59.0 Y0.0 I0.0 J1.0
G1 Y9.0
G1 X58.7071 Y9.2929
G1 X59.0 Y9.0
G1 X60.0
G3 X61.0 Y10.0 I0.0 J1.0
G1 Y20.0
G3 X60.0 Y21.0 I-1.0 J0.0
G1 X59.0
G1 X58.7071 Y20.7071
G1 X59.0 Y21.0
G1 Y29.0
G1 X58.7071 Y29.2929
G1 X59.0 Y29.0
G1 X60.0
G3 X61.0 Y30.0 I0.0 J1.0
G1 Y33.9793
G0 Z-2.7
G1 Y36.7793
G1 F300.0 Z-3.2
G1 F800.0 Y40.0
G3 X60.0 Y41.0 I-1.0 J0.0
G1 X59.0
G1 X58.7071 Y40.7071
G1 X59.0 Y41.0
G1 Y49.0
G1 X58.7071 Y49.2929
G1 X59.0 Y49.0
G1 X60.0
G3 X61.0 Y50.0 I0.0 J1.0
G1 Y58.0
G3 X60.0 Y59.0 I-1.0 J0.0
G1 X51.0
G1 X50.7071 Y58.7071
G1 X51.0 Y59.0
G1 Y60.0
G3 X50.0 Y61.0 I-1.0 J0.0
G1 X45.7123
G0 Z-2.7
G1 X42.9123
G1 F300.0 Z-3.2
G1 F800.0 X40.0
G3 X39.0 Y60.0 I0.0 J-1.0
G1 Y59.0
G1 X39.2929 Y58.7071
G1 X39.0 Y59.0
G1 X31.0
G1 X30.7071 Y58.7071
G1 X31.0 Y59.0
G1 Y60.0
G3 X30.0 Y61.0 I-1.0 J0.0
G1 X20.0
G3 X19.0 Y60.0 I0.0 J-1.0
G1 Y59.0
G1 X19.2929 Y58.7071
G1 X19.0 Y59.0
G1 X11.0
G1 X10.7071 Y58.7071
G1 X11.0 Y59.0
G1 Y60.0
G3 X10.0 Y61.0 I-1.0 J0.0
G1 X7.4352
G0 Z-2.7
G1 X4.6352
G1 F300.0 Z-3.2
G1 F800.0 X2.0
G3 X1.0 Y60.0 I0.0 J-1.0
G1 F300.0 Z-3.5
G1 F800.0 Y51.0
G1 X1.2929 Y50.7071
G1 X1.0 Y51.0
G1 X0.0
G3 X-1.0 Y50.0 I0.0 J-1.0
G1 Y40.0
G3 X0.0 Y39.0 I1.0 J0.0
G1 X1.0
G1 X1.2929 Y39.2929
G1 X1.0 Y39.0
G1 Y31.0
G1 X1.2929 Y30.7071
G1 X1.0 Y31.0
G1 X0.0
G3 X-1.0 Y30.0 I0.0 J-1.0
G1 Y26.4545
G0 Z-2.7
G1 Y23.6545
G0 Z-3.0
G1 F300.0 Z-3.5
G1 F800.0 Y20.0
G3 X0.0 Y19.0 I1.0 J0.0
G1 X1.0
G1 X1.2929 Y19.2929
G1 X1.0 Y19.0
G1 Y11.0
G1 X1.2929 Y10.7071
G1 X1.0 Y11.0
G1 X0.0
G3 X-1.0 Y10.0 I0.0 J-1.0
G1 Y2.0
G3 X0.0 Y1.0 I1.0 J0.0
G1 X9.0
G1 X9.2929 Y1.2929
G1 X9.0 Y1.0
G1 Y0.0
G3 X10.0 Y-1.0 I1.0 J0.0
G1 X13.449
G0 Z-2.7
G1 X16.249
G0 Z-3.0
G1 F300.0 Z-3.5
G1 F800.0 X20.0
G3 X21.0 Y0.0 I0.0 J1.0
G1 Y1.0
G1 X20.7071 Y1.2929
G1 X21.0 Y1.0
G1 X29.0
G1 X29.2929 Y1.2929
G1 X29.0 Y1.0
G1 Y0.0
G3 X30.0 Y-1.0 I1.0 J0.0
G1 X40.0
G3 X41.0 Y0.0 I0.0 J1.0
G1 Y1.0
G1 X40.7071 Y1.2929
G1 X41.0 Y1.0
G1 X49.0
G1 X49.2929 Y1.2929
G1 X49.0 Y1.0
G1 Y0.0
G3 X50.0 Y-1.0 I1.0 J0.0
G1 X51.9779
G0 Z-2.7
G1 X54.7779
G0 Z-3.0
G1 F300.0 Z-3.5
G1 F800.0 X58.0
G3 X59.0 Y0.0 I0.0 J1.0
G1 Y9.0
G1 X58.7071 Y9.2929
G1 X59.0 Y9.0
G1 X60.0
G3 X61.0 Y10.0 I0.0 J1.0
G1 Y20.0
G3 X60.0 Y21.0 I-1.0 J0.0
G1 X59.0
G1 X58.7071 Y20.7071
G1 X59.0 Y21.0
G1 Y29.0
G1 X58.7071 Y29.2929
G1 X59.0 Y29.0
G1 X60.0
G3 X61.0 Y30.0 I0.0 J1.0
G1 Y33.9793
G0 Z-2.7
G1 Y36.7793
G0 Z-3.0
G1 F300.0 Z-3.5
G1 F800.0 Y40.0
G3 X60.0 Y41.0 I-1.0 J0.0
G1 X59.0
G1 X58.7071 Y40.7071
G1 X59.0 Y41.0
G1 Y49.0
G1 X58.7071 Y49.2929
G1 X59.0 Y49.0
G1 X60.0
G3 X61.0 Y50.0 I0.0 J1.0
G1 Y58.0
G3 X60.0 Y59.0 I-1.0 J0.0
G1 X51.0
G1 X50.7071 Y58.7071
G1 X51.0 Y59.0
G1 Y60.0
G3 X50.0 Y61.0 I-1.0 J0.0
G1 X45.7123
G0 Z-2.7
G1 X42.9123
G0 Z-3.0
G1 F300.0 Z-3.5
G1 F800.0 X40.0
G3 X39.0 Y60.0 I0.0 J-1.0
G1 Y59.0
G1 X39.2929 Y58.7071
G1 X39.0 Y59.0
G1 X31.0
G1 X30.7071 Y58.7071
G1 X31.0 Y59.0
G1 Y60.0
G3 X30.0 Y61.0 I-1.0 J0.0
G1 X20.0
G3 X19.0 Y60.0 I0.0 J-1.0
G1 Y59.0
G1 X19.2929 Y58.7071
G1 X19.0 Y59.0
G1 X11.0
G1 X10.7071 Y58.7071
G1 X11.0 Y59.0
G1 Y60.0
G3 X10.0 Y61.0 I-1.0 J0.0
G1 X7.4352
G0 Z-2.7
G1 X4.6352
G0 Z-3.0
G1 F300.0 Z-3.5
G1 F800.0 X2.0
G3 X1.0 Y60.0 I0.0 J-1.0
( Profile1 )
G0 Z3.0
G0 X71.0
G0 Z0.2
G1 F300.0 Z-0.4
G1 F800.0 Y51.0
G1 X71.2929 Y50.7071
G1 X71.0 Y51.0
G1 X70.0
G3 X69.0 Y50.0 I0.0 J-1.0
G1 Y40.0
G3 X70.0 Y39.0 I1.0 J0.0
G1 X71.0
G1 X71.2929 Y39.2929
G1 X71.0 Y39.0
G1 Y31.0
G1 X71.2929 Y30.7071
G1 X71.0 Y31.0
G1 X70.0
G3 X69.0 Y30.0 I0.0 J-1.0
G1 Y20.0
G3 X70.0 Y19.0 I1.0 J0.0
G1 X71.0
G1 X71.2929 Y19.2929
G1 X71.0 Y19.0
G1 Y11.0
G1 X71.2929 Y10.7071
G1 X71.0 Y11.0
G1 X70.0
G3 X69.0 Y10.0 I0.0 J-1.0
G1 Y2.0
G3 X70.0 Y1.0 I1.0 J0.0
G1 X79.0
G1 X79.2929 Y1.2929
G1 X79.0 Y1.0
G1 Y0.0
G3 X80.0 Y-1.0 I1.0 J0.0
G1 X90.0
G3 X91.0 Y0.0 I0.0 J1.0
G1 Y1.0
G1 X90.7071 Y1.2929
G1 X91.0 Y1.0
G1 X99.0
G1 X99.2929 Y1.2929
G1 X99.0 Y1.0
G1 Y0.0
G3 X100.0 Y-1.0 I1.0 J0.0
G1 X110.0
G3 X111.0 Y0.0 I0.0 J1.0
G1 Y1.0
G1 X110.7071 Y1.2929
G1 X111.0 Y1.0
G1 X119.0
G1 X119.2929 Y1.2929
G1 X119.0 Y1.0
G1 Y0.0
G3 X120.0 Y-1.0 I1.0 J0.0
G1 X128.0
G3 X129.0 Y0.0 I0.0 J1.0
G1 Y9.0
G1 X128.7071 Y9.2929
G1 X129.0 Y9.0
G1 X130.0
G3 X131.0 Y10.0 I0.0 J1.0
G1 Y20.0
G3 X130.0 Y21.0 I-1.0 J0.0
G1 X129.0
G1 X128.7071 Y20.7071
G1 X129.0 Y21.0
G1 Y29.0
G1 X128.7071 Y29.2929
G1 X129.0 Y29.0
G1 X130.0
G3 X131.0 Y30.0 I0.0 J1.0
G1 Y40.0
G3 X130.0 Y41.0 I-1.0 J0.0
G1 X129.0
G1 X128.7071 Y40.7071
G1 X129.0 Y41.0
G1 Y49.0
G1 X128.7071 Y49.2929
G1 X129.0 Y49.0
G1 X130.0
G3 X131.0 Y50.0 I0.0 J1.0
G1 Y58.0
G3 X130.0 Y59.0 I-1.0 J0.0
G1 X121.0
G1 X120.7071 Y58.7071
G1 X121.0 Y59.0
G1 Y60.0
G3 X120.0 Y61.0 I-1.0 J0.0
G1 X110.0
G3 X109.0 Y60.0 I0.0 J-1.0
G1 Y59.0
G1 X109.2929 Y58.7071
G1 X109.0 Y59.0
G1 X101.0
G1 X100.7071 Y58.7071
G1 X101.0 Y59.0
G1 Y60.0
G3 X100.0 Y61.0 I-1.0 J0.0
G1 X90.0
G3 X89.0 Y60.0 I0.0 J-1.0
G1 Y59.0
G1 X89.2929 Y58.7071
G1 X89.0 Y59.0
G1 X81.0
G1 X80.7071 Y58.7071
G1 X81.0 Y59.0
G1 Y60.0
G3 X80.0 Y61.0 I-1.0 J0.0
G1 X72.0
G3 X71.0 Y60.0 I0.0 J-1.0
G1 F300.0 Z-0.8
G1 F800.0 Y51.0
G1 X71.2929 Y50.7071
G1 X71.0 Y51.0
G1 X70.0
G3 X69.0 Y50.0 I0.0 J-1.0
G1 Y40.0
G3 X70.0 Y39.0 I1.0 J0.0
G1 X71.0
G1 X71.2929 Y39.2929
G1 X71.0 Y39.0
G1 Y31.0
G1 X71.2929 Y30.7071
G1 X71.0 Y31.0
G1 X70.0
G3 X69.0 Y30.0 I0.0 J-1.0
G1 Y20.0
G3 X70.0 Y19.0 I1.0 J0.0
G1 X71.0
G1 X71.2929 Y19.2929
G1 X71.0 Y19.0
G1 Y11.0
G1 X71.2929 Y10.7071
G1 X71.0 Y11.0
G1 X70.0
G3 X69.0 Y10.0 I0.0 J-1.0
G1 Y2.0
G3 X70.0 Y1.0 I1.0 J0.0
G1 X79.0
G1 X79.2929 Y1.2929
G1 X79.0 Y1.0
G1 Y0.0
G3 X80.0 Y-1.0 I1.0 J0.0
G1 X90.0
G3 X91.0 Y0.0 I0.0 J1.0
G1 Y1.0
G1 X90.7071 Y1.2929
G1 X91.0 Y1.0
G1 X99.0
G1 X99.2929 Y1.2929
G1 X99.0 Y1.0
G1 Y0.0
G3 X100.0 Y-1.0 I1.0 J0.0
G1 X110.0
G3 X111.0 Y0.0 I0.0 J1.0
G1 Y1.0
G1 X110.7071 Y1.2929
G1 X111.0 Y1.0
G1 X119.0
G1 X119.2929 Y1.2929
G1 X119.0 Y1.0
G1 Y0.0
G3 X120.0 Y-1.0 I1.0 J0.0
G1 X128.0
G3 X129.0 Y0.0 I0.0 J1.0
G1 Y9.0
G1 X128.7071 Y9.2929
G1 X129.0 Y9.0
G1 X130.0
G3 X131.0 Y10.0 I0.0 J1.0
G1 Y20.0
G3 X130.0 Y21.0 I-1.0 J0.0
G1 X129.0
G1 X128.7071 Y20.7071
G1 X129.0 Y21.0
G1 Y29.0
G1 X128.7071 Y29.2929
G1 X129.0 Y29.0
G1 X130.0
G3 X131.0 Y30.0 I0.0 J1.0
G1 Y40.0
G3 X130.0 Y41.0 I-1.0 J0.0
G1 X129.0
G1 X128.7071 Y40.7071
G1 X129.0 Y41.0
G1 Y49.0
G1 X128.7071 Y49.2929
G1 X129.0 Y49.0
G1 X130.0
G3 X131.0 Y50.0 I0.0 J1.0
G1 Y58.0
G3 X130.0 Y59.0 I-1.0 J0.0
G1 X121.0
G1 X120.7071 Y58.7071
G1 X121.0 Y59.0
G1 Y60.0
G3 X120.0 Y61.0 I-1.0 J0.0
G1 X110.0
G3 X109.0 Y60.0 I0.0 J-1.0
G1 Y59.0
G1 X109.2929 Y58.7071
G1 X109.0 Y59.0
G1 X101.0
G1 X100.7071 Y58.7071
G1 X101.0 Y59.0
G1 Y60.0
G3 X100.0 Y61.0 I-1.0 J0.0
G1 X90.0
G3 X89.0 Y60.0 I0.0 J-1.0
G1 Y59.0
G1 X89.2929 Y58.7071
G1 X89.0 Y59.0
G1 X81.0
G1 X80.7071 Y58.7071
G1 X81.0 Y59.0
G1 Y60.0
G3 X80.0 Y61.0 I-1.0 J0.0
G1 X72.0
G3 X71.0 Y60.0 I0.0 J-1.0
G1 F300.0 Z-1.2
G1 F800.0 Y51.0
G1 X71.2929 Y50.7071
G1 X71.0 Y51.0
G1 X70.0
G3 X69.0 Y50.0 I0.0 J-1.0
G1 Y40.0
G3 X70.0 Y39.0 I1.0 J0.0
G1 X71.0
G1 X71.2929 Y39.2929
G1 X71.0 Y39.0
G1 Y31.0
G1 X71.2929 Y30.7071
G1 X71.0 Y31.0
G1 X70.0
G3 X69.0 Y30.0 I0.0 J-1.0
G1 Y20.0
G3 X70.0 Y19.0 I1.0 J0.0
G1 X71.0
G1 X71.2929 Y19.2929
G1 X71.0 Y19.0
G1 Y11.0
G1 X71.2929 Y10.7071
G1 X71.0 Y11.0
G1 X70.0
G3 X69.0 Y10.0 I0.0 J-1.0
G1 Y2.0
G3 X70.0 Y1.0 I1.0 J0.0
G1 X79.0
G1 X79.2929 Y1.2929
G1 X79.0 Y1.0
G1 Y0.0
G3 X80.0 Y-1.0 I1.0 J0.0
G1 X90.0
G3 X91.0 Y0.0 I0.0 J1.0
G1 Y1.0
G1 X90.7071 Y1.2929
G1 X91.0 Y1.0
G1 X99.0
G1 X99.2929 Y1.2929
G1 X99.0 Y1.0
G1 Y0.0
G3 X100.0 Y-1.0 I1.0 J0.0
G1 X110.0
G3 X111.0 Y0.0 I0.0 J1.0
G1 Y1.0
G1 X110.7071 Y1.2929
G1 X111.0 Y1.0
G1 X119.0
G1 X119.2929 Y1.2929
G1 X119.0 Y1.0
G1 Y0.0
G3 X120.0 Y-1.0 I1.0 J0.0
G1 X128.0
G3 X129.0 Y0.0 I0.0 J1.0
G1 Y9.0
G1 X128.7071 Y9.2929
G1 X129.0 Y9.0
G1 X130.0
G3 X131.0 Y10.0 I0.0 J1.0
G1 Y20.0
G3 X130.0 Y21.0 I-1.0 J0.0
G1 X129.0
G1 X128.7071 Y20.7071
G1 X129.0 Y21.0
G1 Y29.0
G1 X128.7071 Y29.2929
G1 X129.0 Y29.0
G1 X130.0
G3 X131.0 Y30.0 I0.0 J1.0
G1 Y40.0
G3 X130.0 Y41.0 I-1.0 J0.0
G1 X129.0
G1 X128.7071 Y40.7071
G1 X129.0 Y41.0
G1 Y49.0
G1 X128.7071 Y49.2929
G1 X129.0 Y49.0
G1 X130.0
G3 X131.0 Y50.0 I0.0 J1.0
G1 Y58.0
G3 X130.0 Y59.0 I-1.0 J0.0
G1 X121.0
G1 X120.7071 Y58.7071
G1 X121.0 Y59.0
G1 Y60.0
G3 X120.0 Y61.0 I-1.0 J0.0
G1 X110.0
G3 X109.0 Y60.0 I0.0 J-1.0
G1 Y59.0
G1 X109.2929 Y58.7071
G1 X109.0 Y59.0
G1 X101.0
G1 X100.7071 Y58.7071
G1 X101.0 Y59.0
G1 Y60.0
G3 X100.0 Y61.0 I-1.0 J0.0
G1 X90.0
G3 X89.0 Y60.0 I0.0 J-1.0
G1 Y59.0
G1 X89.2929 Y58.7071
G1 X89.0 Y59.0
G1 X81.0
G1 X80.7071 Y58.7071
G1 X81.0 Y59.0
G1 Y60.0
G3 X80.0 Y61.0 I-1.0 J0.0
G1 X72.0
G3 X71.0 Y60.0 I0.0 J-1.0
G1 F300.0 Z-1.6
G1 F800.0 Y51.0
G1 X71.2929 Y50.7071
G1 X71.0 Y51.0
G1 X70.0
G3 X69.0 Y50.0 I0.0 J-1.0
G1 Y40.0
G3 X70.0 Y39.0 I1.0 J0.0
G1 X71.0
G1 X71.2929 Y39.2929
G1 X71.0 Y39.0
G1 Y31.0
G1 X71.2929 Y30.7071
G1 X71.0 Y31.0
G1 X70.0
G3 X69.0 Y30.0 I0.0 J-1.0
G1 Y20.0
G3 X70.0 Y19.0 I1.0 J0.0
G1 X71.0
G1 X71.2929 Y19.2929
G1 X71.0 Y19.0
G1 Y11.0
G1 X71.2929 Y10.7071
G1 X71.0 Y11.0
G1 X70.0
G3 X69.0 Y10.0 I0.0 J-1.0
G1 Y2.0
G3 X70.0 Y1.0 I1.0 J0.0
G1 X79.0
G1 X79.2929 Y1.2929
G1 X79.0 Y1.0
G1 Y0.0
G3 X80.0 Y-1.0 I1.0 J0.0
G1 X90.0
G3 X91.0 Y0.0 I0.0 J1.0
G1 Y1.0
G1 X90.7071 Y1.2929
G1 X91.0 Y1.0
G1 X99.0
G1 X99.2929 Y1.2929
G1 X99.0 Y1.0
G1 Y0.0
G3 X100.0 Y-1.0 I1.0 J0.0
G1 X110.0
G3 X111.0 Y0.0 I0.0 J1.0
G1 Y1.0
G1 X110.7071 Y1.2929
G1 X111.0 Y1.0
G1 X119.0
G1 X119.2929 Y1.2929
G1 X119.0 Y1.0
G1 Y0.0
G3 X120.0 Y-1.0 I1.0 J0.0
G1 X128.0
G3 X129.0 Y0.0 I0.0 J1.0
G1 Y9.0
G1 X128.7071 Y9.2929
G1 X129.0 Y9.0
G1 X130.0
G3 X131.0 Y10.0 I0.0 J1.0
G1 Y20.0
G3 X130.0 Y21.0 I-1.0 J0.0
G1 X129.0
G1 X128.7071 Y20.7071
G1 X129.0 Y21.0
G1 Y29.0
G1 X128.7071 Y29.2929
G1 X129.0 Y29.0
G1 X130.0
G3 X131.0 Y30.0 I0.0 J1.0
G1 Y40.0
G3 X130.0 Y41.0 I-1.0 J0.0
G1 X129.0
G1 X128.7071 Y40.7071
G1 X129.0 Y41.0
G1 Y49.0
G1 X128.7071 Y49.2929
G1 X129.0 Y49.0
G1 X130.0
G3 X131.0 Y50.0 I0.0 J1.0
G1 Y58.0
G3 X130.0 Y59.0 I-1.0 J0.0
G1 X121.0
G1 X120.7071 Y58.7071
G1 X121.0 Y59.0
G1 Y60.0
G3 X120.0 Y61.0 I-1.0 J0.0
G1 X110.0
G3 X109.0 Y60.0 I0.0 J-1.0
G1 Y59.0
G1 X109.2929 Y58.7071
G1 X109.0 Y59.0
G1 X101.0
G1 X100.7071 Y58.7071
G1 X101.0 Y59.0
G1 Y60.0
G3 X100.0 Y61.0 I-1.0 J0.0
G1 X90.0
G3 X89.0 Y60.0 I0.0 J-1.0
G1 Y59.0
G1 X89.2929 Y58.7071
G1 X89.0 Y59.0
G1 X81.0
G1 X80.7071 Y58.7071
G1 X81.0 Y59.0
G1 Y60.0
G3 X80.0 Y61.0 I-1.0 J0.0
G1 X72.0
G3 X71.0 Y60.0 I0.0 J-1.0
G1 F300.0 Z-2.0
G1 F800.0 Y51.0
G1 X71.2929 Y50.7071
G1 X71.0 Y51.0
G1 X70.0
G3 X69.0 Y50.0 I0.0 J-1.0
G1 Y40.0
G3 X70.0 Y39.0 I1.0 J0.0
G1 X71.0
G1 X71.2929 Y39.2929
G1 X71.0 Y39.0
G1 Y31.0
G1 X71.2929 Y30.7071
G1 X71.0 Y31.0
G1 X70.0
G3 X69.0 Y30.0 I0.0 J-1.0
G1 Y20.0
G3 X70.0 Y19.0 I1.0 J0.0
G1 X71.0
G1 X71.2929 Y19.2929
G1 X71.0 Y19.0
G1 Y11.0
G1 X71.2929 Y10.7071
G1 X71.0 Y11.0
G1 X70.0
G3 X69.0 Y10.0 I0.0 J-1.0
G1 Y2.0
G3 X70.0 Y1.0 I1.0 J0.0
G1 X79.0
G1 X79.2929 Y1.2929
G1 X79.0 Y1.0
G1 Y0.0
G3 X80.0 Y-1.0 I1.0 J0.0
G1 X90.0
G3 X91.0 Y0.0 I0.0 J1.0
G1 Y1.0
G1 X90.7071 Y1.2929
G1 X91.0 Y1.0
G1 X99.0
G1 X99.2929 Y1.2929
G1 X99.0 Y1.0
G1 Y0.0
G3 X100.0 Y-1.0 I1.0 J0.0
G1 X110.0
G3 X111.0 Y0.0 I0.0 J1.0
G1 Y1.0
G1 X110.7071 Y1.2929
G1 X111.0 Y1.0
G1 X119.0
G1 X119.2929 Y1.2929
G1 X119.0 Y1.0
G1 Y0.0
G3 X120.0 Y-1.0 I1.0 J0.0
G1 X128.0
G3 X129.0 Y0.0 I0.0 J1.0
G1 Y9.0
G1 X128.7071 Y9.2929
G1 X129.0 Y9.0
G1 X130.0
G3 X131.0 Y10.0 I0.0 J1.0
G1 Y20.0
G3 X130.0 Y21.0 I-1.0 J0.0
G1 X129.0
G1 X128.7071 Y20.7071
G1 X129.0 Y21.0
G1 Y29.0
G1 X128.7071 Y29.2929
G1 X129.0 Y29.0
G1 X130.0
G3 X131.0 Y30.0 I0.0 J1.0
G1 Y40.0
G3 X130.0 Y41.0 I-1.0 J0.0
G1 X129.0
G1 X128.7071 Y40.7071
G1 X129.0 Y41.0
G1 Y49.0
G1 X128.7071 Y49.2929
G1 X129.0 Y49.0
G1 X130.0
G3 X131.0 Y50.0 I0.0 J1.0
G1 Y58.0
G3 X130.0 Y59.0 I-1.0 J0.0
G1 X121.0
G1 X120.7071 Y58.7071
G1 X121.0 Y59.0
G1 Y60.0
G3 X120.0 Y61.0 I-1.0 J0.0
G1 X110.0
G3 X109.0 Y60.0 I0.0 J-1.0
G1 Y59.0
G1 X109.2929 Y58.7071
G1 X109.0 Y59.0
G1 X101.0
G1 X100.7071 Y58.7071
G1 X101.0 Y59.0
G1 Y60.0
G3 X100.0 Y61.0 I-1.0 J0.0
G1 X90.0
G3 X89.0 Y60.0 I0.0 J-1.0
G1 Y59.0
G1 X89.2929 Y58.7071
G1 X89.0 Y59.0
G1 X81.0
G1 X80.7071 Y58.7071
G1 X81.0 Y59.0
G1 Y60.0
G3 X80.0 Y61.0 I-1.0 J0.0
G1 X72.0
G3 X71.0 Y60.0 I0.0 J-1.0
G1 F300.0 Z-2.4
G1 F800.0 Y51.0
G1 X71.2929 Y50.7071
G1 X71.0 Y51.0
G1 X70.0
G3 X69.0 Y50.0 I0.0 J-1.0
G1 Y40.0
G3 X70.0 Y39.0 I1.0 J0.0
G1 X71.0
G1 X71.2929 Y39.2929
G1 X71.0 Y39.0
G1 Y31.0
G1 X71.2929 Y30.7071
G1 X71.0 Y31.0
G1 X70.0
G3 X69.0 Y30.0 I0.0 J-1.0
G1 Y20.0
G3 X70.0 Y19.0 I1.0 J0.0
G1 X71.0
G1 X71.2929 Y19.2929
G1 X71.0 Y19.0
G1 Y11.0
G1 X71.2929 Y10.7071
G1 X71.0 Y11.0
G1 X70.0
G3 X69.0 Y10.0 I0.0 J-1.0
G1 Y2.0
G3 X70.0 Y1.0 I1.0 J0.0
G1 X79.0
G1 X79.2929 Y1.2929
G1 X79.0 Y1.0
G1 Y0.0
G3 X80.0 Y-1.0 I1.0 J0.0
G1 X90.0
G3 X91.0 Y0.0 I0.0 J1.0
G1 Y1.0
G1 X90.7071 Y1.2929
G1 X91.0 Y1.0
G1 X99.0
G1 X99.2929 Y1.2929
G1 X99.0 Y1.0
G1 Y0.0
G3 X100.0 Y-1.0 I1.0 J0.0
G1 X110.0
G3 X111.0 Y0.0 I0.0 J1.0
G1 Y1.0
G1 X110.7071 Y1.2929
G1 X111.0 Y1.0
G1 X119.0
G1 X119.2929 Y1.2929
G1 X119.0 Y1.0
G1 Y0.0
G3 X120.0 Y-1.0 I1.0 J0.0
G1 X128.0
G3 X129.0 Y0.0 I0.0 J1.0
G1 Y9.0
G1 X128.7071 Y9.2929
G1 X129.0 Y9.0
G1 X130.0
G3 X131.0 Y10.0 I0.0 J1.0
G1 Y20.0
G3 X130.0 Y21.0 I-1.0 J0.0
G1 X129.0
G1 X128.7071 Y20.7071
G1 X129.0 Y21.0
G1 Y29.0
G1 X128.7071 Y29.2929
G1 X129.0 Y29.0
G1 X130.0
G3 X131.0 Y30.0 I0.0 J1.0
G1 Y40.0
G3 X130.0 Y41.0 I-1.0 J0.0
G1 X129.0
G1 X128.7071 Y40.7071
G1 X129.0 Y41.0
G1 Y49.0
G1 X128.7071 Y49.2929
G1 X129.0 Y49.0
G1 X130.0
G3 X131.0 Y50.0 I0.0 J1.0
G1 Y58.0
G3 X130.0 Y59.0 I-1.0 J0.0
G1 X121.0
G1 X120.7071 Y58.7071
G1 X121.0 Y59.0
G1 Y60.0
G3 X120.0 Y61.0 I-1.0 J0.0
G1 X110.0
G3 X109.0 Y60.0 I0.0 J-1.0
G1 Y59.0
G1 X109.2929 Y58.7071
G1 X109.0 Y59.0
G1 X101.0
G1 X100.7071 Y58.7071
G1 X101.0 Y59.0
G1 Y60.0
G3 X100.0 Y61.0 I-1.0 J0.0
G1 X90.0
G3 X89.0 Y60.0 I0.0 J-1.0
G1 Y59.0
G1 X89.2929 Y58.7071
G1 X89.0 Y59.0
G1 X81.0
G1 X80.7071 Y58.7071
G1 X81.0 Y59.0
G1 Y60.0
G3 X80.0 Y61.0 I-1.0 J0.0
G1 X72.0
G3 X71.0 Y60.0 I0.0 J-1.0
G1 F300.0 Z-2.8
G1 F800.0 Y51.0
G1 X71.2929 Y50.7071
G1 X71.0 Y51.0
G1 X70.0
G3 X69.0 Y50.0 I0.0 J-1.0
G1 Y40.0
G3 X70.0 Y39.0 I1.0 J0.0
G1 X71.0
G1 X71.2929 Y39.2929
G1 X71.0 Y39.0
G1 Y31.0
G1 X71.2929 Y30.7071
G1 X71.0 Y31.0
G1 X70.0
G3 X69.0 Y30.0 I0.0 J-1.0
G1 Y26.4545
G0 Z-2.7
G1 Y23.6545
G1 F300.0 Z-2.8
G1 F800.0 Y20.0
G3 X70.0 Y19.0 I1.0 J0.0
G1 X71.0
G1 X71.2929 Y19.2929
G1 X71.0 Y19.0
G1 Y11.0
G1 X71.2929 Y10.7071
G1 X71.0 Y11.0
G1 X70.0
G3 X69.0 Y10.0 I0.0 J-1.0
G1 Y2.0
G3 X70.0 Y1.0 I1.0 J0.0
G1 X79.0
G1 X79.2929 Y1.2929
G1 X79.0 Y1.0
G1 Y0.0
G3 X80.0 Y-1.0 I1.0 J0.0
G1 X83.449
G0 Z-2.7
G1 X86.249
G1 F300.0 Z-2.8
G1 F800.0 X90.0
G3 X91.0 Y0.0 I0.0 J1.0
G1 Y1.0
G1 X90.7071 Y1.2929
G1 X91.0 Y1.0
G1 X99.0
G1 X99.2929 Y1.2929
G1 X99.0 Y1.0
G1 Y0.0
G3 X100.0 Y-1.0 I1.0 J0.0
G1 X110.0
G3 X111.0 Y0.0 I0.0 J1.0
G1 Y1.0
G1 X110.7071 Y1.2929
G1 X111.0 Y1.0
G1 X119.0
G1 X119.2929 Y1.2929
G1 X119.0 Y1.0
G1 Y0.0
G3 X120.0 Y-1.0 I1.0 J0.0
G1 X121.9779
G0 Z-2.7
G1 X124.7779
G1 F300.0 Z-2.8
G1 F800.0 X128.0
G3 X129.0 Y0.0 I0.0 J1.0
G1 Y9.0
G1 X128.7071 Y9.2929
G1 X129.0 Y9.0
G1 X130.0
G3 X131.0 Y10.0 I0.0 J1.0
G1 Y20.0
G3 X130.0 Y21.0 I-1.0 J0.0
G1 X129.0
G1 X128.7071 Y20.7071
G1 X129.0 Y21.0
G1 Y29.0
G1 X128.7071 Y29.2929
G1 X129.0 Y29.0
G1 X130.0
G3 X131.0 Y30.0 I0.0 J1.0
G1 Y33.9793
G0 Z-2.7
G1 Y36.7793
G1 F300.0 Z-2.8
G1 F800.0 Y40.0
G3 X130.0 Y41.0 I-1.0 J0.0
G1 X129.0
G1 X128.7071 Y40.7071
G1 X129.0 Y41.0
G1 Y49.0
G1 X128.7071 Y49.2929
G1 X129.0 Y49.0
G1 X130.0
G3 X131.0 Y50.0 I0.0 J1.0
G1 Y58.0
G3 X130.0 Y59.0 I-1.0 J0.0
G1 X121.0
G1 X120.7071 Y58.7071
G1 X121.0 Y59.0
G1 Y60.0
G3 X120.0 Y61.0 I-1.0 J0.0
G1 X115.7123
G0 Z-2.7
G1 X112.9123
G1 F300.0 Z-2.8
G1 F800.0 X110.0
G3 X109.0 Y60.0 I0.0 J-1.0
G1 Y59.0
G1 X109.2929 Y58.7071
G1 X109.0 Y59.0
G1 X101.0
G1 X100.7071 Y58.7071
G1 X101.0 Y59.0
G1 Y60.0
G3 X100.0 Y61.0 I-1.0 J0.0
G1 X90.0
G3 X89.0 Y60.0 I0.0 J-1.0
G1 Y59.0
G1 X89.2929 Y58.7071
G1 X89.0 Y59.0
G1 X81.0
G1 X80.7071 Y58.7071
G1 X81.0 Y59.0
G1 Y60.0
G3 X80.0 Y61.0 I-1.0 J0.0
G1 X77.4352
G0 Z-2.7
G1 X74.6352
G1 F300.0 Z-2.8
G1 F800.0 X72.0
G3 X71.0 Y60.0 I0.0 J-1.0
G1 F300.0 Z-3.2
G1 F800.0 Y51.0
G1 X71.2929 Y50.7071
G1 X71.0 Y51.0
G1 X70.0
G3 X69.0 Y50.0 I0.0 J-1.0
G1 Y40.0
G3 X70.0 Y39.0 I1.0 J0.0
G1 X71.0
G1 X71.2929 Y39.2929
G1 X71.0 Y39.0
G1 Y31.0
G1 X71.2929 Y30.7071
G1 X71.0 Y31.0
G1 X70.0
G3 X69.0 Y30.0 I0.0 J-1.0
G1 Y26.4545
G0 Z-2.7
G1 Y23.6545
G1 F300.0 Z-3.2
G1 F800.0 Y20.0
G3 X70.0 Y19.0 I1.0 J0.0
G1 X71.0
G1 X71.2929 Y19.2929
G1 X71.0 Y19.0
G1 Y11.0
G1 X71.2929 Y10.7071
G1 X71.0 Y11.0
G1 X70.0
G3 X69.0 Y10.0 I0.0 J-1.0
G1 Y2.0
G3 X70.0 Y1.0 I1.0 J0.0
G1 X79.0
G1 X79.2929 Y1.2929
G1 X79.0 Y1.0
G1 Y0.0
G3 X80.0 Y-1.0 I1.0 J0.0
G1 X83.449
G0 Z-2.7
G1 X86.249
G1 F300.0 Z-3.2
G1 F800.0 X90.0
G3 X91.0 Y0.0 I0.0 J1.0
G1 Y1.0
G1 X90.7071 Y1.2929
G1 X91.0 Y1.0
G1 X99.0
G1 X99.2929 Y1.2929
G1 X99.0 Y1.0
G1 Y0.0
G3 X100.0 Y-1.0 I1.0 J0.0
G1 X110.0
G3 X111.0 Y0.0 I0.0 J1.0
G1 Y1.0
G1 X110.7071 Y1.2929
G1 X111.0 Y1.0
G1 X119.0
G1 X119.2929 Y1.2929
G1 X119.0 Y1.0
G1 Y0.0
G3 X120.0 Y-1.0 I1.0 J0.0
G1 X121.9779
G0 Z-2.7
G1 X124.7779
G1 F300.0 Z-3.2
G1 F800.0 X128.0
G3 X129.0 Y0.0 I0.0 J1.0
G1 Y9.0
G1 X128.7071 Y9.2929
G1 X129.0 Y9.0
G1 X130.0
G3 X131.0 Y10.0 I0.0 J1.0
G1 Y20.0
G3 X130.0 Y21.0 I-1.0 J0.0
G1 X129.0
G1 X128.7071 Y20.7071
G1 X129.0 Y21.0
G1 Y29.0
G1 X128.7071 Y29.2929
G1 X129.0 Y29.0
G1 X130.0
G3 X131.0 Y30.0 I0.0 J1.0
G1 Y33.9793
G0 Z-2.7
G1 Y36.7793
G1 F300.0 Z-3.2
G1 F800.0 Y40.0
G3 X130.0 Y41.0 I-1.0 J0.0
G1 X129.0
G1 X128.7071 Y40.7071
G1 X129.0 Y41.0
G1 Y49.0
G1 X128.7071 Y49.2929
G1 X129.0 Y49.0
G1 X130.0
G3 X131.0 Y50.0 I0.0 J1.0
G1 Y58.0
G3 X130.0 Y59.0 I-1.0 J0.0
G1 X121.0
G1 X120.7071 Y58.7071
G1 X121.0 Y59.0
G1 Y60.0
G3 X120.0 Y61.0 I-1.0 J0.0
G1 X115.7123
G0 Z-2.7
G1 X112.9123
G1 F300.0 Z-3.2
G1 F800.0 X110.0
G3 X109.0 Y60.0 I0.0 J-1.0
G1 Y59.0
G1 X109.2929 Y58.7071
G1 X109.0 Y59.0
G1 X101.0
G1 X100.7071 Y58.7071
G1 X101.0 Y59.0
G1 Y60.0
G3 X100.0 Y61.0 I-1.0 J0.0
G1 X90.0
G3 X89.0 Y60.0 I0.0 J-1.0
G1 Y59.0
G1 X89.2929 Y58.7071
G1 X89.0 Y59.0
G1 X81.0
G1 X80.7071 Y58.7071
G1 X81.0 Y59.0
G1 Y60.0
G3 X80.0 Y61.0 I-1.0 J0.0
G1 X77.4352
G0 Z-2.7
G1 X74.6352
G1 F300.0 Z-3.2
G1 F800.0 X72.0
G3 X71.0 Y60.0 I0.0 J-1.0
G1 F300.0 Z-3.5
G1 F800.0 Y51.0
G1 X71.2929 Y50.7071
G1 X71.0 Y51.0
G1 X70.0
G3 X69.0 Y50.0 I0.0 J-1.0
G1 Y40.0
G3 X70.0 Y39.0 I1.0 J0.0
G1 X71.0
G1 X71.2929 Y39.2929
G1 X71.0 Y39.0
G1 Y31.0
G1 X71.2929 Y30.7071
G1 X71.0 Y31.0
G1 X70.0
G3 X69.0 Y30.0 I0.0 J-1.0
G1 Y26.4545
G0 Z-2.7
G1 Y23.6545
G0 Z-3.0
G1 F300.0 Z-3.5
G1 F800.0 Y20.0
G3 X70.0 Y19.0 I1.0 J0.0
G1 X71.0
G1 X71.2929 Y19.2929
G1 X71.0 Y19.0
G1 Y11.0
G1 X71.2929 Y10.7071
G1 X71.0 Y11.0
G1 X70.0
G3 X69.0 Y10.0 I0.0 J-1.0
G1 Y2.0
G3 X70.0 Y1.0 I1.0 J0.0
G1 X79.0
G1 X79.2929 Y1.2929
G1 X79.0 Y1.0
G1 Y0.0
G3 X80.0 Y-1.0 I1.0 J0.0
G1 X83.449
G0 Z-2.7
G1 X86.249
G0 Z-3.0
G1 F300.0 Z-3.5
G1 F800.0 X90.0
G3 X91.0 Y0.0 I0.0 J1.0
G1 Y1.0
G1 X90.7071 Y1.2929
G1 X91.0 Y1.0
G1 X99.0
G1 X99.2929 Y1.2929
G1 X99.0 Y1.0
G1 Y0.0
G3 X100.0 Y-1.0 I1.0 J0.0
G1 X110.0
G3 X111.0 Y0.0 I0.0 J1.0
G1 Y1.0
G1 X110.7071 Y1.2929
G1 X111.0 Y1.0
G1 X119.0
G1 X119.2929 Y1.2929
G1 X119.0 Y1.0
G1 Y0.0
G3 X120.0 Y-1.0 I1.0 J0.0
G1 X121.9779
G0 Z-2.7
G1 X124.7779
G0 Z-3.0
G1 F300.0 Z-3.5
G1 F800.0 X128.0
G3 X129.0 Y0.0 I0.0 J1.0
G1 Y9.0
G1 X128.7071 Y9.2929
G1 X129.0 Y9.0
G1 X130.0
G3 X131.0 Y10.0 I0.0 J1.0
G1 Y20.0
G3 X130.0 Y21.0 I-1.0 J0.0
G1 X129.0
G1 X128.7071 Y20.7071
G1 X129.0 Y21.0
G1 Y29.0
G1 X128.7071 Y29.2929
G1 X129.0 Y29.0
G1 X130.0
G3 X131.0 Y30.0 I0.0 J1.0
G1 Y33.9793
G0 Z-2.7
G1 Y36.7793
G0 Z-3.0
G1 F300.0 Z-3.5
G1 F800.0 Y40.0
G3 X130.0 Y41.0 I-1.0 J0.0
G1 X129.0
G1 X128.7071 Y40.7071
G1 X129.0 Y41.0
G1 Y49.0
G1 X128.7071 Y49.2929
G1 X129.0 Y49.0
G1 X130.0
G3 X131.0 Y50.0 I0.0 J1.0
G1 Y58.0
G3 X130.0 Y59.0 I-1.0 J0.0
G1 X121.0
G1 X120.7071 Y58.7071
G1 X121.0 Y59.0
G1 Y60.0
G3 X120.0 Y61.0 I-1.0 J0.0
G1 X115.7123
G0 Z-2.7
G1 X112.9123
G0 Z-3.0
G1 F300.0 Z-3.5
G1 F800.0 X110.0
G3 X109.0 Y60.0 I0.0 J-1.0
G1 Y59.0
G1 X109.2929 Y58.7071
G1 X109.0 Y59.0
G1 X101.0
G1 X100.7071 Y58.7071
G1 X101.0 Y59.0
G1 Y60.0
G3 X100.0 Y61.0 I-1.0 J0.0
G1 X90.0
G3 X89.0 Y60.0 I0.0 J-1.0
G1 Y59.0
G1 X89.2929 Y58.7071
G1 X89.0 Y59.0
G1 X81.0
G1 X80.7071 Y58.7071
G1 X81.0 Y59.0
G1 Y60.0
G3 X80.0 Y61.0 I-1.0 J0.0
G1 X77.4352
G0 Z-2.7
G1 X74.6352
G0 Z-3.0
G1 F300.0 Z-3.5
G1 F800.0 X72.0
G3 X71.0 Y60.0 I0.0 J-1.0
( Profile1 )
G0 Z3.0
G0 X141.0
G0 Z0.2
G1 F300.0 Z-0.4
G1 F800.0 Y51.0
G1 X141.2929 Y50.7071
G1 X141.0 Y51.0
G1 X140.0
G3 X139.0 Y50.0 I0.0 J-1.0
G1 Y40.0
G3 X140.0 Y39.0 I1.0 J0.0
G1 X141.0
G1 X141.2929 Y39.2929
G1 X141.0 Y39.0
G1 Y31.0
G1 X141.2929 Y30.7071
G1 X141.0 Y31.0
G1 X140.0
G3 X139.0 Y30.0 I0.0 J-1.0
G1 Y20.0
G3 X140.0 Y19.0 I1.0 J0.0
G1 X141.0
G1 X141.2929 Y19.2929
G1 X141.0 Y19.0
G1 Y11.0
G1 X141.2929 Y10.7071
G1 X141.0 Y11.0
G1 X140.0
G3 X139.0 Y10.0 I0.0 J-1.0
G1 Y2.0
G3 X140.0 Y1.0 I1.0 J0.0
G1 X149.0
G1 X149.2929 Y1.2929
G1 X149.0 Y1.0
G1 Y0.0
G3 X150.0 Y-1.0 I1.0 J0.0
G1 X160.0
G3 X161.0 Y0.0 I0.0 J1.0
G1 Y1.0
G1 X160.7071 Y1.2929
G1 X161.0 Y1.0
G1 X169.0
G1 X169.2929 Y1.2929
G1 X169.0 Y1.0
G1 Y0.0
G3 X170.0 Y-1.0 I1.0 J0.0
G1 X180.0
G3 X181.0 Y0.0 I0.0 J1.0
G1 Y1.0
G1 X180.7071 Y1.2929
G1 X181.0 Y1.0
G1 X189.0
G1 X189.2929 Y1.2929
G1 X189.0 Y1.0
G1 Y0.0
G3 X190.0 Y-1.0 I1.0 J0.0
G1 X198.0
G3 X199.0 Y0.0 I0.0 J1.0
G1 Y9.0
G1 X198.7071 Y9.2929
G1 X199.0 Y9.0
G1 X200.0
G3 X201.0 Y10.0 I0.0 J1.0
G1 Y20.0
G3 X200.0 Y21.0 I-1.0 J0.0
G1 X199.0
G1 X198.7071 Y20.7071
G1 X199.0 Y21.0
G1 Y29.0
G1 X198.7071 Y29.2929
G1 X199.0 Y29.0
G1 X200.0
G3 X201.0 Y30.0 I0.0 J1.0
G1 Y40.0
G3 X200.0 Y41.0 I-1.0 J0.0
G1 X199.0
G1 X198.7071 Y40.7071
G1 X199.0 Y41.0
G1 Y49.0
G1 X198.7071 Y49.2929
G1 X199.0 Y49.0
G1 X200.0
G3 X201.0 Y50.0 I0.0 J1.0
G1 Y58.0
G3 X200.0 Y59.0 I-1.0 J0.0
G1 X191.0
G1 X190.7071 Y58.7071
G1 X191.0 Y59.0
G1 Y60.0
G3 X190.0 Y61.0 I-1.0 J0.0
G1 X180.0
G3 X179.0 Y60.0 I0.0 J-1.0
G1 Y59.0
G1 X179.2929 Y58.7071
G1 X179.0 Y59.0
G1 X171.0
G1 X170.7071 Y58.7071
G1 X171.0 Y59.0
G1 Y60.0
G3 X170.0 Y61.0 I-1.0 J0.0
G1 X160.0
G3 X159.0 Y60.0 I0.0 J-1.0
G1 Y59.0
G1 X159.2929 Y58.7071
G1 X159.0 Y59.0
G1 X151.0
G1 X150.7071 Y58.7071
G1 X151.0 Y59.0
G1 Y60.0
G3 X150.0 Y61.0 I-1.0 J0.0
G1 X142.0
G3 X141.0 Y60.0 I0.0 J-1.0
G1 F300.0 Z-0.8
G1 F800.0 Y51.0
G1 X141.2929 Y50.7071
G1 X141.0 Y51.0
G1 X140.0
G3 X139.0 Y50.0 I0.0 J-1.0
G1 Y40.0
G3 X140.0 Y39.0 I1.0 J0.0
G1 X141.0
G1 X141.2929 Y39.2929
G1 X141.0 Y39.0
G1 Y31.0
G1 X141.2929 Y30.7071
G1 X141.0 Y31.0
G1 X140.0
G3 X139.0 Y30.0 I0.0 J-1.0
G1 Y20.0
G3 X140.0 Y19.0 I1.0 J0.0
G1 X141.0
G1 X141.2929 Y19.2929
G1 X141.0 Y19.0
G1 Y11.0
G1 X141.2929 Y10.7071
G1 X141.0 Y11.0
G1 X140.0
G3 X139.0 Y10.0 I0.0 J-1.0
G1 Y2.0
G3 X140.0 Y1.0 I1.0 J0.0
G1 X149.0
G1 X149.2929 Y1.2929
G1 X149.0 Y1.0
G1 Y0.0
G3 X150.0 Y-1.0 I1.0 J0.0
G1 X160.0
G3 X161.0 Y0.0 I0.0 J1.0
G1 Y1.0
G1 X160.7071 Y1.2929
G1 X161.0 Y1.0
G1 X169.0
G1 X169.2929 Y1.2929
G1 X169.0 Y1.0
G1 Y0.0
G3 X170.0 Y-1.0 I1.0 J0.0
G1 X180.0
G3 X181.0 Y0.0 I0.0 J1.0
G1 Y1.0
G1 X180.7071 Y1.2929
G1 X181.0 Y1.0
G1 X189.0
G1 X189.2929 Y1.2929
G1 X189.0 Y1.0
G1 Y0.0
G3 X190.0 Y-1.0 I1.0 J0.0
G1 X198.0
G3 X199.0 Y0.0 I0.0 J1.0
G1 Y9.0
G1 X198.7071 Y9.2929
G1 X199.0 Y9.0
G1 X200.0
G3 X201.0 Y10.0 I0.0 J1.0
G1 Y20.0
G3 X200.0 Y21.0 I-1.0 J0.0
G1 X199.0
G1 X198.7071 Y20.7071
G1 X199.0 Y21.0
G1 Y29.0
G1 X198.7071 Y29.2929
G1 X199.0 Y29.0
G1 X200.0
G3 X201.0 Y30.0 I0.0 J1.0
G1 Y40.0
G3 X200.0 Y41.0 I-1.0 J0.0
G1 X199.0
G1 X198.7071 Y40.7071
G1 X199.0 Y41.0
G1 Y49.0
G1 X198.7071 Y49.2929
G1 X199.0 Y49.0
G1 X200.0
G3 X201.0 Y50.0 I0.0 J1.0
G1 Y58.0
G3 X200.0 Y59.0 I-1.0 J0.0
G1 X191.0
G1 X190.7071 Y58.7071
G1 X191.0 Y59.0
G1 Y60.0
G3 X190.0 Y61.0 I-1.0 J0.0
G1 X180.0
G3 X179.0 Y60.0 I0.0 J-1.0
G1 Y59.0
G1 X179.2929 Y58.7071
G1 X179.0 Y59.0
G1 X171.0
G1 X170.7071 Y58.7071
G1 X171.0 Y59.0
G1 Y60.0
G3 X170.0 Y61.0 I-1.0 J0.0
G1 X160.0
G3 X159.0 Y60.0 I0.0 J-1.0
G1 Y59.0
G1 X159.2929 Y58.7071
G1 X159.0 Y59.0
G1 X151.0
G1 X150.7071 Y58.7071
G1 X151.0 Y59.0
G1 Y60.0
G3 X150.0 Y61.0 I-1.0 J0.0
G1 X142.0
G3 X141.0 Y60.0 I0.0 J-1.0
G1 F300.0 Z-1.2
G1 F800.0 Y51.0
G1 X141.2929 Y50.7071
G1 X141.0 Y51.0
G1 X140.0
G3 X139.0 Y50.0 I0.0 J-1.0
G1 Y40.0
G3 X140.0 Y39.0 I1.0 J0.0
G1 X141.0
G1 X141.2929 Y39.2929
G1 X141.0 Y39.0
G1 Y31.0
G1 X141.2929 Y30.7071
G1 X141.0 Y31.0
G1 X140.0
G3 X139.0 Y30.0 I0.0 J-1.0
G1 Y20.0
G3 X140.0 Y19.0 I1.0 J0.0
G1 X141.0
G1 X141.2929 Y19.2929
G1 X141.0 Y19.0
G1 Y11.0
G1 X141.2929 Y10.7071
G1 X141.0 Y11.0
G1 X140.0
G3 X139.0 Y10.0 I0.0 J-1.0
G1 Y2.0
G3 X140.0 Y1.0 I1.0 J0.0
G1 X149.0
G1 X149.2929 Y1.2929
G1 X149.0 Y1.0
G1 Y0.0
G3 X150.0 Y-1.0 I1.0 J0.0
G1 X160.0
G3 X161.0 Y0.0 I0.0 J1.0
G1 Y1.0
G1 X160.7071 Y1.2929
G1 X161.0 Y1.0
G1 X169.0
G1 X169.2929 Y1.2929
G1 X169.0 Y1.0
G1 Y0.0
G3 X170.0 Y-1.0 I1.0 J0.0
G1 X180.0
G3 X181.0 Y0.0 I0.0 J1.0
G1 Y1.0
G1 X180.7071 Y1.2929
G1 X181.0 Y1.0
G1 X189.0
G1 X189.2929 Y1.2929
G1 X189.0 Y1.0
G1 Y0.0
G3 X190.0 Y-1.0 I1.0 J0.0
G1 X198.0
G3 X199.0 Y0.0 I0.0 J1.0
G1 Y9.0
G1 X198.7071 Y9.2929
G1 X199.0 Y9.0
G1 X200.0
G3 X201.0 Y10.0 I0.0 J1.0
G1 Y20.0
G3 X200.0 Y21.0 I-1.0 J0.0
G1 X199.0
G1 X198.7071 Y20.7071
G1 X199.0 Y21.0
G1 Y29.0
G1 X198.7071 Y29.2929
G1 X199.0 Y29.0
G1 X200.0
G3 X201.0 Y30.0 I0.0 J1.0
G1 Y40.0
G3 X200.0 Y41.0 I-1.0 J0.0
G1 X199.0
G1 X198.7071 Y40.7071
G1 X199.0 Y41.0
G1 Y49.0
G1 X198.7071 Y49.2929
G1 X199.0 Y49.0
G1 X200.0
G3 X201.0 Y50.0 I0.0 J1.0
G1 Y58.0
G3 X200.0 Y59.0 I-1.0 J0.0
G1 X191.0
G1 X190.7071 Y58.7071
G1 X191.0 Y59.0
G1 Y60.0
G3 X190.0 Y61.0 I-1.0 J0.0
G1 X180.0
G3 X179.0 Y60.0 I0.0 J-1.0
G1 Y59.0
G1 X179.2929 Y58.7071
G1 X179.0 Y59.0
G1 X171.0
G1 X170.7071 Y58.7071
G1 X171.0 Y59.0
G1 Y60.0
G3 X170.0 Y61.0 I-1.0 J0.0
G1 X160.0
G3 X159.0 Y60.0 I0.0 J-1.0
G1 Y59.0
G1 X159.2929 Y58.7071
G1 X159.0 Y59.0
G1 X151.0
G1 X150.7071 Y58.7071
G1 X151.0 Y59.0
G1 Y60.0
G3 X150.0 Y61.0 I-1.0 J0.0
G1 X142.0
G3 X141.0 Y60.0 I0.0 J-1.0
G1 F300.0 Z-1.6
G1 F800.0 Y51.0
G1 X141.2929 Y50.7071
G1 X141.0 Y51.0
G1 X140.0
G3 X139.0 Y50.0 I0.0 J-1.0
G1 Y40.0
G3 X140.0 Y39.0 I1.0 J0.0
G1 X141.0
G1 X141.2929 Y39.2929
G1 X141.0 Y39.0
G1 Y31.0
G1 X141.2929 Y30.7071
G1 X141.0 Y31.0
G1 X140.0
G3 X139.0 Y30.0 I0.0 J-1.0
G1 Y20.0
G3 X140.0 Y19.0 I1.0 J0.0
G1 X141.0
G1 X141.2929 Y19.2929
G1 X141.0 Y19.0
G1 Y11.0
G1 X141.2929 Y10.7071
G1 X141.0 Y11.0
G1 X140.0
G3 X139.0 Y10.0 I0.0 J-1.0
G1 Y2.0
G3 X140.0 Y1.0 I1.0 J0.0
G1 X149.0
G1 X149.2929 Y1.2929
G1 X149.0 Y1.0
G1 Y0.0
G3 X150.0 Y-1.0 I1.0 J0.0
G1 X160.0
G3 X161.0 Y0.0 I0.0 J1.0
G1 Y1.0
G1 X160.7071 Y1.2929
G1 X161.0 Y1.0
G1 X169.0
G1 X169.2929 Y1.2929
G1 X169.0 Y1.0
G1 Y0.0
G3 X170.0 Y-1.0 I1.0 J0.0
G1 X180.0
G3 X181.0 Y0.0 I0.0 J1.0
G1 Y1.0
G1 X180.7071 Y1.2929
G1 X181.0 Y1.0
G1 X189.0
G1 X189.2929 Y1.2929
G1 X189.0 Y1.0
G1 Y0.0
G3 X190.0 Y-1.0 I1.0 J0.0
G1 X198.0
G3 X199.0 Y0.0 I0.0 J1.0
G1 Y9.0
G1 X198.7071 Y9.2929
G1 X199.0 Y9.0
G1 X200.0
G3 X201.0 Y10.0 I0.0 J1.0
G1 Y20.0
G3 X200.0 Y21.0 I-1.0 J0.0
G1 X199.0
G1 X198.7071 Y20.7071
G1 X199.0 Y21.0
G1 Y29.0
G1 X198.7071 Y29.2929
G1 X199.0 Y29.0
G1 X200.0
G3 X201.0 Y30.0 I0.0 J1.0
G1 Y40.0
G3 X200.0 Y41.0 I-1.0 J0.0
G1 X199.0
G1 X198.7071 Y40.7071
G1 X199.0 Y41.0
G1 Y49.0
G1 X198.7071 Y49.2929
G1 X199.0 Y49.0
G1 X200.0
G3 X201.0 Y50.0 I0.0 J1.0
G1 Y58.0
G3 X200.0 Y59.0 I-1.0 J0.0
G1 X191.0
G1 X190.7071 Y58.7071
G1 X191.0 Y59.0
G1 Y60.0
G3 X190.0 Y61.0 I-1.0 J0.0
G1 X180.0
G3 X179.0 Y60.0 I0.0 J-1.0
G1 Y59.0
G1 X179.2929 Y58.7071
G1 X179.0 Y59.0
G1 X171.0
G1 X170.7071 Y58.7071
G1 X171.0 Y59.0
G1 Y60.0
G3 X170.0 Y61.0 I-1.0 J0.0
G1 X160.0
G3 X159.0 Y60.0 I0.0 J-1.0
G1 Y59.0
G1 X159.2929 Y58.7071
G1 X159.0 Y59.0
G1 X151.0
G1 X150.7071 Y58.7071
G1 X151.0 Y59.0
G1 Y60.0
G3 X150.0 Y61.0 I-1.0 J0.0
G1 X142.0
G3 X141.0 Y60.0 I0.0 J-1.0
G1 F300.0 Z-2.0
G1 F800.0 Y51.0
G1 X141.2929 Y50.7071
G1 X141.0 Y51.0
G1 X140.0
G3 X139.0 Y50.0 I0.0 J-1.0
G1 Y40.0
G3 X140.0 Y39.0 I1.0 J0.0
G1 X141.0
G1 X141.2929 Y39.2929
G1 X141.0 Y39.0
G1 Y31.0
G1 X141.2929 Y30.7071
G1 X141.0 Y31.0
G1 X140.0
G3 X139.0 Y30.0 I0.0 J-1.0
G1 Y20.0
G3 X140.0 Y19.0 I1.0 J0.0
G1 X141.0
G1 X141.2929 Y19.2929
G1 X141.0 Y19.0
G1 Y11.0
G1 X141.2929 Y10.7071
G1 X141.0 Y11.0
G1 X140.0
G3 X139.0 Y10.0 I0.0 J-1.0
G1 Y2.0
G3 X140.0 Y1.0 I1.0 J0.0
G1 X149.0
G1 X149.2929 Y1.2929
G1 X149.0 Y1.0
G1 Y0.0
G3 X150.0 Y-1.0 I1.0 J0.0
G1 X160.0
G3 X161.0 Y0.0 I0.0 J1.0
G1 Y1.0
G1 X160.7071 Y1.2929
G1 X161.0 Y1.0
G1 X169.0
G1 X169.2929 Y1.2929
G1 X169.0 Y1.0
G1 Y0.0
G3 X170.0 Y-1.0 I1.0 J0.0
G1 X180.0
G3 X181.0 Y0.0 I0.0 J1.0
G1 Y1.0
G1 X180.7071 Y1.2929
G1 X181.0 Y1.0
G1 X189.0
G1 X189.2929 Y1.2929
G1 X189.0 Y1.0
G1 Y0.0
G3 X190.0 Y-1.0 I1.0 J0.0
G1 X198.0
G3 X199.0 Y0.0 I0.0 J1.0
G1 Y9.0
G1 X198.7071 Y9.2929
G1 X199.0 Y9.0
G1 X200.0
G3 X201.0 Y10.0 I0.0 J1.0
G1 Y20.0
G3 X200.0 Y21.0 I-1.0 J0.0
G1 X199.0
G1 X198.7071 Y20.7071
G1 X199.0 Y21.0
G1 Y29.0
G1 X198.7071 Y29.2929
G1 X199.0 Y29.0
G1 X200.0
G3 X201.0 Y30.0 I0.0 J1.0
G1 Y40.0
G3 X200.0 Y41.0 I-1.0 J0.0
G1 X199.0
G1 X198.7071 Y40.7071
G1 X199.0 Y41.0
G1 Y49.0
G1 X198.7071 Y49.2929
G1 X199.0 Y49.0
G1 X200.0
G3 X201.0 Y50.0 I0.0 J1.0
G1 Y58.0
G3 X200.0 Y59.0 I-1.0 J0.0
G1 X191.0
G1 X190.7071 Y58.7071
G1 X191.0 Y59.0
G1 Y60.0
G3 X190.0 Y61.0 I-1.0 J0.0
G1 X180.0
G3 X179.0 Y60.0 I0.0 J-1.0
G1 Y59.0
G1 X179.2929 Y58.7071
G1 X179.0 Y59.0
G1 X171.0
G1 X170.7071 Y58.7071
G1 X171.0 Y59.0
G1 Y60.0
G3 X170.0 Y61.0 I-1.0 J0.0
G1 X160.0
G3 X159.0 Y60.0 I0.0 J-1.0
G1 Y59.0
G1 X159.2929 Y58.7071
G1 X159.0 Y59.0
G1 X151.0
G1 X150.7071 Y58.7071
G1 X151.0 Y59.0
G1 Y60.0
G3 X150.0 Y61.0 I-1.0 J0.0
G1 X142.0
G3 X141.0 Y60.0 I0.0 J-1.0
G1 F300.0 Z-2.4
G1 F800.0 Y51.0
G1 X141.2929 Y50.7071
G1 X141.0 Y51.0
G1 X140.0
G3 X139.0 Y50.0 I0.0 J-1.0
G1 Y40.0
G3 X140.0 Y39.0 I1.0 J0.0
G1 X141.0
G1 X141.2929 Y39.2929
G1 X141.0 Y39.0
G1 Y31.0
G1 X141.2929 Y30.7071
G1 X141.0 Y31.0
G1 X140.0
G3 X139.0 Y30.0 I0.0 J-1.0
G1 Y20.0
G3 X140.0 Y19.0 I1.0 J0.0
G1 X141.0
G1 X141.2929 Y19.2929
G1 X141.0 Y19.0
G1 Y11.0
G1 X141.2929 Y10.7071
G1 X141.0 Y11.0
G1 X140.0
G3 X139.0 Y10.0 I0.0 J-1.0
G1 Y2.0
G3 X140.0 Y1.0 I1.0 J0.0
G1 X149.0
G1 X149.2929 Y1.2929
G1 X149.0 Y1.0
G1 Y0.0
G3 X150.0 Y-1.0 I1.0 J0.0
G1 X160.0
G3 X161.0 Y0.0 I0.0 J1.0
G1 Y1.0
G1 X160.7071 Y1.2929
G1 X161.0 Y1.0
G1 X169.0
G1 X169.2929 Y1.2929
G1 X169.0 Y1.0
G1 Y0.0
G3 X170.0 Y-1.0 I1.0 J0.0
G1 X180.0
G3 X181.0 Y0.0 I0.0 J1.0
G1 Y1.0
G1 X180.7071 Y1.2929
G1 X181.0 Y1.0
G1 X189.0
G1 X189.2929 Y1.2929
G1 X189.0 Y1.0
G1 Y0.0
G3 X190.0 Y-1.0 I1.0 J0.0
G1 X198.0
G3 X199.0 Y0.0 I0.0 J1.0
G1 Y9.0
G1 X198.7071 Y9.2929
G1 X199.0 Y9.0
G1 X200.0
G3 X201.0 Y10.0 I0.0 J1.0
G1 Y20.0
G3 X200.0 Y21.0 I-1.0 J0.0
G1 X199.0
G1 X198.7071 Y20.7071
G1 X199.0 Y21.0
G1 Y29.0
G1 X198.7071 Y29.2929
G1 X199.0 Y29.0
G1 X200.0
G3 X201.0 Y30.0 I0.0 J1.0
G1 Y40.0
G3 X200.0 Y41.0 I-1.0 J0.0
G1 X199.0
G1 X198.7071 Y40.7071
G1 X199.0 Y41.0
G1 Y49.0
G1 X198.7071 Y49.2929
G1 X199.0 Y49.0
G1 X200.0
G3 X201.0 Y50.0 I0.0 J1.0
G1 Y58.0
G3 X200.0 Y59.0 I-1.0 J0.0
G1 X191.0
G1 X190.7071 Y58.7071
G1 X191.0 Y59.0
G1 Y60.0
G3 X190.0 Y61.0 I-1.0 J0.0
G1 X180.0
G3 X179.0 Y60.0 I0.0 J-1.0
G1 Y59.0
G1 X179.2929 Y58.7071
G1 X179.0 Y59.0
G1 X171.0
G1 X170.7071 Y58.7071
G1 X171.0 Y59.0
G1 Y60.0
G3 X170.0 Y61.0 I-1.0 J0.0
G1 X160.0
G3 X159.0 Y60.0 I0.0 J-1.0
G1 Y59.0
G1 X159.2929 Y58.7071
G1 X159.0 Y59.0
G1 X151.0
G1 X150.7071 Y58.7071
G1 X151.0 Y59.0
G1 Y60.0
G3 X150.0 Y61.0 I-1.0 J0.0
G1 X142.0
G3 X141.0 Y60.0 I0.0 J-1.0
G1 F300.0 Z-2.8
G1 F800.0 Y51.0
G1 X141.2929 Y50.7071
G1 X141.0 Y51.0
G1 X140.0
G3 X139.0 Y50.0 I0.0 J-1.0
G1 Y40.0
G3 X140.0 Y39.0 I1.0 J0.0
G1 X141.0
G1 X141.2929 Y39.2929
G1 X141.0 Y39.0
G1 Y31.0
G1 X141.2929 Y30.7071
G1 X141.0 Y31.0
G1 X140.0
G3 X139.0 Y30.0 I0.0 J-1.0
G1 Y26.4545
G0 Z-2.7
G1 Y23.6545
G1 F300.0 Z-2.8
G1 F800.0 Y20.0
G3 X140.0 Y19.0 I1.0 J0.0
G1 X141.0
G1 X141.2929 Y19.2929
G1 X141.0 Y19.0
G1 Y11.0
G1 X141.2929 Y10.7071
G1 X141.0 Y11.0
G1 X140.0
G3 X139.0 Y10.0 I0.0 J-1.0
G1 Y2.0
G3 X140.0 Y1.0 I1.0 J0.0
G1 X149.0
G1 X149.2929 Y1.2929
G1 X149.0 Y1.0
G1 Y0.0
G3 X150.0 Y-1.0 I1.0 J0.0
G1 X153.449
G0 Z-2.7
G1 X156.249
G1 F300.0 Z-2.8
G1 F800.0 X160.0
G3 X161.0 Y0.0 I0.0 J1.0
G1 Y1.0
G1 X160.7071 Y1.2929
G1 X161.0 Y1.0
G1 X169.0
G1 X169.2929 Y1.2929
G1 X169.0 Y1.0
G1 Y0.0
G3 X170.0 Y-1.0 I1.0 J0.0
G1 X180.0
G3 X181.0 Y0.0 I0.0 J1.0
G1 Y1.0
G1 X180.7071 Y1.2929
G1 X181.0 Y1.0
G1 X189.0
G1 X189.2929 Y1.2929
G1 X189.0 Y1.0
G1 Y0.0
G3 X190.0 Y-1.0 I1.0 J0.0
G1 X191.9779
G0 Z-2.7
G1 X194.7779
G1 F300.0 Z-2.8
G1 F800.0 X198.0
G3 X199.0 Y0.0 I0.0 J1.0
G1 Y9.0
G1 X198.7071 Y9.2929
G1 X199.0 Y9.0
G1 X200.0
G3 X201.0 Y10.0 I0.0 J1.0
G1 Y20.0
G3 X200.0 Y21.0 I-1.0 J0.0
G1 X199.0
G1 X198.7071 Y20.7071
G1 X199.0 Y21.0
G1 Y29.0
G1 X198.7071 Y29.2929
G1 X199.0 Y29.0
G1 X200.0
G3 X201.0 Y30.0 I0.0 J1.0
G1 Y33.9793
G0 Z-2.7
G1 Y36.7793
G1 F300.0 Z-2.8
G1 F800.0 Y40.0
G3 X200.0 Y41.0 I-1.0 J0.0
G1 X199.0
G1 X198.7071 Y40.7071
G1 X199.0 Y41.0
G1 Y49.0
G1 X198.7071 Y49.2929
G1 X199.0 Y49.0
G1 X200.0
G3 X201.0 Y50.0 I0.0 J1.0
G1 Y58.0
G3 X200.0 Y59.0 I-1.0 J0.0
G1 X191.0
G1 X190.7071 Y58.7071
G1 X191.0 Y59.0
G1 Y60.0
G3 X190.0 Y61.0 I-1.0 J0.0
G1 X185.7123
G0 Z-2.7
G1 X182.9123
G1 F300.0 Z-2.8
G1 F800.0 X180.0
G3 X179.0 Y60.0 I0.0 J-1.0
G1 Y59.0
G1 X179.2929 Y58.7071
G1 X179.0 Y59.0
G1 X171.0
G1 X170.7071 Y58.7071
G1 X171.0 Y59.0
G1 Y60.0
G3 X170.0 Y61.0 I-1.0 J0.0
G1 X160.0
G3 X159.0 Y60.0 I0.0 J-1.0
G1 Y59.0
G1 X159.2929 Y58.7071
G1 X159.0 Y59.0
G1 X151.0
G1 X150.7071 Y58.7071
G1 X151.0 Y59.0
G1 Y60.0
G3 X150.0 Y61.0 I-1.0 J0.0
G1 X147.4352
G0 Z-2.7
G1 X144.6352
G1 F300.0 Z-2.8
G1 F800.0 X142.0
G3 X141.0 Y60.0 I0.0 J-1.0
G1 F300.0 Z-3.2
G1 F800.0 Y51.0
G1 X141.2929 Y50.7071
G1 X141.0 Y51.0
G1 X140.0
G3 X139.0 Y50.0 I0.0 J-1.0
G1 Y40.0
G3 X140.0 Y39.0 I1.0 J0.0
G1 X141.0
G1 X141.2929 Y39.2929
G1 X141.0 Y39.0
G1 Y31.0
G1 X141.2929 Y30.7071
G1 X141.0 Y31.0
G1 X140.0
G3 X139.0 Y30.0 I0.0 J-1.0
G1 Y26.4545
G0 Z-2.7
G1 Y23.6545
G1 F300.0 Z-3.2
G1 F800.0 Y20.0
G3 X140.0 Y19.0 I1.0 J0.0
G1 X141.0
G1 X141.2929 Y19.2929
G1 X141.0 Y19.0
G1 Y11.0
G1 X141.2929 Y10.7071
G1 X141.0 Y11.0
G1 X140.0
G3 X139.0 Y10.0 I0.0 J-1.0
G1 Y2.0
G3 X140.0 Y1.0 I1.0 J0.0
G1 X149.0
G1 X149.2929 Y1.2929
G1 X149.0 Y1.0
G1 Y0.0
G3 X150.0 Y-1.0 I1.0 J0.0
G1 X153.449
G0 Z-2.7
G1 X156.249
G1 F300.0 Z-3.2
G1 F800.0 X160.0
G3 X161.0 Y0.0 I0.0 J1.0
G1 Y1.0
G1 X160.7071 Y1.2929
G1 X161.0 Y1.0
G1 X169.0
G1 X169.2929 Y1.2929
G1 X169.0 Y1.0
G1 Y0.0
G3 X170.0 Y-1.0 I1.0 J0.0
G1 X180.0
G3 X181.0 Y0.0 I0.0 J1.0
G1 Y1.0
G1 X180.7071 Y1.2929
G1 X181.0 Y1.0
G1 X189.0
G1 X189.2929 Y1.2929
G1 X189.0 Y1.0
G1 Y0.0
G3 X190.0 Y-1.0 I1.0 J0.0
G1 X191.9779
G0 Z-2.7
G1 X194.7779
G1 F300.0 Z-3.2
G1 F800.0 X198.0
G3 X199.0 Y0.0 I0.0 J1.0
G1 Y9.0
G1 X198.7071 Y9.2929
G1 X199.0 Y9.0
G1 X200.0
G3 X201.0 Y10.0 I0.0 J1.0
G1 Y20.0
G3 X200.0 Y21.0 I-1.0 J0.0
G1 X199.0
G1 X198.7071 Y20.7071
G1 X199.0 Y21.0
G1 Y29.0
G1 X198.7071 Y29.2929
G1 X199.0 Y29.0
G1 X200.0
G3 X201.0 Y30.0 I0.0 J1.0
G1 Y33.9793
G0 Z-2.7
G1 Y36.7793
G1 F300.0 Z-3.2
G1 F800.0 Y40.0
G3 X200.0 Y41.0 I-1.0 J0.0
G1 X199.0
G1 X198.7071 Y40.7071
G1 X199.0 Y41.0
G1 Y49.0
G1 X198.7071 Y49.2929
G1 X199.0 Y49.0
G1 X200.0
G3 X201.0 Y50.0 I0.0 J1.0
G1 Y58.0
G3 X200.0 Y59.0 I-1.0 J0.0
G1 X191.0
G1 X190.7071 Y58.7071
G1 X191.0 Y59.0
G1 Y60.0
G3 X190.0 Y61.0 I-1.0 J0.0
G1 X185.7123
G0 Z-2.7
G1 X182.9123
G1 F300.0 Z-3.2
G1 F800.0 X180.0
G3 X179.0 Y60.0 I0.0 J-1.0
G1 Y59.0
G1 X179.2929 Y58.7071
G1 X179.0 Y59.0
G1 X171.0
G1 X170.7071 Y58.7071
G1 X171.0 Y59.0
G1 Y60.0
G3 X170.0 Y61.0 I-1.0 J0.0
G1 X160.0
G3 X159.0 Y60.0 I0.0 J-1.0
G1 Y59.0
G1 X159.2929 Y58.7071
G1 X159.0 Y59.0
G1 X151.0
G1 X150.7071 Y58.7071
G1 X151.0 Y59.0
G1 Y60.0
G3 X150.0 Y61.0 I-1.0 J0.0
G1 X147.4352
G0 Z-2.7
G1 X144.6352
G1 F300.0 Z-3.2
G1 F800.0 X142.0
G3 X141.0 Y60.0 I0.0 J-1.0
G1 F300.0 Z-3.5
G1 F800.0 Y51.0
G1 X141.2929 Y50.7071
G1 X141.0 Y51.0
G1 X140.0
G3 X139.0 Y50.0 I0.0 J-1.0
G1 Y40.0
G3 X140.0 Y39.0 I1.0 J0.0
G1 X141.0
G1 X141.2929 Y39.2929
G1 X141.0 Y39.0
G1 Y31.0
G1 X141.2929 Y30.7071
G1 X141.0 Y31.0
G1 X140.0
G3 X139.0 Y30.0 I0.0 J-1.0
G1 Y26.4545
G0 Z-2.7
G1 Y23.6545
G0 Z-3.0
G1 F300.0 Z-3.5
G1 F800.0 Y20.0
G3 X140.0 Y19.0 I1.0 J0.0
G1 X141.0
G1 X141.2929 Y19.2929
G1 X141.0 Y19.0
G1 Y11.0
G1 X141.2929 Y10.7071
G1 X141.0 Y11.0
G1 X140.0
G3 X139.0 Y10.0 I0.0 J-1.0
G1 Y2.0
G3 X140.0 Y1.0 I1.0 J0.0
G1 X149.0
G1 X149.2929 Y1.2929
G1 X149.0 Y1.0
G1 Y0.0
G3 X150.0 Y-1.0 I1.0 J0.0
G1 X153.449
G0 Z-2.7
G1 X156.249
G0 Z-3.0
G1 F300.0 Z-3.5
G1 F800.0 X160.0
G3 X161.0 Y0.0 I0.0 J1.0
G1 Y1.0
G1 X160.7071 Y1.2929
G1 X161.0 Y1.0
G1 X169.0
G1 X169.2929 Y1.2929
G1 X169.0 Y1.0
G1 Y0.0
G3 X170.0 Y-1.0 I1.0 J0.0
G1 X180.0
G3 X181.0 Y0.0 I0.0 J1.0
G1 Y1.0
G1 X180.7071 Y1.2929
G1 X181.0 Y1.0
G1 X189.0
G1 X189.2929 Y1.2929
G1 X189.0 Y1.0
G1 Y0.0
G3 X190.0 Y-1.0 I1.0 J0.0
G1 X191.9779
G0 Z-2.7
G1 X194.7779
G0 Z-3.0
G1 F300.0 Z-3.5
G1 F800.0 X198.0
G3 X199.0 Y0.0 I0.0 J1.0
G1 Y9.0
G1 X198.7071 Y9.2929
G1 X199.0 Y9.0
G1 X200.0
G3 X201.0 Y10.0 I0.0 J1.0
G1 Y20.0
G3 X200.0 Y21.0 I-1.0 J0.0
G1 X199.0
G1 X198.7071 Y20.7071
G1 X199.0 Y21.0
G1 Y29.0
G1 X198.7071 Y29.2929
G1 X199.0 Y29.0
G1 X200.0
G3 X201.0 Y30.0 I0.0 J1.0
G1 Y33.9793
G0 Z-2.7
G1 Y36.7793
G0 Z-3.0
G1 F300.0 Z-3.5
G1 F800.0 Y40.0
G3 X200.0 Y41.0 I-1.0 J0.0
G1 X199.0
G1 X198.7071 Y40.7071
G1 X199.0 Y41.0
G1 Y49.0
G1 X198.7071 Y49.2929
G1 X199.0 Y49.0
G1 X200.0
G3 X201.0 Y50.0 I0.0 J1.0
G1 Y58.0
G3 X200.0 Y59.0 I-1.0 J0.0
G1 X191.0
G1 X190.7071 Y58.7071
G1 X191.0 Y59.0
G1 Y60.0
G3 X190.0 Y61.0 I-1.0 J0.0
G1 X185.7123
G0 Z-2.7
G1 X182.9123
G0 Z-3.0
G1 F300.0 Z-3.5
G1 F800.0 X180.0
G3 X179.0 Y60.0 I0.0 J-1.0
G1 Y59.0
G1 X179.2929 Y58.7071
G1 X179.0 Y59.0
G1 X171.0
G1 X170.7071 Y58.7071
G1 X171.0 Y59.0
G1 Y60.0
G3 X170.0 Y61.0 I-1.0 J0.0
G1 X160.0
G3 X159.0 Y60.0 I0.0 J-1.0
G1 Y59.0
G1 X159.2929 Y58.7071
G1 X159.0 Y59.0
G1 X151.0
G1 X150.7071 Y58.7071
G1 X151.0 Y59.0
G1 Y60.0
G3 X150.0 Y61.0 I-1.0 J0.0
G1 X147.4352
G0 Z-2.7
G1 X144.6352
G0 Z-3.0
G1 F300.0 Z-3.5
G1 F800.0 X142.0
G3 X141.0 Y60.0 I0.0 J-1.0
( Profile1 )
G0 Z3.0
G0 Y130.0
G0 Z0.2
G1 F300.0 Z-0.4
G1 F800.0 Y121.0
G1 X141.2929 Y120.7071
G1 X141.0 Y121.0
G1 X140.0
G3 X139.0 Y120.0 I0.0 J-1.0
G1 Y110.0
G3 X140.0 Y109.0 I1.0 J0.0
G1 X141.0
G1 X141.2929 Y109.2929
G1 X141.0 Y109.0
G1 Y101.0
G1 X141.2929 Y100.7071
G1 X141.0 Y101.0
G1 X140.0
G3 X139.0 Y100.0 I0.0 J-1.0
G1 Y90.0
G3 X140.0 Y89.0 I1.0 J0.0
G1 X141.0
G1 X141.2929 Y89.2929
G1 X141.0 Y89.0
G1 Y81.0
G1 X141.2929 Y80.7071
G1 X141.0 Y81.0
G1 X140.0
G3 X139.0 Y80.0 I0.0 J-1.0
G1 Y72.0
G3 X140.0 Y71.0 I1.0 J0.0
G1 X149.0
G1 X149.2929 Y71.2929
G1 X149.0 Y71.0
G1 Y70.0
G3 X150.0 Y69.0 I1.0 J0.0
G1 X160.0
G3 X161.0 Y70.0 I0.0 J1.0
G1 Y71.0
G1 X160.7071 Y71.2929
G1 X161.0 Y71.0
G1 X169.0
G1 X169.2929 Y71.2929
G1 X169.0 Y71.0
G1 Y70.0
G3 X170.0 Y69.0 I1.0 J0.0
G1 X180.0
G3 X181.0 Y70.0 I0.0 J1.0
G1 Y71.0
G1 X180.7071 Y71.2929
G1 X181.0 Y71.0
G1 X189.0
G1 X189.2929 Y71.2929
G1 X189.0 Y71.0
G1 Y70.0
G3 X190.0 Y69.0 I1.0 J0.0
G1 X198.0
G3 X199.0 Y70.0 I0.0 J1.0
G1 Y79.0
G1 X198.7071 Y79.2929
G1 X199.0 Y79.0
G1 X200.0
G3 X201.0 Y80.0 I0.0 J1.0
G1 Y90.0
G3 X200.0 Y91.0 I-1.0 J0.0
G1 X199.0
G1 X198.7071 Y90.7071
G1 X199.0 Y91.0
G1 Y99.0
G1 X198.7071 Y99.2929
G1 X199.0 Y99.0
G1 X200.0
G3 X201.0 Y100.0 I0.0 J1.0
G1 Y110.0
G3 X200.0 Y111.0 I-1.0 J0.0
G1 X199.0
G1 X198.7071 Y110.7071
G1 X199.0 Y111.0
G1 Y119.0
G1 X198.7071 Y119.2929
G1 X199.0 Y119.0
G1 X200.0
G3 X201.0 Y120.0 I0.0 J1.0
G1 Y128.0
G3 X200.0 Y129.0 I-1.0 J0.0
G1 X191.0
G1 X190.7071 Y128.7071
G1 X191.0 Y129.0
G1 Y130.0
G3 X190.0 Y131.0 I-1.0 J0.0
G1 X180.0
G3 X179.0 Y130.0 I0.0 J-1.0
G1 Y129.0
G1 X179.2929 Y128.7071
G1 X179.0 Y129.0
G1 X171.0
G1 X170.7071 Y128.7071
G1 X171.0 Y129.0
G1 Y130.0
G3 X170.0 Y131.0 I-1.0 J0.0
G1 X160.0
G3 X159.0 Y130.0 I0.0 J-1.0
G1 Y129.0
G1 X159.2929 Y128.7071
G1 X159.0 Y129.0
G1 X151.0
G1 X150.7071 Y128.7071
G1 X151.0 Y129.0
G1 Y130.0
G3 X150.0 Y131.0 I-1.0 J0.0
G1 X142.0
G3 X141.0 Y130.0 I0.0 J-1.0
G1 F300.0 Z-0.8
G1 F800.0 Y121.0
G1 X141.2929 Y120.7071
G1 X141.0 Y121.0
G1 X140.0
G3 X139.0 Y120.0 I0.0 J-1.0
G1 Y110.0
G3 X140.0 Y109.0 I1.0 J0.0
G1 X141.0
G1 X141.2929 Y109.2929
G1 X141.0 Y109.0
G1 Y101.0
G1 X141.2929 Y100.7071
G1 X141.0 Y101.0
G1 X140.0
G3 X139.0 Y100.0 I0.0 J-1.0
G1 Y90.0
G3 X140.0 Y89.0 I1.0 J0.0
G1 X141.0
G1 X141.2929 Y89.2929
G1 X141.0 Y89.0
G1 Y81.0
G1 X141.2929 Y80.7071
G1 X141.0 Y81.0
G1 X140.0
G3 X139.0 Y80.0 I0.0 J-1.0
G1 Y72.0
G3 X140.0 Y71.0 I1.0 J0.0
G1 X149.0
G1 X149.2929 Y71.2929
G1 X149.0 Y71.0
G1 Y70.0
G3 X150.0 Y69.0 I1.0 J0.0
G1 X160.0
G3 X161.0 Y70.0 I0.0 J1.0
G1 Y71.0
G1 X160.7071 Y71.2929
G1 X161.0 Y71.0
G1 X169.0
G1 X169.2929 Y71.2929
G1 X169.0 Y71.0
G1 Y70.0
G3 X170.0 Y69.0 I1.0 J0.0
G1 X180.0
G3 X181.0 Y70.0 I0.0 J1.0
G1 Y71.0
G1 X180.7071 Y71.2929
G1 X181.0 Y71.0
G1 X189.0
G1 X189.2929 Y71.2929
G1 X189.0 Y71.0
G1 Y70.0
G3 X190.0 Y69.0 I1.0 J0.0
G1 X198.0
G3 X199.0 Y70.0 I0.0 J1.0
G1 Y79.0
G1 X198.7071 Y79.2929
G1 X199.0 Y79.0
G1 X200.0
G3 X201.0 Y80.0 I0.0 J1.0
G1 Y90.0
G3 X200.0 Y91.0 I-1.0 J0.0
G1 X199.0
G1 X198.7071 Y90.7071
G1 X199.0 Y91.0
G1 Y99.0
G1 X198.7071 Y99.2929
G1 X199.0 Y99.0
G1 X200.0
G3 X201.0 Y100.0 I0.0 J1.0
G1 Y110.0
G3 X200.0 Y111.0 I-1.0 J0.0
G1 X199.0
G1 X198.7071 Y110.7071
G1 X199.0 Y111.0
G1 Y119.0
G1 X198.7071 Y119.2929
G1 X199.0 Y119.0
G1 X200.0
G3 X201.0 Y120.0 I0.0 J1.0
G1 Y128.0
G3 X200.0 Y129.0 I-1.0 J0.0
G1 X191.0
G1 X190.7071 Y128.7071
G1 X191.0 Y129.0
G1 Y130.0
G3 X190.0 Y131.0 I-1.0 J0.0
G1 X180.0
G3 X179.0 Y130.0 I0.0 J-1.0
G1 Y129.0
G1 X179.2929 Y128.7071
G1 X179.0 Y129.0
G1 X171.0
G1 X170.7071 Y128.7071
G1 X171.0 Y129.0
G1 Y130.0
G3 X170.0 Y131.0 I-1.0 J0.0
G1 X160.0
G3 X159.0 Y130.0 I0.0 J-1.0
G1 Y129.0
G1 X159.2929 Y128.7071
G1 X159.0 Y129.0
G1 X151.0
G1 X150.7071 Y128.7071
G1 X151.0 Y129.0
G1 Y130.0
G3 X150.0 Y131.0 I-1.0 J0.0
G1 X142.0
G3 X141.0 Y130.0 I0.0 J-1.0
G1 F300.0 Z-1.2
G1 F800.0 Y121.0
G1 X141.2929 Y120.7071
G1 X141.0 Y121.0
G1 X140.0
G3 X139.0 Y120.0 I0.0 J-1.0
G1 Y110.0
G3 X140.0 Y109.0 I1.0 J0.0
G1 X141.0
G1 X141.2929 Y109.2929
G1 X141.0 Y109.0
G1 Y101.0
G1 X141.2929 Y100.7071
G1 X141.0 Y101.0
G1 X140.0
G3 X139.0 Y100.0 I0.0 J-1.0
G1 Y90.0
G3 X140.0 Y89.0 I1.0 J0.0
G1 X141.0
G1 X141.2929 Y89.2929
G1 X141.0 Y89.0
G1 Y81.0
G1 X141.2929 Y80.7071
G1 X141.0 Y81.0
G1 X140.0
G3 X139.0 Y80.0 I0.0 J-1.0
G1 Y72.0
G3 X140.0 Y71.0 I1.0 J0.0
G1 X149.0
G1 X149.2929 Y71.2929
G1 X149.0 Y71.0
G1 Y70.0
G3 X150.0 Y69.0 I1.0 J0.0
G1 X160.0
G3 X161.0 Y70.0 I0.0 J1.0
G1 Y71.0
G1 X160.7071 Y71.2929
G1 X161.0 Y71.0
G1 X169.0
G1 X169.2929 Y71.2929
G1 X169.0 Y71.0
G1 Y70.0
G3 X170.0 Y69.0 I1.0 J0.0
G1 X180.0
G3 X181.0 Y70.0 I0.0 J1.0
G1 Y71.0
G1 X180.7071 Y71.2929
G1 X181.0 Y71.0
G1 X189.0
G1 X189.2929 Y71.2929
G1 X189.0 Y71.0
G1 Y70.0
G3 X190.0 Y69.0 I1.0 J0.0
G1 X198.0
G3 X199.0 Y70.0 I0.0 J1.0
G1 Y79.0
G1 X198.7071 Y79.2929
G1 X199.0 Y79.0
G1 X200.0
G3 X201.0 Y80.0 I0.0 J1.0
G1 Y90.0
G3 X200.0 Y91.0 I-1.0 J0.0
G1 X199.0
G1 X198.7071 Y90.7071
G1 X199.0 Y91.0
G1 Y99.0
G1 X198.7071 Y99.2929
G1 X199.0 Y99.0
G1 X200.0
G3 X201.0 Y100.0 I0.0 J1.0
G1 Y110.0
G3 X200.0 Y111.0 I-1.0 J0.0
G1 X199.0
G1 X198.7071 Y110.7071
G1 X199.0 Y111.0
G1 Y119.0
G1 X198.7071 Y119.2929
G1 X199.0 Y119.0
G1 X200.0
G3 X201.0 Y120.0 I0.0 J1.0
G1 Y128.0
G3 X200.0 Y129.0 I-1.0 J0.0
G1 X191.0
G1 X190.7071 Y128.7071
G1 X191.0 Y129.0
G1 Y130.0
G3 X190.0 Y131.0 I-1.0 J0.0
G1 X180.0
G3 X179.0 Y130.0 I0.0 J-1.0
G1 Y129.0
G1 X179.2929 Y128.7071
G1 X179.0 Y129.0
G1 X171.0
G1 X170.7071 Y128.7071
G1 X171.0 Y129.0
G1 Y130.0
G3 X170.0 Y131.0 I-1.0 J0.0
G1 X160.0
G3 X159.0 Y130.0 I0.0 J-1.0
G1 Y129.0
G1 X159.2929 Y128.7071
G1 X159.0 Y129.0
G1 X151.0
G1 X150.7071 Y128.7071
G1 X151.0 Y129.0
G1 Y130.0
G3 X150.0 Y131.0 I-1.0 J0.0
G1 X142.0
G3 X141.0 Y130.0 I0.0 J-1.0
G1 F300.0 Z-1.6
G1 F800.0 Y121.0
G1 X141.2929 Y120.7071
G1 X141.0 Y121.0
G1 X140.0
G3 X139.0 Y120.0 I0.0 J-1.0
G1 Y110.0
G3 X140.0 Y109.0 I1.0 J0.0
G1 X141.0
G1 X141.2929 Y109.2929
G1 X141.0 Y109.0
G1 Y101.0
G1 X141.2929 Y100.7071
G1 X141.0 Y101.0
G1 X140.0
G3 X139.0 Y100.0 I0.0 J-1.0
G1 Y90.0
G3 X140.0 Y89.0 I1.0 J0.0
G1 X141.0
G1 X141.2929 Y89.2929
G1 X141.0 Y89.0
G1 Y81.0
G1 X141.2929 Y80.7071
G1 X141.0 Y81.0
G1 X140.0
G3 X139.0 Y80.0 I0.0 J-1.0
G1 Y72.0
G3 X140.0 Y71.0 I1.0 J0.0
G1 X149.0
G1 X149.2929 Y71.2929
G1 X149.0 Y71.0
G1 Y70.0
G3 X150.0 Y69.0 I1.0 J0.0
G1 X160.0
G3 X161.0 Y70.0 I0.0 J1.0
G1 Y71.0
G1 X160.7071 Y71.2929
G1 X161.0 Y71.0
G1 X169.0
G1 X169.2929 Y71.2929
G1 X169.0 Y71.0
G1 Y70.0
G3 X170.0 Y69.0 I1.0 J0.0
G1 X180.0
G3 X181.0 Y70.0 I0.0 J1.0
G1 Y71.0
G1 X180.7071 Y71.2929
G1 X181.0 Y71.0
G1 X189.0
G1 X189.2929 Y71.2929
G1 X189.0 Y71.0
G1 Y70.0
G3 X190.0 Y69.0 I1.0 J0.0
G1 X198.0
G3 X199.0 Y70.0 I0.0 J1.0
G1 Y79.0
G1 X198.7071 Y79.2929
G1 X199.0 Y79.0
G1 X200.0
G3 X201.0 Y80.0 I0.0 J1.0
G1 Y90.0
G3 X200.0 Y91.0 I-1.0 J0.0
G1 X199.0
G1 X198.7071 Y90.7071
G1 X199.0 Y91.0
G1 Y99.0
G1 X198.7071 Y99.2929
G1 X199.0 Y99.0
G1 X200.0
G3 X201.0 Y100.0 I0.0 J1.0
G1 Y110.0
G3 X200.0 Y111.0 I-1.0 J0.0
G1 X199.0
G1 X198.7071 Y110.7071
G1 X199.0 Y111.0
G1 Y119.0
G1 X198.7071 Y119.2929
G1 X199.0 Y119.0
G1 X200.0
G3 X201.0 Y120.0 I0.0 J1.0
G1 Y128.0
G3 X200.0 Y129.0 I-1.0 J0.0
G1 X191.0
G1 X190.7071 Y128.7071
G1 X191.0 Y129.0
G1 Y130.0
G3 X190.0 Y131.0 I-1.0 J0.0
G1 X180.0
G3 X179.0 Y130.0 I0.0 J-1.0
G1 Y129.0
G1 X179.2929 Y128.7071
G1 X179.0 Y129.0
G1 X171.0
G1 X170.7071 Y128.7071
G1 X171.0 Y129.0
G1 Y130.0
G3 X170.0 Y131.0 I-1.0 J0.0
G1 X160.0
G3 X159.0 Y130.0 I0.0 J-1.0
G1 Y129.0
G1 X159.2929 Y128.7071
G1 X159.0 Y129.0
G1 X151.0
G1 X150.7071 Y128.7071
G1 X151.0 Y129.0
G1 Y130.0
G3 X150.0 Y131.0 I-1.0 J0.0
G1 X142.0
G3 X141.0 Y130.0 I0.0 J-1.0
G1 F300.0 Z-2.0
G1 F800.0 Y121.0
G1 X141.2929 Y120.7071
G1 X141.0 Y121.0
G1 X140.0
G3 X139.0 Y120.0 I0.0 J-1.0
G1 Y110.0
G3 X140.0 Y109.0 I1.0 J0.0
G1 X141.0
G1 X141.2929 Y109.2929
G1 X141.0 Y109.0
G1 Y101.0
G1 X141.2929 Y100.7071
G1 X141.0 Y101.0
G1 X140.0
G3 X139.0 Y100.0 I0.0 J-1.0
G1 Y90.0
G3 X140.0 Y89.0 I1.0 J0.0
G1 X141.0
G1 X141.2929 Y89.2929
G1 X141.0 Y89.0
G1 Y81.0
G1 X141.2929 Y80.7071
G1 X141.0 Y81.0
G1 X140.0
G3 X139.0 Y80.0 I0.0 J-1.0
G1 Y72.0
G3 X140.0 Y71.0 I1.0 J0.0
G1 X149.0
G1 X149.2929 Y71.2929
G1 X149.0 Y71.0
G1 Y70.0
G3 X150.0 Y69.0 I1.0 J0.0
G1 X160.0
G3 X161.0 Y70.0 I0.0 J1.0
G1 Y71.0
G1 X160.7071 Y71.2929
G1 X161.0 Y71.0
G1 X169.0
G1 X169.2929 Y71.2929
G1 X169.0 Y71.0
G1 Y70.0
G3 X170.0 Y69.0 I1.0 J0.0
G1 X180.0
G3 X181.0 Y70.0 I0.0 J1.0
G1 Y71.0
G1 X180.7071 Y71.2929
G1 X181.0 Y71.0
G1 X189.0
G1 X189.2929 Y71.2929
G1 X189.0 Y71.0
G1 Y70.0
G3 X190.0 Y69.0 I1.0 J0.0
G1 X198.0
G3 X199.0 Y70.0 I0.0 J1.0
G1 Y79.0
G1 X198.7071 Y79.2929
G1 X199.0 Y79.0
G1 X200.0
G3 X201.0 Y80.0 I0.0 J1.0
G1 Y90.0
G3 X200.0 Y91.0 I-1.0 J0.0
G1 X199.0
G1 X198.7071 Y90.7071
G1 X199.0 Y91.0
G1 Y99.0
G1 X198.7071 Y99.2929
G1 X199.0 Y99.0
G1 X200.0
G3 X201.0 Y100.0 I0.0 J1.0
G1 Y110.0
G3 X200.0 Y111.0 I-1.0 J0.0
G1 X199.0
G1 X198.7071 Y110.7071
G1 X199.0 Y111.0
G1 Y119.0
G1 X198.7071 Y119.2929
G1 X199.0 Y119.0
G1 X200.0
G3 X201.0 Y120.0 I0.0 J1.0
G1 Y128.0
G3 X200.0 Y129.0 I-1.0 J0.0
G1 X191.0
G1 X190.7071 Y128.7071
G1 X191.0 Y129.0
G1 Y130.0
G3 X190.0 Y131.0 I-1.0 J0.0
G1 X180.0
G3 X179.0 Y130.0 I0.0 J-1.0
G1 Y129.0
G1 X179.2929 Y128.7071
G1 X179.0 Y129.0
G1 X171.0
G1 X170.7071 Y128.7071
G1 X171.0 Y129.0
G1 Y130.0
G3 X170.0 Y131.0 I-1.0 J0.0
G1 X160.0
G3 X159.0 Y130.0 I0.0 J-1.0
G1 Y129.0
G1 X159.2929 Y128.7071
G1 X159.0 Y129.0
G1 X151.0
G1 X150.7071 Y128.7071
G1 X151.0 Y129.0
G1 Y130.0
G3 X150.0 Y131.0 I-1.0 J0.0
G1 X142.0
G3 X141.0 Y130.0 I0.0 J-1.0
G1 F300.0 Z-2.4
G1 F800.0 Y121.0
G1 X141.2929 Y120.7071
G1 X141.0 Y121.0
G1 X140.0
G3 X139.0 Y120.0 I0.0 J-1.0
G1 Y110.0
G3 X140.0 Y109.0 I1.0 J0.0
G1 X141.0
G1 X141.2929 Y109.2929
G1 X141.0 Y109.0
G1 Y101.0
G1 X141.2929 Y100.7071
G1 X141.0 Y101.0
G1 X140.0
G3 X139.0 Y100.0 I0.0 J-1.0
G1 Y90.0
G3 X140.0 Y89.0 I1.0 J0.0
G1 X141.0
G1 X141.2929 Y89.2929
G1 X141.0 Y89.0
G1 Y81.0
G1 X141.2929 Y80.7071
G1 X141.0 Y81.0
G1 X140.0
G3 X139.0 Y80.0 I0.0 J-1.0
G1 Y72.0
G3 X140.0 Y71.0 I1.0 J0.0
G1 X149.0
G1 X149.2929 Y71.2929
G1 X149.0 Y71.0
G1 Y70.0
G3 X150.0 Y69.0 I1.0 J0.0
G1 X160.0
G3 X161.0 Y70.0 I0.0 J1.0
G1 Y71.0
G1 X160.7071 Y71.2929
G1 X161.0 Y71.0
G1 X169.0
G1 X169.2929 Y71.2929
G1 X169.0 Y71.0
G1 Y70.0
G3 X170.0 Y69.0 I1.0 J0.0
G1 X180.0
G3 X181.0 Y70.0 I0.0 J1.0
G1 Y71.0
G1 X180.7071 Y71.2929
G1 X181.0 Y71.0
G1 X189.0
G1 X189.2929 Y71.2929
G1 X189.0 Y71.0
G1 Y70.0
G3 X190.0 Y69.0 I1.0 J0.0
G1 X198.0
G3 X199.0 Y70.0 I0.0 J1.0
G1 Y79.0
G1 X198.7071 Y79.2929
G1 X199.0 Y79.0
G1 X200.0
G3 X201.0 Y80.0 I0.0 J1.0
G1 Y90.0
G3 X200.0 Y91.0 I-1.0 J0.0
G1 X199.0
G1 X198.7071 Y90.7071
G1 X199.0 Y91.0
G1 Y99.0
G1 X198.7071 Y99.2929
G1 X199.0 Y99.0
G1 X200.0
G3 X201.0 Y100.0 I0.0 J1.0
G1 Y110.0
G3 X200.0 Y111.0 I-1.0 J0.0
G1 X199.0
G1 X198.7071 Y110.7071
G1 X199.0 Y111.0
G1 Y119.0
G1 X198.7071 Y119.2929
G1 X199.0 Y119.0
G1 X200.0
G3 X201.0 Y120.0 I0.0 J1.0
G1 Y128.0
G3 X200.0 Y129.0 I-1.0 J0.0
G1 X191.0
G1 X190.7071 Y128.7071
G1 X191.0 Y129.0
G1 Y130.0
G3 X190.0 Y131.0 I-1.0 J0.0
G1 X180.0
G3 X179.0 Y130.0 I0.0 J-1.0
G1 Y129.0
G1 X179.2929 Y128.7071
G1 X179.0 Y129.0
G1 X171.0
G1 X170.7071 Y128.7071
G1 X171.0 Y129.0
G1 Y130.0
G3 X170.0 Y131.0 I-1.0 J0.0
G1 X160.0
G3 X159.0 Y130.0 I0.0 J-1.0
G1 Y129.0
G1 X159.2929 Y128.7071
G1 X159.0 Y129.0
G1 X151.0
G1 X150.7071 Y128.7071
G1 X151.0 Y129.0
G1 Y130.0
G3 X150.0 Y131.0 I-1.0 J0.0
G1 X142.0
G3 X141.0 Y130.0 I0.0 J-1.0
G1 F300.0 Z-2.8
G1 F800.0 Y121.0
G1 X141.2929 Y120.7071
G1 X141.0 Y121.0
G1 X140.0
G3 X139.0 Y120.0 I0.0 J-1.0
G1 Y110.0
G3 X140.0 Y109.0 I1.0 J0.0
G1 X141.0
G1 X141.2929 Y109.2929
G1 X141.0 Y109.0
G1 Y101.0
G1 X141.2929 Y100.7071
G1 X141.0 Y101.0
G1 X140.0
G3 X139.0 Y100.0 I0.0 J-1.0
G1 Y96.4545
G0 Z-2.7
G1 Y93.6545
G1 F300.0 Z-2.8
G1 F800.0 Y90.0
G3 X140.0 Y89.0 I1.0 J0.0
G1 X141.0
G1 X141.2929 Y89.2929
G1 X141.0 Y89.0
G1 Y81.0
G1 X141.2929 Y80.7071
G1 X141.0 Y81.0
G1 X140.0
G3 X139.0 Y80.0 I0.0 J-1.0
G1 Y72.0
G3 X140.0 Y71.0 I1.0 J0.0
G1 X149.0
G1 X149.2929 Y71.2929
G1 X149.0 Y71.0
G1 Y70.0
G3 X150.0 Y69.0 I1.0 J0.0
G1 X153.449
G0 Z-2.7
G1 X156.249
G1 F300.0 Z-2.8
G1 F800.0 X160.0
G3 X161.0 Y70.0 I0.0 J1.0
G1 Y71.0
G1 X160.7071 Y71.2929
G1 X161.0 Y71.0
G1 X169.0
G1 X169.2929 Y71.2929
G1 X169.0 Y71.0
G1 Y70.0
G3 X170.0 Y69.0 I1.0 J0.0
G1 X180.0
G3 X181.0 Y70.0 I0.0 J1.0
G1 Y71.0
G1 X180.7071 Y71.2929
G1 X181.0 Y71.0
G1 X189.0
G1 X189.2929 Y71.2929
G1 X189.0 Y71.0
G1 Y70.0
G3 X190.0 Y69.0 I1.0 J0.0
G1 X191.9779
G0 Z-2.7
G1 X194.7779
G1 F300.0 Z-2.8
G1 F800.0 X198.0
G3 X199.0 Y70.0 I0.0 J1.0
G1 Y79.0
G1 X198.7071 Y79.2929
G1 X199.0 Y79.0
G1 X200.0
G3 X201.0 Y80.0 I0.0 J1.0
G1 Y90.0
G3 X200.0 Y91.0 I-1.0 J0.0
G1 X199.0
G1 X198.7071 Y90.7071
G1 X199.0 Y91.0
G1 Y99.0
G1 X198.7071 Y99.2929
G1 X199.0 Y99.0
G1 X200.0
G3 X201.0 Y100.0 I0.0 J1.0
G1 Y103.9793
G0 Z-2.7
G1 Y106.7793
G1 F300.0 Z-2.8
G1 F800.0 Y110.0
G3 X200.0 Y111.0 I-1.0 J0.0
G1 X199.0
G1 X198.7071 Y110.7071
G1 X199.0 Y111.0
G1 Y119.0
G1 X198.7071 Y119.2929
G1 X199.0 Y119.0
G1 X200.0
G3 X201.0 Y120.0 I0.0 J1.0
G1 Y128.0
G3 X200.0 Y129.0 I-1.0 J0.0
G1 X191.0
G1 X190.7071 Y128.7071
G1 X191.0 Y129.0
G1 Y130.0
G3 X190.0 Y131.0 I-1.0 J0.0
G1 X185.7123
G0 Z-2.7
G1 X182.9123
G1 F300.0 Z-2.8
G1 F800.0 X180.0
G3 X179.0 Y130.0 I0.0 J-1.0
G1 Y129.0
G1 X179.2929 Y128.7071
G1 X179.0 Y129.0
G1 X171.0
G1 X170.7071 Y128.7071
G1 X171.0 Y129.0
G1 Y130.0
G3 X170.0 Y131.0 I-1.0 J0.0
G1 X160.0
G3 X159.0 Y130.0 I0.0 J-1.0
G1 Y129.0
G1 X159.2929 Y128.7071
G1 X159.0 Y129.0
G1 X151.0
G1 X150.7071 Y128.7071
G1 X151.0 Y129.0
G1 Y130.0
G3 X150.0 Y131.0 I-1.0 J0.0
G1 X147.4352
G0 Z-2.7
G1 X144.6352
G1 F300.0 Z-2.8
G1 F800.0 X142.0
G3 X141.0 Y130.0 I0.0 J-1.0
G1 F300.0 Z-3.2
G1 F800.0 Y121.0
G1 X141.2929 Y120.7071
G1 X141.0 Y121.0
G1 X140.0
G3 X139.0 Y120.0 I0.0 J-1.0
G1 Y110.0
G3 X140.0 Y109.0 I1.0 J0.0
G1 X141.0
G1 X141.2929 Y109.2929
G1 X141.0 Y109.0
G1 Y101.0
G1 X141.2929 Y100.7071
G1 X141.0 Y101.0
G1 X140.0
G3 X139.0 Y100.0 I0.0 J-1.0
G1 Y96.4545
G0 Z-2.7
G1 Y93.6545
G1 F300.0 Z-3.2
G1 F800.0 Y90.0
G3 X140.0 Y89.0 I1.0 J0.0
G1 X141.0
G1 X141.2929 Y89.2929
G1 X141.0 Y89.0
G1 Y81.0
G1 X141.2929 Y80.7071
G1 X141.0 Y81.0
G1 X140.0
G3 X139.0 Y80.0 I0.0 J-1.0
G1 Y72.0
G3 X140.0 Y71.0 I1.0 J0.0
G1 X149.0
G1 X149.2929 Y71.2929
G1 X149.0 Y71.0
G1 Y70.0
G3 X150.0 Y69.0 I1.0 J0.0
G1 X153.449
G0 Z-2.7
G1 X156.249
G1 F300.0 Z-3.2
G1 F800.0 X160.0
G3 X161.0 Y70.0 I0.0 J1.0
G1 Y71.0
G1 X160.7071 Y71.2929
G1 X161.0 Y71.0
G1 X169.0
G1 X169.2929 Y71.2929
G1 X169.0 Y71.0
G1 Y70.0
G3 X170.0 Y69.0 I1.0 J0.0
G1 X180.0
G3 X181.0 Y70.0 I0.0 J1.0
G1 Y71.0
G1 X180.7071 Y71.2929
G1 X181.0 Y71.0
G1 X189.0
G1 X189.2929 Y71.2929
G1 X189.0 Y71.0
G1 Y70.0
G3 X190.0 Y69.0 I1.0 J0.0
G1 X191.9779
G0 Z-2.7
G1 X194.7779
G1 F300.0 Z-3.2
G1 F800.0 X198.0
G3 X199.0 Y70.0 I0.0 J1.0
G1 Y79.0
G1 X198.7071 Y79.2929
G1 X199.0 Y79.0
G1 X200.0
G3 X201.0 Y80.0 I0.0 J1.0
G1 Y90.0
G3 X200.0 Y91.0 I-1.0 J0.0
G1 X199.0
G1 X198.7071 Y90.7071
G1 X199.0 Y91.0
G1 Y99.0
G1 X198.7071 Y99.2929
G1 X199.0 Y99.0
G1 X200.0
G3 X201.0 Y100.0 I0.0 J1.0
G1 Y103.9793
G0 Z-2.7
G1 Y106.7793
G1 F300.0 Z-3.2
G1 F800.0 Y110.0
G3 X200.0 Y111.0 I-1.0 J0.0
G1 X199.0
G1 X198.7071 Y110.7071
G1 X199.0 Y111.0
G1 Y119.0
G1 X198.7071 Y119.2929
G1 X199.0 Y119.0
G1 X200.0
G3 X201.0 Y120.0 I0.0 J1.0
G1 Y128.0
G3 X200.0 Y129.0 I-1.0 J0.0
G1 X191.0
G1 X190.7071 Y128.7071
G1 X191.0 Y129.0
G1 Y130.0
G3 X190.0 Y131.0 I-1.0 J0.0
G1 X185.7123
G0 Z-2.7
G1 X182.9123
G1 F300.0 Z-3.2
G1 F800.0 X180.0
G3 X179.0 Y130.0 I0.0 J-1.0
G1 Y129.0
G1 X179.2929 Y128.7071
G1 X179.0 Y129.0
G1 X171.0
G1 X170.7071 Y128.7071
G1 X171.0 Y129.0
G1 Y130.0
G3 X170.0 Y131.0 I-1.0 J0.0
G1 X160.0
G3 X159.0 Y130.0 I0.0 J-1.0
G1 Y129.0
G1 X159.2929 Y128.7071
G1 X159.0 Y129.0
G1 X151.0
G1 X150.7071 Y128.7071
G1 X151.0 Y129.0
G1 Y130.0
G3 X150.0 Y131.0 I-1.0 J0.0
G1 X147.4352
G0 Z-2.7
G1 X144.6352
G1 F300.0 Z-3.2
G1 F800.0 X142.0
G3 X141.0 Y130.0 I0.0 J-1.0
G1 F300.0 Z-3.5
G1 F800.0 Y121.0
G1 X141.2929 Y120.7071
G1 X141.0 Y121.0
G1 X140.0
G3 X139.0 Y120.0 I0.0 J-1.0
G1 Y110.0
G3 X140.0 Y109.0 I1.0 J0.0
G1 X141.0
G1 X141.2929 Y109.2929
G1 X141.0 Y109.0
G1 Y101.0
G1 X141.2929 Y100.7071
G1 X141.0 Y101.0
G1 X140.0
G3 X139.0 Y100.0 I0.0 J-1.0
G1 Y96.4545
G0 Z-2.7
G1 Y93.6545
G0 Z-3.0
G1 F300.0 Z-3.5
G1 F800.0 Y90.0
G3 X140.0 Y89.0 I1.0 J0.0
G1 X141.0
G1 X141.2929 Y89.2929
G1 X141.0 Y89.0
G1 Y81.0
G1 X141.2929 Y80.7071
G1 X141.0 Y81.0
G1 X140.0
G3 X139.0 Y80.0 I0.0 J-1.0
G1 Y72.0
G3 X140.0 Y71.0 I1.0 J0.0
G1 X149.0
G1 X149.2929 Y71.2929
G1 X149.0 Y71.0
G1 Y70.0
G3 X150.0 Y69.0 I1.0 J0.0
G1 X153.449
G0 Z-2.7
G1 X156.249
G0 Z-3.0
G1 F300.0 Z-3.5
G1 F800.0 X160.0
G3 X161.0 Y70.0 I0.0 J1.0
G1 Y71.0
G1 X160.7071 Y71.2929
G1 X161.0 Y71.0
G1 X169.0
G1 X169.2929 Y71.2929
G1 X169.0 Y71.0
G1 Y70.0
G3 X170.0 Y69.0 I1.0 J0.0
G1 X180.0
G3 X181.0 Y70.0 I0.0 J1.0
G1 Y71.0
G1 X180.7071 Y71.2929
G1 X181.0 Y71.0
G1 X189.0
G1 X189.2929 Y71.2929
G1 X189.0 Y71.0
G1 Y70.0
G3 X190.0 Y69.0 I1.0 J0.0
G1 X191.9779
G0 Z-2.7
G1 X194.7779
G0 Z-3.0
G1 F300.0 Z-3.5
G1 F800.0 X198.0
G3 X199.0 Y70.0 I0.0 J1.0
G1 Y79.0
G1 X198.7071 Y79.2929
G1 X199.0 Y79.0
G1 X200.0
G3 X201.0 Y80.0 I0.0 J1.0
G1 Y90.0
G3 X200.0 Y91.0 I-1.0 J0.0
G1 X199.0
G1 X198.7071 Y90.7071
G1 X199.0 Y91.0
G1 Y99.0
G1 X198.7071 Y99.2929
G1 X199.0 Y99.0
G1 X200.0
G3 X201.0 Y100.0 I0.0 J1.0
G1 Y103.9793
G0 Z-2.7
G1 Y106.7793
G0 Z-3.0
G1 F300.0 Z-3.5
G1 F800.0 Y110.0
G3 X200.0 Y111.0 I-1.0 J0.0
G1 X199.0
G1 X198.7071 Y110.7071
G1 X199.0 Y111.0
G1 Y119.0
G1 X198.7071 Y119.2929
G1 X199.0 Y119.0
G1 X200.0
G3 X201.0 Y120.0 I0.0 J1.0
G1 Y128.0
G3 X200.0 Y129.0 I-1.0 J0.0
G1 X191.0
G1 X190.7071 Y128.7071
G1 X191.0 Y129.0
G1 Y130.0
G3 X190.0 Y131.0 I-1.0 J0.0
G1 X185.7123
G0 Z-2.7
G1 X182.9123
G0 Z-3.0
G1 F300.0 Z-3.5
G1 F800.0 X180.0
G3 X179.0 Y130.0 I0.0 J-1.0
G1 Y129.0
G1 X179.2929 Y128.7071
G1 X179.0 Y129.0
G1 X171.0
G1 X170.7071 Y128.7071
G1 X171.0 Y129.0
G1 Y130.0
G3 X170.0 Y131.0 I-1.0 J0.0
G1 X160.0
G3 X159.0 Y130.0 I0.0 J-1.0
G1 Y129.0
G1 X159.2929 Y128.7071
G1 X159.0 Y129.0
G1 X151.0
G1 X150.7071 Y128.7071
G1 X151.0 Y129.0
G1 Y130.0
G3 X150.0 Y131.0 I-1.0 J0.0
G1 X147.4352
G0 Z-2.7
G1 X144.6352
G0 Z-3.0
G1 F300.0 Z-3.5
G1 F800.0 X142.0
G3 X141.0 Y130.0 I0.0 J-1.0
( Profile1 )
G0 Z3.0
G0 X71.0
G0 Z0.2
G1 F300.0 Z-0.4
G1 F800.0 Y121.0
G1 X71.2929 Y120.7071
G1 X71.0 Y121.0
G1 X70.0
G3 X69.0 Y120.0 I0.0 J-1.0
G1 Y110.0
G3 X70.0 Y109.0 I1.0 J0.0
G1 X71.0
G1 X71.2929 Y109.2929
G1 X71.0 Y109.0
G1 Y101.0
G1 X71.2929 Y100.7071
G1 X71.0 Y101.0
G1 X70.0
G3 X69.0 Y100.0 I0.0 J-1.0
G1 Y90.0
G3 X70.0 Y89.0 I1.0 J0.0
G1 X71.0
G1 X71.2929 Y89.2929
G1 X71.0 Y89.0
G1 Y81.0
G1 X71.2929 Y80.7071
G1 X71.0 Y81.0
G1 X70.0
G3 X69.0 Y80.0 I0.0 J-1.0
G1 Y72.0
G3 X70.0 Y71.0 I1.0 J0.0
G1 X79.0
G1 X79.2929 Y71.2929
G1 X79.0 Y71.0
G1 Y70.0
G3 X80.0 Y69.0 I1.0 J0.0
G1 X90.0
G3 X91.0 Y70.0 I0.0 J1.0
G1 Y71.0
G1 X90.7071 Y71.2929
G1 X91.0 Y71.0
G1 X99.0
G1 X99.2929 Y71.2929
G1 X99.0 Y71.0
G1 Y70.0
G3 X100.0 Y69.0 I1.0 J0.0
G1 X110.0
G3 X111.0 Y70.0 I0.0 J1.0
G1 Y71.0
G1 X110.7071 Y71.2929
G1 X111.0 Y71.0
G1 X119.0
G1 X119.2929 Y71.2929
G1 X119.0 Y71.0
G1 Y70.0
G3 X120.0 Y69.0 I1.0 J0.0
G1 X128.0
G3 X129.0 Y70.0 I0.0 J1.0
G1 Y79.0
G1 X128.7071 Y79.2929
G1 X129.0 Y79.0
G1 X130.0
G3 X131.0 Y80.0 I0.0 J1.0
G1 Y90.0
G3 X130.0 Y91.0 I-1.0 J0.0
G1 X129.0
G1 X128.7071 Y90.7071
G1 X129.0 Y91.0
G1 Y99.0
G1 X128.7071 Y99.2929
G1 X129.0 Y99.0
G1 X130.0
G3 X131.0 Y100.0 I0.0 J1.0
G1 Y110.0
G3 X130.0 Y111.0 I-1.0 J0.0
G1 X129.0
G1 X128.7071 Y110.7071
G1 X129.0 Y111.0
G1 Y119.0
G1 X128.7071 Y119.2929
G1 X129.0 Y119.0
G1 X130.0
G3 X131.0 Y120.0 I0.0 J1.0
G1 Y128.0
G3 X130.0 Y129.0 I-1.0 J0.0
G1 X121.0
G1 X120.7071 Y128.7071
G1 X121.0 Y129.0
G1 Y130.0
G3 X120.0 Y131.0 I-1.0 J0.0
G1 X110.0
G3 X109.0 Y130.0 I0.0 J-1.0
G1 Y129.0
G1 X109.2929 Y128.7071
G1 X109.0 Y129.0
G1 X101.0
G1 X100.7071 Y128.7071
G1 X101.0 Y129.0
G1 Y130.0
G3 X100.0 Y131.0 I-1.0 J0.0
G1 X90.0
G3 X89.0 Y130.0 I0.0 J-1.0
G1 Y129.0
G1 X89.2929 Y128.7071
G1 X89.0 Y129.0
G1 X81.0
G1 X80.7071 Y128.7071
G1 X81.0 Y129.0
G1 Y130.0
G3 X80.0 Y131.0 I-1.0 J0.0
G1 X72.0
G3 X71.0 Y130.0 I0.0 J-1.0
G1 F300.0 Z-0.8
G1 F800.0 Y121.0
G1 X71.2929 Y120.7071
G1 X71.0 Y121.0
G1 X70.0
G3 X69.0 Y120.0 I0.0 J-1.0
G1 Y110.0
G3 X70.0 Y109.0 I1.0 J0.0
G1 X71.0
G1 X71.2929 Y109.2929
G1 X71.0 Y109.0
G1 Y101.0
G1 X71.2929 Y100.7071
G1 X71.0 Y101.0
G1 X70.0
G3 X69.0 Y100.0 I0.0 J-1.0
G1 Y90.0
G3 X70.0 Y89.0 I1.0 J0.0
G1 X71.0
G1 X71.2929 Y89.2929
G1 X71.0 Y89.0
G1 Y81.0
G1 X71.2929 Y80.7071
G1 X71.0 Y81.0
G1 X70.0
G3 X69.0 Y80.0 I0.0 J-1.0
G1 Y72.0
G3 X70.0 Y71.0 I1.0 J0.0
G1 X79.0
G1 X79.2929 Y71.2929
G1 X79.0 Y71.0
G1 Y70.0
G3 X80.0 Y69.0 I1.0 J0.0
G1 X90.0
G3 X91.0 Y70.0 I0.0 J1.0
G1 Y71.0
G1 X90.7071 Y71.2929
G1 X91.0 Y71.0
G1 X99.0
G1 X99.2929 Y71.2929
G1 X99.0 Y71.0
G1 Y70.0
G3 X100.0 Y69.0 I1.0 J0.0
G1 X110.0
G3 X111.0 Y70.0 I0.0 J1.0
G1 Y71.0
G1 X110.7071 Y71.2929
G1 X111.0 Y71.0
G1 X119.0
G1 X119.2929 Y71.2929
G1 X119.0 Y71.0
G1 Y70.0
G3 X120.0 Y69.0 I1.0 J0.0
G1 X128.0
G3 X129.0 Y70.0 I0.0 J1.0
G1 Y79.0
G1 X128.7071 Y79.2929
G1 X129.0 Y79.0
G1 X130.0
G3 X131.0 Y80.0 I0.0 J1.0
G1 Y90.0
G3 X130.0 Y91.0 I-1.0 J0.0
G1 X129.0
G1 X128.7071 Y90.7071
G1 X129.0 Y91.0
G1 Y99.0
G1 X128.7071 Y99.2929
G1 X129.0 Y99.0
G1 X130.0
G3 X131.0 Y100.0 I0.0 J1.0
G1 Y110.0
G3 X130.0 Y111.0 I-1.0 J0.0
G1 X129.0
G1 X128.7071 Y110.7071
G1 X129.0 Y111.0
G1 Y119.0
G1 X128.7071 Y119.2929
G1 X129.0 Y119.0
G1 X130.0
G3 X131.0 Y120.0 I0.0 J1.0
G1 Y128.0
G3 X130.0 Y129.0 I-1.0 J0.0
G1 X121.0
G1 X120.7071 Y128.7071
G1 X121.0 Y129.0
G1 Y130.0
G3 X120.0 Y131.0 I-1.0 J0.0
G1 X110.0
G3 X109.0 Y130.0 I0.0 J-1.0
G1 Y129.0
G1 X109.2929 Y128.7071
G1 X109.0 Y129.0
G1 X101.0
G1 X100.7071 Y128.7071
G1 X101.0 Y129.0
G1 Y130.0
G3 X100.0 Y131.0 I-1.0 J0.0
G1 X90.0
G3 X89.0 Y130.0 I0.0 J-1.0
G1 Y129.0
G1 X89.2929 Y128.7071
G1 X89.0 Y129.0
G1 X81.0
G1 X80.7071 Y128.7071
G1 X81.0 Y129.0
G1 Y130.0
G3 X80.0 Y131.0 I-1.0 J0.0
G1 X72.0
G3 X71.0 Y130.0 I0.0 J-1.0
G1 F300.0 Z-1.2
G1 F800.0 Y121.0
G1 X71.2929 Y120.7071
G1 X71.0 Y121.0
G1 X70.0
G3 X69.0 Y120.0 I0.0 J-1.0
G1 Y110.0
G3 X70.0 Y109.0 I1.0 J0.0
G1 X71.0
G1 X71.2929 Y109.2929
G1 X71.0 Y109.0
G1 Y101.0
G1 X71.2929 Y100.7071
G1 X71.0 Y101.0
G1 X70.0
G3 X69.0 Y100.0 I0.0 J-1.0
G1 Y90.0
G3 X70.0 Y89.0 I1.0 J0.0
G1 X71.0
G1 X71.2929 Y89.2929
G1 X71.0 Y89.0
G1 Y81.0
G1 X71.2929 Y80.7071
G1 X71.0 Y81.0
G1 X70.0
G3 X69.0 Y80.0 I0.0 J-1.0
G1 Y72.0
G3 X70.0 Y71.0 I1.0 J0.0
G1 X79.0
G1 X79.2929 Y71.2929
G1 X79.0 Y71.0
G1 Y70.0
G3 X80.0 Y69.0 I1.0 J0.0
G1 X90.0
G3 X91.0 Y70.0 I0.0 J1.0
G1 Y71.0
G1 X90.7071 Y71.2929
G1 X91.0 Y71.0
G1 X99.0
G1 X99.2929 Y71.2929
G1 X99.0 Y71.0
G1 Y70.0
G3 X100.0 Y69.0 I1.0 J0.0
G1 X110.0
G3 X111.0 Y70.0 I0.0 J1.0
G1 Y71.0
G1 X110.7071 Y71.2929
G1 X111.0 Y71.0
G1 X119.0
G1 X119.2929 Y71.2929
G1 X119.0 Y71.0
G1 Y70.0
G3 X120.0 Y69.0 I1.0 J0.0
G1 X128.0
G3 X129.0 Y70.0 I0.0 J1.0
G1 Y79.0
G1 X128.7071 Y79.2929
G1 X129.0 Y79.0
G1 X130.0
G3 X131.0 Y80.0 I0.0 J1.0
G1 Y90.0
G3 X130.0 Y91.0 I-1.0 J0.0
G1 X129.0
G1 X128.7071 Y90.7071
G1 X129.0 Y91.0
G1 Y99.0
G1 X128.7071 Y99.2929
G1 X129.0 Y99.0
G1 X130.0
G3 X131.0 Y100.0 I0.0 J1.0
G1 Y110.0
G3 X130.0 Y111.0 I-1.0 J0.0
G1 X129.0
G1 X128.7071 Y110.7071
G1 X129.0 Y111.0
G1 Y119.0
G1 X128.7071 Y119.2929
G1 X129.0 Y119.0
G1 X130.0
G3 X131.0 Y120.0 I0.0 J1.0
G1 Y128.0
G3 X130.0 Y129.0 I-1.0 J0.0
G1 X121.0
G1 X120.7071 Y128.7071
G1 X121.0 Y129.0
G1 Y130.0
G3 X120.0 Y131.0 I-1.0 J0.0
G1 X110.0
G3 X109.0 Y130.0 I0.0 J-1.0
G1 Y129.0
G1 X109.2929 Y128.7071
G1 X109.0 Y129.0
G1 X101.0
G1 X100.7071 Y128.7071
G1 X101.0 Y129.0
G1 Y130.0
G3 X100.0 Y131.0 I-1.0 J0.0
G1 X90.0
G3 X89.0 Y130.0 I0.0 J-1.0
G1 Y129.0
G1 X89.2929 Y128.7071
G1 X89.0 Y129.0
G1 X81.0
G1 X80.7071 Y128.7071
G1 X81.0 Y129.0
G1 Y130.0
G3 X80.0 Y131.0 I-1.0 J0.0
G1 X72.0
G3 X71.0 Y130.0 I0.0 J-1.0
G1 F300.0 Z-1.6
G1 F800.0 Y121.0
G1 X71.2929 Y120.7071
G1 X71.0 Y121.0
G1 X70.0
G3 X69.0 Y120.0 I0.0 J-1.0
G1 Y110.0
G3 X70.0 Y109.0 I1.0 J0.0
G1 X71.0
G1 X71.2929 Y109.2929
G1 X71.0 Y109.0
G1 Y101.0
G1 X71.2929 Y100.7071
G1 X71.0 Y101.0
G1 X70.0
G3 X69.0 Y100.0 I0.0 J-1.0
G1 Y90.0
G3 X70.0 Y89.0 I1.0 J0.0
G1 X71.0
G1 X71.2929 Y89.2929
G1 X71.0 Y89.0
G1 Y81.0
G1 X71.2929 Y80.7071
G1 X71.0 Y81.0
G1 X70.0
G3 X69.0 Y80.0 I0.0 J-1.0
G1 Y72.0
G3 X70.0 Y71.0 I1.0 J0.0
G1 X79.0
G1 X79.2929 Y71.2929
G1 X79.0 Y71.0
G1 Y70.0
G3 X80.0 Y69.0 I1.0 J0.0
G1 X90.0
G3 X91.0 Y70.0 I0.0 J1.0
G1 Y71.0
G1 X90.7071 Y71.2929
G1 X91.0 Y71.0
G1 X99.0
G1 X99.2929 Y71.2929
G1 X99.0 Y71.0
G1 Y70.0
G3 X100.0 Y69.0 I1.0 J0.0
G1 X110.0
G3 X111.0 Y70.0 I0.0 J1.0
G1 Y71.0
G1 X110.7071 Y71.2929
G1 X111.0 Y71.0
G1 X119.0
G1 X119.2929 Y71.2929
G1 X119.0 Y71.0
G1 Y70.0
G3 X120.0 Y69.0 I1.0 J0.0
G1 X128.0
G3 X129.0 Y70.0 I0.0 J1.0
G1 Y79.0
G1 X128.7071 Y79.2929
G1 X129.0 Y79.0
G1 X130.0
G3 X131.0 Y80.0 I0.0 J1.0
G1 Y90.0
G3 X130.0 Y91.0 I-1.0 J0.0
G1 X129.0
G1 X128.7071 Y90.7071
G1 X129.0 Y91.0
G1 Y99.0
G1 X128.7071 Y99.2929
G1 X129.0 Y99.0
G1 X130.0
G3 X131.0 Y100.0 I0.0 J1.0
G1 Y110.0
G3 X130.0 Y111.0 I-1.0 J0.0
G1 X129.0
G1 X128.7071 Y110.7071
G1 X129.0 Y111.0
G1 Y119.0
G1 X128.7071 Y119.2929
G1 X129.0 Y119.0
G1 X130.0
G3 X131.0 Y120.0 I0.0 J1.0
G1 Y128.0
G3 X130.0 Y129.0 I-1.0 J0.0
G1 X121.0
G1 X120.7071 Y128.7071
G1 X121.0 Y129.0
G1 Y130.0
G3 X120.0 Y131.0 I-1.0 J0.0
G1 X110.0
G3 X109.0 Y130.0 I0.0 J-1.0
G1 Y129.0
G1 X109.2929 Y128.7071
G1 X109.0 Y129.0
G1 X101.0
G1 X100.7071 Y128.7071
G1 X101.0 Y129.0
G1 Y130.0
G3 X100.0 Y131.0 I-1.0 J0.0
G1 X90.0
G3 X89.0 Y130.0 I0.0 J-1.0
G1 Y129.0
G1 X89.2929 Y128.7071
G1 X89.0 Y129.0
G1 X81.0
G1 X80.7071 Y128.7071
G1 X81.0 Y129.0
G1 Y130.0
G3 X80.0 Y131.0 I-1.0 J0.0
G1 X72.0
G3 X71.0 Y130.0 I0.0 J-1.0
G1 F300.0 Z-2.0
G1 F800.0 Y121.0
G1 X71.2929 Y120.7071
G1 X71.0 Y121.0
G1 X70.0
G3 X69.0 Y120.0 I0.0 J-1.0
G1 Y110.0
G3 X70.0 Y109.0 I1.0 J0.0
G1 X71.0
G1 X71.2929 Y109.2929
G1 X71.0 Y109.0
G1 Y101.0
G1 X71.2929 Y100.7071
G1 X71.0 Y101.0
G1 X70.0
G3 X69.0 Y100.0 I0.0 J-1.0
G1 Y90.0
G3 X70.0 Y89.0 I1.0 J0.0
G1 X71.0
G1 X71.2929 Y89.2929
G1 X71.0 Y89.0
G1 Y81.0
G1 X71.2929 Y80.7071
G1 X71.0 Y81.0
G1 X70.0
G3 X69.0 Y80.0 I0.0 J-1.0
G1 Y72.0
G3 X70.0 Y71.0 I1.0 J0.0
G1 X79.0
G1 X79.2929 Y71.2929
G1 X79.0 Y71.0
G1 Y70.0
G3 X80.0 Y69.0 I1.0 J0.0
G1 X90.0
G3 X91.0 Y70.0 I0.0 J1.0
G1 Y71.0
G1 X90.7071 Y71.2929
G1 X91.0 Y71.0
G1 X99.0
G1 X99.2929 Y71.2929
G1 X99.0 Y71.0
G1 Y70.0
G3 X100.0 Y69.0 I1.0 J0.0
G1 X110.0
G3 X111.0 Y70.0 I0.0 J1.0
G1 Y71.0
G1 X110.7071 Y71.2929
G1 X111.0 Y71.0
G1 X119.0
G1 X119.2929 Y71.2929
G1 X119.0 Y71.0
G1 Y70.0
G3 X120.0 Y69.0 I1.0 J0.0
G1 X128.0
G3 X129.0 Y70.0 I0.0 J1.0
G1 Y79.0
G1 X128.7071 Y79.2929
G1 X129.0 Y79.0
G1 X130.0
G3 X131.0 Y80.0 I0.0 J1.0
G1 Y90.0
G3 X130.0 Y91.0 I-1.0 J0.0
G1 X129.0
G1 X128.7071 Y90.7071
G1 X129.0 Y91.0
G1 Y99.0
G1 X128.7071 Y99.2929
G1 X129.0 Y99.0
G1 X130.0
G3 X131.0 Y100.0 I0.0 J1.0
G1 Y110.0
G3 X130.0 Y111.0 I-1.0 J0.0
G1 X129.0
G1 X128.7071 Y110.7071
G1 X129.0 Y111.0
G1 Y119.0
G1 X128.7071 Y119.2929
G1 X129.0 Y119.0
G1 X130.0
G3 X131.0 Y120.0 I0.0 J1.0
G1 Y128.0
G3 X130.0 Y129.0 I-1.0 J0.0
G1 X121.0
G1 X120.7071 Y128.7071
G1 X121.0 Y129.0
G1 Y130.0
G3 X120.0 Y131.0 I-1.0 J0.0
G1 X110.0
G3 X109.0 Y130.0 I0.0 J-1.0
G1 Y129.0
G1 X109.2929 Y128.7071
G1 X109.0 Y129.0
G1 X101.0
G1 X100.7071 Y128.7071
G1 X101.0 Y129.0
G1 Y130.0
G3 X100.0 Y131.0 I-1.0 J0.0
G1 X90.0
G3 X89.0 Y130.0 I0.0 J-1.0
G1 Y129.0
G1 X89.2929 Y128.7071
G1 X89.0 Y129.0
G1 X81.0
G1 X80.7071 Y128.7071
G1 X81.0 Y129.0
G1 Y130.0
G3 X80.0 Y131.0 I-1.0 J0.0
G1 X72.0
G3 X71.0 Y130.0 I0.0 J-1.0
G1 F300.0 Z-2.4
G1 F800.0 Y121.0
G1 X71.2929 Y120.7071
G1 X71.0 Y121.0
G1 X70.0
G3 X69.0 Y120.0 I0.0 J-1.0
G1 Y110.0
G3 X70.0 Y109.0 I1.0 J0.0
G1 X71.0
G1 X71.2929 Y109.2929
G1 X71.0 Y109.0
G1 Y101.0
G1 X71.2929 Y100.7071
G1 X71.0 Y101.0
G1 X70.0
G3 X69.0 Y100.0 I0.0 J-1.0
G1 Y90.0
G3 X70.0 Y89.0 I1.0 J0.0
G1 X71.0
G1 X71.2929 Y89.2929
G1 X71.0 Y89.0
G1 Y81.0
G1 X71.2929 Y80.7071
G1 X71.0 Y81.0
G1 X70.0
G3 X69.0 Y80.0 I0.0 J-1.0
G1 Y72.0
G3 X70.0 Y71.0 I1.0 J0.0
G1 X79.0
G1 X79.2929 Y71.2929
G1 X79.0 Y71.0
G1 Y70.0
G3 X80.0 Y69.0 I1.0 J0.0
G1 X90.0
G3 X91.0 Y70.0 I0.0 J1.0
G1 Y71.0
G1 X90.7071 Y71.2929
G1 X91.0 Y71.0
G1 X99.0
G1 X99.2929 Y71.2929
G1 X99.0 Y71.0
G1 Y70.0
G3 X100.0 Y69.0 I1.0 J0.0
G1 X110.0
G3 X111.0 Y70.0 I0.0 J1.0
G1 Y71.0
G1 X110.7071 Y71.2929
G1 X111.0 Y71.0
G1 X119.0
G1 X119.2929 Y71.2929
G1 X119.0 Y71.0
G1 Y70.0
G3 X120.0 Y69.0 I1.0 J0.0
G1 X128.0
G3 X129.0 Y70.0 I0.0 J1.0
G1 Y79.0
G1 X128.7071 Y79.2929
G1 X129.0 Y79.0
G1 X130.0
G3 X131.0 Y80.0 I0.0 J1.0
G1 Y90.0
G3 X130.0 Y91.0 I-1.0 J0.0
G1 X129.0
G1 X128.7071 Y90.7071
G1 X129.0 Y91.0
G1 Y99.0
G1 X128.7071 Y99.2929
G1 X129.0 Y99.0
G1 X130.0
G3 X131.0 Y100.0 I0.0 J1.0
G1 Y110.0
G3 X130.0 Y111.0 I-1.0 J0.0
G1 X129.0
G1 X128.7071 Y110.7071
G1 X129.0 Y111.0
G1 Y119.0
G1 X128.7071 Y119.2929
G1 X129.0 Y119.0
G1 X130.0
G3 X131.0 Y120.0 I0.0 J1.0
G1 Y128.0
G3 X130.0 Y129.0 I-1.0 J0.0
G1 X121.0
G1 X120.7071 Y128.7071
G1 X121.0 Y129.0
G1 Y130.0
G3 X120.0 Y131.0 I-1.0 J0.0
G1 X110.0
G3 X109.0 Y130.0 I0.0 J-1.0
G1 Y129.0
G1 X109.2929 Y128.7071
G1 X109.0 Y129.0
G1 X101.0
G1 X100.7071 Y128.7071
G1 X101.0 Y129.0
G1 Y130.0
G3 X100.0 Y131.0 I-1.0 J0.0
G1 X90.0
G3 X89.0 Y130.0 I0.0 J-1.0
G1 Y129.0
G1 X89.2929 Y128.7071
G1 X89.0 Y129.0
G1 X81.0
G1 X80.7071 Y128.7071
G1 X81.0 Y129.0
G1 Y130.0
G3 X80.0 Y131.0 I-1.0 J0.0
G1 X72.0
G3 X71.0 Y130.0 I0.0 J-1.0
G1 F300.0 Z-2.8
G1 F800.0 Y121.0
G1 X71.2929 Y120.7071
G1 X71.0 Y121.0
G1 X70.0
G3 X69.0 Y120.0 I0.0 J-1.0
G1 Y110.0
G3 X70.0 Y109.0 I1.0 J0.0
G1 X71.0
G1 X71.2929 Y109.2929
G1 X71.0 Y109.0
G1 Y101.0
G1 X71.2929 Y100.7071
G1 X71.0 Y101.0
G1 X70.0
G3 X69.0 Y100.0 I0.0 J-1.0
G1 Y96.4545
G0 Z-2.7
G1 Y93.6545
G1 F300.0 Z-2.8
G1 F800.0 Y90.0
G3 X70.0 Y89.0 I1.0 J0.0
G1 X71.0
G1 X71.2929 Y89.2929
G1 X71.0 Y89.0
G1 Y81.0
G1 X71.2929 Y80.7071
G1 X71.0 Y81.0
G1 X70.0
G3 X69.0 Y80.0 I0.0 J-1.0
G1 Y72.0
G3 X70.0 Y71.0 I1.0 J0.0
G1 X79.0
G1 X79.2929 Y71.2929
G1 X79.0 Y71.0
G1 Y70.0
G3 X80.0 Y69.0 I1.0 J0.0
G1 X83.449
G0 Z-2.7
G1 X86.249
G1 F300.0 Z-2.8
G1 F800.0 X90.0
G3 X91.0 Y70.0 I0.0 J1.0
G1 Y71.0
G1 X90.7071 Y71.2929
G1 X91.0 Y71.0
G1 X99.0
G1 X99.2929 Y71.2929
G1 X99.0 Y71.0
G1 Y70.0
G3 X100.0 Y69.0 I1.0 J0.0
G1 X110.0
G3 X111.0 Y70.0 I0.0 J1.0
G1 Y71.0
G1 X110.7071 Y71.2929
G1 X111.0 Y71.0
G1 X119.0
G1 X119.2929 Y71.2929
G1 X119.0 Y71.0
G1 Y70.0
G3 X120.0 Y69.0 I1.0 J0.0
G1 X121.9779
G0 Z-2.7
G1 X124.7779
G1 F300.0 Z-2.8
G1 F800.0 X128.0
G3 X129.0 Y70.0 I0.0 J1.0
G1 Y79.0
G1 X128.7071 Y79.2929
G1 X129.0 Y79.0
G1 X130.0
G3 X131.0 Y80.0 I0.0 J1.0
G1 Y90.0
G3 X130.0 Y91.0 I-1.0 J0.0
G1 X129.0
G1 X128.7071 Y90.7071
G1 X129.0 Y91.0
G1 Y99.0
G1 X128.7071 Y99.2929
G1 X129.0 Y99.0
G1 X130.0
G3 X131.0 Y100.0 I0.0 J1.0
G1 Y103.9793
G0 Z-2.7
G1 Y106.7793
G1 F300.0 Z-2.8
G1 F800.0 Y110.0
G3 X130.0 Y111.0 I-1.0 J0.0
G1 X129.0
G1 X128.7071 Y110.7071
G1 X129.0 Y111.0
G1 Y119.0
G1 X128.7071 Y119.2929
G1 X129.0 Y119.0
G1 X130.0
G3 X131.0 Y120.0 I0.0 J1.0
G1 Y128.0
G3 X130.0 Y129.0 I-1.0 J0.0
G1 X121.0
G1 X120.7071 Y128.7071
G1 X121.0 Y129.0
G1 Y130.0
G3 X120.0 Y131.0 I-1.0 J0.0
G1 X115.7123
G0 Z-2.7
G1 X112.9123
G1 F300.0 Z-2.8
G1 F800.0 X110.0
G3 X109.0 Y130.0 I0.0 J-1.0
G1 Y129.0
G1 X109.2929 Y128.7071
G1 X109.0 Y129.0
G1 X101.0
G1 X100.7071 Y128.7071
G1 X101.0 Y129.0
G1 Y130.0
G3 X100.0 Y131.0 I-1.0 J0.0
G1 X90.0
G3 X89.0 Y130.0 I0.0 J-1.0
G1 Y129.0
G1 X89.2929 Y128.7071
G1 X89.0 Y129.0
G1 X81.0
G1 X80.7071 Y128.7071
G1 X81.0 Y129.0
G1 Y130.0
G3 X80.0 Y131.0 I-1.0 J0.0
G1 X77.4352
G0 Z-2.7
G1 X74.6352
G1 F300.0 Z-2.8
G1 F800.0 X72.0
G3 X71.0 Y130.0 I0.0 J-1.0
G1 F300.0 Z-3.2
G1 F800.0 Y121.0
G1 X71.2929 Y120.7071
G1 X71.0 Y121.0
G1 X70.0
G3 X69.0 Y120.0 I0.0 J-1.0
G1 Y110.0
G3 X70.0 Y109.0 I1.0 J0.0
G1 X71.0
G1 X71.2929 Y109.2929
G1 X71.0 Y109.0
G1 Y101.0
G1 X71.2929 Y100.7071
G1 X71.0 Y101.0
G1 X70.0
G3 X69.0 Y100.0 I0.0 J-1.0
G1 Y96.4545
G0 Z-2.7
G1 Y93.6545
G1 F300.0 Z-3.2
G1 F800.0 Y90.0
G3 X70.0 Y89.0 I1.0 J0.0
G1 X71.0
G1 X71.2929 Y89.2929
G1 X71.0 Y89.0
G1 Y81.0
G1 X71.2929 Y80.7071
G1 X71.0 Y81.0
G1 X70.0
G3 X69.0 Y80.0 I0.0 J-1.0
G1 Y72.0
G3 X70.0 Y71.0 I1.0 J0.0
G1 X79.0
G1 X79.2929 Y71.2929
G1 X79.0 Y71.0
G1 Y70.0
G3 X80.0 Y69.0 I1.0 J0.0
G1 X83.449
G0 Z-2.7
G1 X86.249
G1 F300.0 Z-3.2
G1 F800.0 X90.0
G3 X91.0 Y70.0 I0.0 J1.0
G1 Y71.0
G1 X90.7071 Y71.2929
G1 X91.0 Y71.0
G1 X99.0
G1 X99.2929 Y71.2929
G1 X99.0 Y71.0
G1 Y70.0
G3 X100.0 Y69.0 I1.0 J0.0
G1 X110.0
G3 X111.0 Y70.0 I0.0 J1.0
G1 Y71.0
G1 X110.7071 Y71.2929
G1 X111.0 Y71.0
G1 X119.0
G1 X119.2929 Y71.2929
G1 X119.0 Y71.0
G1 Y70.0
G3 X120.0 Y69.0 I1.0 J0.0
G1 X121.9779
G0 Z-2.7
G1 X124.7779
G1 F300.0 Z-3.2
G1 F800.0 X128.0
G3 X129.0 Y70.0 I0.0 J1.0
G1 Y79.0
G1 X128.7071 Y79.2929
G1 X129.0 Y79.0
G1 X130.0
G3 X131.0 Y80.0 I0.0 J1.0
G1 Y90.0
G3 X130.0 Y91.0 I-1.0 J0.0
G1 X129.0
G1 X128.7071 Y90.7071
G1 X129.0 Y91.0
G1 Y99.0
G1 X128.7071 Y99.2929
G1 X129.0 Y99.0
G1 X130.0
G3 X131.0 Y100.0 I0.0 J1.0
G1 Y103.9793
G0 Z-2.7
G1 Y106.7793
G1 F300.0 Z-3.2
G1 F800.0 Y110.0
G3 X130.0 Y111.0 I-1.0 J0.0
G1 X129.0
G1 X128.7071 Y110.7071
G1 X129.0 Y111.0
G1 Y119.0
G1 X128.7071 Y119.2929
G1 X129.0 Y119.0
G1 X130.0
G3 X131.0 Y120.0 I0.0 J1.0
G1 Y128.0
G3 X130.0 Y129.0 I-1.0 J0.0
G1 X121.0
G1 X120.7071 Y128.7071
G1 X121.0 Y129.0
G1 Y130.0
G3 X120.0 Y131.0 I-1.0 J0.0
G1 X115.7123
G0 Z-2.7
G1 X112.9123
G1 F300.0 Z-3.2
G1 F800.0 X110.0
G3 X109.0 Y130.0 I0.0 J-1.0
G1 Y129.0
G1 X109.2929 Y128.7071
G1 X109.0 Y129.0
G1 X101.0
G1 X100.7071 Y128.7071
G1 X101.0 Y129.0
G1 Y130.0
G3 X100.0 Y131.0 I-1.0 J0.0
G1 X90.0
G3 X89.0 Y130.0 I0.0 J-1.0
G1 Y129.0
G1 X89.2929 Y128.7071
G1 X89.0 Y129.0
G1 X81.0
G1 X80.7071 Y128.7071
G1 X81.0 Y129.0
G1 Y130.0
G3 X80.0 Y131.0 I-1.0 J0.0
G1 X77.4352
G0 Z-2.7
G1 X74.6352
G1 F300.0 Z-3.2
G1 F800.0 X72.0
G3 X71.0 Y130.0 I0.0 J-1.0
G1 F300.0 Z-3.5
G1 F800.0 Y121.0
G1 X71.2929 Y120.7071
G1 X71.0 Y121.0
G1 X70.0
G3 X69.0 Y120.0 I0.0 J-1.0
G1 Y110.0
G3 X70.0 Y109.0 I1.0 J0.0
G1 X71.0
G1 X71.2929 Y109.2929
G1 X71.0 Y109.0
G1 Y101.0
G1 X71.2929 Y100.7071
G1 X71.0 Y101.0
G1 X70.0
G3 X69.0 Y100.0 I0.0 J-1.0
G1 Y96.4545
G0 Z-2.7
G1 Y93.6545
G0 Z-3.0
G1 F300.0 Z-3.5
G1 F800.0 Y90.0
G3 X70.0 Y89.0 I1.0 J0.0
G1 X71.0
G1 X71.2929 Y89.2929
G1 X71.0 Y89.0
G1 Y81.0
G1 X71.2929 Y80.7071
G1 X71.0 Y81.0
G1 X70.0
G3 X69.0 Y80.0 I0.0 J-1.0
G1 Y72.0
G3 X70.0 Y71.0 I1.0 J0.0
G1 X79.0
G1 X79.2929 Y71.2929
G1 X79.0 Y71.0
G1 Y70.0
G3 X80.0 Y69.0 I1.0 J0.0
G1 X83.449
G0 Z-2.7
G1 X86.249
G0 Z-3.0
G1 F300.0 Z-3.5
G1 F800.0 X90.0
G3 X91.0 Y70.0 I0.0 J1.0
G1 Y71.0
G1 X90.7071 Y71.2929
G1 X91.0 Y71.0
G1 X99.0
G1 X99.2929 Y71.2929
G1 X99.0 Y71.0
G1 Y70.0
G3 X100.0 Y69.0 I1.0 J0.0
G1 X110.0
G3 X111.0 Y70.0 I0.0 J1.0
G1 Y71.0
G1 X110.7071 Y71.2929
G1 X111.0 Y71.0
G1 X119.0
G1 X119.2929 Y71.2929
G1 X119.0 Y71.0
G1 Y70.0
G3 X120.0 Y69.0 I1.0 J0.0
G1 X121.9779
G0 Z-2.7
G1 X124.7779
G0 Z-3.0
G1 F300.0 Z-3.5
G1 F800.0 X128.0
G3 X129.0 Y70.0 I0.0 J1.0
G1 Y79.0
G1 X128.7071 Y79.2929
G1 X129.0 Y79.0
G1 X130.0
G3 X131.0 Y80.0 I0.0 J1.0
G1 Y90.0
G3 X130.0 Y91.0 I-1.0 J0.0
G1 X129.0
G1 X128.7071 Y90.7071
G1 X129.0 Y91.0
G1 Y99.0
G1 X128.7071 Y99.2929
G1 X129.0 Y99.0
G1 X130.0
G3 X131.0 Y100.0 I0.0 J1.0
G1 Y103.9793
G0 Z-2.7
G1 Y106.7793
G0 Z-3.0
G1 F300.0 Z-3.5
G1 F800.0 Y110.0
G3 X130.0 Y111.0 I-1.0 J0.0
G1 X129.0
G1 X128.7071 Y110.7071
G1 X129.0 Y111.0
G1 Y119.0
G1 X128.7071 Y119.2929
G1 X129.0 Y119.0
G1 X130.0
G3 X131.0 Y120.0 I0.0 J1.0
G1 Y128.0
G3 X130.0 Y129.0 I-1.0 J0.0
G1 X121.0
G1 X120.7071 Y128.7071
G1 X121.0 Y129.0
G1 Y130.0
G3 X120.0 Y131.0 I-1.0 J0.0
G1 X115.7123
G0 Z-2.7
G1 X112.9123
G0 Z-3.0
G1 F300.0 Z-3.5
G1 F800.0 X110.0
G3 X109.0 Y130.0 I0.0 J-1.0
G1 Y129.0
G1 X109.2929 Y128.7071
G1 X109.0 Y129.0
G1 X101.0
G1 X100.7071 Y128.7071
G1 X101.0 Y129.0
G1 Y130.0
G3 X100.0 Y131.0 I-1.0 J0.0
G1 X90.0
G3 X89.0 Y130.0 I0.0 J-1.0
G1 Y129.0
G1 X89.2929 Y128.7071
G1 X89.0 Y129.0
G1 X81.0
G1 X80.7071 Y128.7071
G1 X81.0 Y129.0
G1 Y130.0
G3 X80.0 Y131.0 I-1.0 J0.0
G1 X77.4352
G0 Z-2.7
G1 X74.6352
G0 Z-3.0
G1 F300.0 Z-3.5
G1 F800.0 X72.0
G3 X71.0 Y130.0 I0.0 J-1.0
( Profile1 )
G0 Z3.0
G0 X1.0
G0 Z0.2
G1 F300.0 Z-0.4
G1 F800.0 Y121.0
G1 X1.2929 Y120.7071
G1 X1.0 Y121.0
G1 X0.0
G3 X-1.0 Y120.0 I0.0 J-1.0
G1 Y110.0
G3 X0.0 Y109.0 I1.0 J0.0
G1 X1.0
G1 X1.2929 Y109.2929
G1 X1.0 Y109.0
G1 Y101.0
G1 X1.2929 Y100.7071
G1 X1.0 Y101.0
G1 X0.0
G3 X-1.0 Y100.0 I0.0 J-1.0
G1 Y90.0
G3 X0.0 Y89.0 I1.0 J0.0
G1 X1.0
G1 X1.2929 Y89.2929
G1 X1.0 Y89.0
G1 Y81.0
G1 X1.2929 Y80.7071
G1 X1.0 Y81.0
G1 X0.0
G3 X-1.0 Y80.0 I0.0 J-1.0
G1 Y72.0
G3 X0.0 Y71.0 I1.0 J0.0
G1 X9.0
G1 X9.2929 Y71.2929
G1 X9.0 Y71.0
G1 Y70.0
G3 X10.0 Y69.0 I1.0 J0.0
G1 X20.0
G3 X21.0 Y70.0 I0.0 J1.0
G1 Y71.0
G1 X20.7071 Y71.2929
G1 X21.0 Y71.0
G1 X29.0
G1 X29.2929 Y71.2929
G1 X29.0 Y71.0
G1 Y70.0
G3 X30.0 Y69.0 I1.0 J0.0
G1 X40.0
G3 X41.0 Y70.0 I0.0 J1.0
G1 Y71.0
G1 X40.7071 Y71.2929
G1 X41.0 Y71.0
G1 X49.0
G1 X49.2929 Y71.2929
G1 X49.0 Y71.0
G1 Y70.0
G3 X50.0 Y69.0 I1.0 J0.0
G1 X58.0
G3 X59.0 Y70.0 I0.0 J1.0
G1 Y79.0
G1 X58.7071 Y79.2929
G1 X59.0 Y79.0
G1 X60.0
G3 X61.0 Y80.0 I0.0 J1.0
G1 Y90.0
G3 X60.0 Y91.0 I-1.0 J0.0
G1 X59.0
G1 X58.7071 Y90.7071
G1 X59.0 Y91.0
G1 Y99.0
G1 X58.7071 Y99.2929
G1 X59.0 Y99.0
G1 X60.0
G3 X61.0 Y100.0 I0.0 J1.0
G1 Y110.0
G3 X60.0 Y111.0 I-1.0 J0.0
G1 X59.0
G1 X58.7071 Y110.7071
G1 X59.0 Y111.0
G1 Y119.0
G1 X58.7071 Y119.2929
G1 X59.0 Y119.0
G1 X60.0
G3 X61.0 Y120.0 I0.0 J1.0
G1 Y128.0
G3 X60.0 Y129.0 I-1.0 J0.0
G1 X51.0
G1 X50.7071 Y128.7071
G1 X51.0 Y129.0
G1 Y130.0
G3 X50.0 Y131.0 I-1.0 J0.0
G1 X40.0
G3 X39.0 Y130.0 I0.0 J-1.0
G1 Y129.0
G1 X39.2929 Y128.7071
G1 X39.0 Y129.0
G1 X31.0
G1 X30.7071 Y128.7071
G1 X31.0 Y129.0
G1 Y130.0
G3 X30.0 Y131.0 I-1.0 J0.0
G1 X20.0
G3 X19.0 Y130.0 I0.0 J-1.0
G1 Y129.0
G1 X19.2929 Y128.7071
G1 X19.0 Y129.0
G1 X11.0
G1 X10.7071 Y128.7071
G1 X11.0 Y129.0
G1 Y130.0
G3 X10.0 Y131.0 I-1.0 J0.0
G1 X2.0
G3 X1.0 Y130.0 I0.0 J-1.0
G1 F300.0 Z-0.8
G1 F800.0 Y121.0
G1 X1.2929 Y120.7071
G1 X1.0 Y121.0
G1 X0.0
G3 X-1.0 Y120.0 I0.0 J-1.0
G1 Y110.0
G3 X0.0 Y109.0 I1.0 J0.0
G1 X1.0
G1 X1.2929 Y109.2929
G1 X1.0 Y109.0
G1 Y101.0
G1 X1.2929 Y100.7071
G1 X1.0 Y101.0
G1 X0.0
G3 X-1.0 Y100.0 I0.0 J-1.0
G1 Y90.0
G3 X0.0 Y89.0 I1.0 J0.0
G1 X1.0
G1 X1.2929 Y89.2929
G1 X1.0 Y89.0
G1 Y81.0
G1 X1.2929 Y80.7071
G1 X1.0 Y81.0
G1 X0.0
G3 X-1.0 Y80.0 I0.0 J-1.0
G1 Y72.0
G3 X0.0 Y71.0 I1.0 J0.0
G1 X9.0
G1 X9.2929 Y71.2929
G1 X9.0 Y71.0
G1 Y70.0
G3 X10.0 Y69.0 I1.0 J0.0
G1 X20.0
G3 X21.0 Y70.0 I0.0 J1.0
G1 Y71.0
G1 X20.7071 Y71.2929
G1 X21.0 Y71.0
G1 X29.0
G1 X29.2929 Y71.2929
G1 X29.0 Y71.0
G1 Y70.0
G3 X30.0 Y69.0 I1.0 J0.0
G1 X40.0
G3 X41.0 Y70.0 I0.0 J1.0
G1 Y71.0
G1 X40.7071 Y71.2929
G1 X41.0 Y71.0
G1 X49.0
G1 X49.2929 Y71.2929
G1 X49.0 Y71.0
G1 Y70.0
G3 X50.0 Y69.0 I1.0 J0.0
G1 X58.0
G3 X59.0 Y70.0 I0.0 J1.0
G1 Y79.0
G1 X58.7071 Y79.2929
G1 X59.0 Y79.0
G1 X60.0
G3 X61.0 Y80.0 I0.0 J1.0
G1 Y90.0
G3 X60.0 Y91.0 I-1.0 J0.0
G1 X59.0
G1 X58.7071 Y90.7071
G1 X59.0 Y91.0
G1 Y99.0
G1 X58.7071 Y99.2929
G1 X59.0 Y99.0
G1 X60.0
G3 X61.0 Y100.0 I0.0 J1.0
G1 Y110.0
G3 X60.0 Y111.0 I-1.0 J0.0
G1 X59.0
G1 X58.7071 Y110.7071
G1 X59.0 Y111.0
G1 Y119.0
G1 X58.7071 Y119.2929
G1 X59.0 Y119.0
G1 X60.0
G3 X61.0 Y120.0 I0.0 J1.0
G1 Y128.0
G3 X60.0 Y129.0 I-1.0 J0.0
G1 X51.0
G1 X50.7071 Y128.7071
G1 X51.0 Y129.0
G1 Y130.0
G3 X50.0 Y131.0 I-1.0 J0.0
G1 X40.0
G3 X39.0 Y130.0 I0.0 J-1.0
G1 Y129.0
G1 X39.2929 Y128.7071
G1 X39.0 Y129.0
G1 X31.0
G1 X30.7071 Y128.7071
G1 X31.0 Y129.0
G1 Y130.0
G3 X30.0 Y131.0 I-1.0 J0.0
G1 X20.0
G3 X19.0 Y130.0 I0.0 J-1.0
G1 Y129.0
G1 X19.2929 Y128.7071
G1 X19.0 Y129.0
G1 X11.0
G1 X10.7071 Y128.7071
G1 X11.0 Y129.0
G1 Y130.0
G3 X10.0 Y131.0 I-1.0 J0.0
G1 X2.0
G3 X1.0 Y130.0 I0.0 J-1.0
G1 F300.0 Z-1.2
G1 F800.0 Y121.0
G1 X1.2929 Y120.7071
G1 X1.0 Y121.0
G1 X0.0
G3 X-1.0 Y120.0 I0.0 J-1.0
G1 Y110.0
G3 X0.0 Y109.0 I1.0 J0.0
G1 X1.0
G1 X1.2929 Y109.2929
G1 X1.0 Y109.0
G1 Y101.0
G1 X1.2929 Y100.7071
G1 X1.0 Y101.0
G1 X0.0
G3 X-1.0 Y100.0 I0.0 J-1.0
G1 Y90.0
G3 X0.0 Y89.0 I1.0 J0.0
G1 X1.0
G1 X1.2929 Y89.2929
G1 X1.0 Y89.0
G1 Y81.0
G1 X1.2929 Y80.7071
G1 X1.0 Y81.0
G1 X0.0
G3 X-1.0 Y80.0 I0.0 J-1.0
G1 Y72.0
G3 X0.0 Y71.0 I1.0 J0.0
G1 X9.0
G1 X9.2929 Y71.2929
G1 X9.0 Y71.0
G1 Y70.0
G3 X10.0 Y69.0 I1.0 J0.0
G1 X20.0
G3 X21.0 Y70.0 I0.0 J1.0
G1 Y71.0
G1 X20.7071 Y71.2929
G1 X21.0 Y71.0
G1 X29.0
G1 X29.2929 Y71.2929
G1 X29.0 Y71.0
G1 Y70.0
G3 X30.0 Y69.0 I1.0 J0.0
G1 X40.0
G3 X41.0 Y70.0 I0.0 J1.0
G1 Y71.0
G1 X40.7071 Y71.2929
G1 X41.0 Y71.0
G1 X49.0
G1 X49.2929 Y71.2929
G1 X49.0 Y71.0
G1 Y70.0
G3 X50.0 Y69.0 I1.0 J0.0
G1 X58.0
G3 X59.0 Y70.0 I0.0 J1.0
G1 Y79.0
G1 X58.7071 Y79.2929
G1 X59.0 Y79.0
G1 X60.0
G3 X61.0 Y80.0 I0.0 J1.0
G1 Y90.0
G3 X60.0 Y91.0 I-1.0 J0.0
G1 X59.0
G1 X58.7071 Y90.7071
G1 X59.0 Y91.0
G1 Y99.0
G1 X58.7071 Y99.2929
G1 X59.0 Y99.0
G1 X60.0
G3 X61.0 Y100.0 I0.0 J1.0
G1 Y110.0
G3 X60.0 Y111.0 I-1.0 J0.0
G1 X59.0
G1 X58.7071 Y110.7071
G1 X59.0 Y111.0
G1 Y119.0
G1 X58.7071 Y119.2929
G1 X59.0 Y119.0
G1 X60.0
G3 X61.0 Y120.0 I0.0 J1.0
G1 Y128.0
G3 X60.0 Y129.0 I-1.0 J0.0
G1 X51.0
G1 X50.7071 Y128.7071
G1 X51.0 Y129.0
G1 Y130.0
G3 X50.0 Y131.0 I-1.0 J0.0
G1 X40.0
G3 X39.0 Y130.0 I0.0 J-1.0
G1 Y129.0
G1 X39.2929 Y128.7071
G1 X39.0 Y129.0
G1 X31.0
G1 X30.7071 Y128.7071
G1 X31.0 Y129.0
G1 Y130.0
G3 X30.0 Y131.0 I-1.0 J0.0
G1 X20.0
G3 X19.0 Y130.0 I0.0 J-1.0
G1 Y129.0
G1 X19.2929 Y128.7071
G1 X19.0 Y129.0
G1 X11.0
G1 X10.7071 Y128.7071
G1 X11.0 Y129.0
G1 Y130.0
G3 X10.0 Y131.0 I-1.0 J0.0
G1 X2.0
G3 X1.0 Y130.0 I0.0 J-1.0
G1 F300.0 Z-1.6
G1 F800.0 Y121.0
G1 X1.2929 Y120.7071
G1 X1.0 Y121.0
G1 X0.0
G3 X-1.0 Y120.0 I0.0 J-1.0
G1 Y110.0
G3 X0.0 Y109.0 I1.0 J0.0
G1 X1.0
G1 X1.2929 Y109.2929
G1 X1.0 Y109.0
G1 Y101.0
G1 X1.2929 Y100.7071
G1 X1.0 Y101.0
G1 X0.0
G3 X-1.0 Y100.0 I0.0 J-1.0
G1 Y90.0
G3 X0.0 Y89.0 I1.0 J0.0
G1 X1.0
G1 X1.2929 Y89.2929
G1 X1.0 Y89.0
G1 Y81.0
G1 X1.2929 Y80.7071
G1 X1.0 Y81.0
G1 X0.0
G3 X-1.0 Y80.0 I0.0 J-1.0
G1 Y72.0
G3 X0.0 Y71.0 I1.0 J0.0
G1 X9.0
G1 X9.2929 Y71.2929
G1 X9.0 Y71.0
G1 Y70.0
G3 X10.0 Y69.0 I1.0 J0.0
G1 X20.0
G3 X21.0 Y70.0 I0.0 J1.0
G1 Y71.0
G1 X20.7071 Y71.2929
G1 X21.0 Y71.0
G1 X29.0
G1 X29.2929 Y71.2929
G1 X29.0 Y71.0
G1 Y70.0
G3 X30.0 Y69.0 I1.0 J0.0
G1 X40.0
G3 X41.0 Y70.0 I0.0 J1.0
G1 Y71.0
G1 X40.7071 Y71.2929
G1 X41.0 Y71.0
G1 X49.0
G1 X49.2929 Y71.2929
G1 X49.0 Y71.0
G1 Y70.0
G3 X50.0 Y69.0 I1.0 J0.0
G1 X58.0
G3 X59.0 Y70.0 I0.0 J1.0
G1 Y79.0
G1 X58.7071 Y79.2929
G1 X59.0 Y79.0
G1 X60.0
G3 X61.0 Y80.0 I0.0 J1.0
G1 Y90.0
G3 X60.0 Y91.0 I-1.0 J0.0
G1 X59.0
G1 X58.7071 Y90.7071
G1 X59.0 Y91.0
G1 Y99.0
G1 X58.7071 Y99.2929
G1 X59.0 Y99.0
G1 X60.0
G3 X61.0 Y100.0 I0.0 J1.0
G1 Y110.0
G3 X60.0 Y111.0 I-1.0 J0.0
G1 X59.0
G1 X58.7071 Y110.7071
G1 X59.0 Y111.0
G1 Y119.0
G1 X58.7071 Y119.2929
G1 X59.0 Y119.0
G1 X60.0
G3 X61.0 Y120.0 I0.0 J1.0
G1 Y128.0
G3 X60.0 Y129.0 I-1.0 J0.0
G1 X51.0
G1 X50.7071 Y128.7071
G1 X51.0 Y129.0
G1 Y130.0
G3 X50.0 Y131.0 I-1.0 J0.0
G1 X40.0
G3 X39.0 Y130.0 I0.0 J-1.0
G1 Y129.0
G1 X39.2929 Y128.7071
G1 X39.0 Y129.0
G1 X31.0
G1 X30.7071 Y128.7071
G1 X31.0 Y129.0
G1 Y130.0
G3 X30.0 Y131.0 I-1.0 J0.0
G1 X20.0
G3 X19.0 Y130.0 I0.0 J-1.0
G1 Y129.0
G1 X19.2929 Y128.7071
G1 X19.0 Y129.0
G1 X11.0
G1 X10.7071 Y128.7071
G1 X11.0 Y129.0
G1 Y130.0
G3 X10.0 Y131.0 I-1.0 J0.0
G1 X2.0
G3 X1.0 Y130.0 I0.0 J-1.0
G1 F300.0 Z-2.0
G1 F800.0 Y121.0
G1 X1.2929 Y120.7071
G1 X1.0 Y121.0
G1 X0.0
G3 X-1.0 Y120.0 I0.0 J-1.0
G1 Y110.0
G3 X0.0 Y109.0 I1.0 J0.0
G1 X1.0
G1 X1.2929 Y109.2929
G1 X1.0 Y109.0
G1 Y101.0
G1 X1.2929 Y100.7071
G1 X1.0 Y101.0
G1 X0.0
G3 X-1.0 Y100.0 I0.0 J-1.0
G1 Y90.0
