; OUTPUT FROM G-CODE GRID GENERATOR
; X-MAX: -1195
; Y-MAX: -1295
; X-PITCH: -13
; Y-PITCH: -13
; ONLY-X: False
; ONLY-Y: True
; FEED: 1000
; Z-DEPTH: 0
; Z-SAFE: 0
; AIR-TRAVERSE: False

; RECOMENDED USAGE
; check X-MAX, Y-MAX, FEED, Z-DEPTH & Z-SAFE values
; run home cycle after machine switch on $H
; G28 to move to machine cordinate 0,0,0
; G0 XYZ jog to desired start for running file
: G10 L20 P1 X0 Y0 Z0 to set working cordinates 0,0,0 for G54
; G92 XYZ to set offset to all working cordinates if desired
; run file

; HEADER
G54; use work coordinates
G21; mm mode
G90; absolute positioning
M3 S3000; start default spindle 0 clockwise at given RPM

; Y AXIS
G1 Z0 F200; cutting depth
G1 X0 F1000
G1 Y-1295 F1000
G1 X-13 F1000
G1 Y0 F1000
G1 X-26 F1000
G1 Y-1295 F1000
G1 X-39 F1000
G1 Y0 F1000
G1 X-52 F1000
G1 Y-1295 F1000
G1 X-65 F1000
G1 Y0 F1000
G1 X-78 F1000
G1 Y-1295 F1000
G1 X-91 F1000
G1 Y0 F1000
G1 X-104 F1000
G1 Y-1295 F1000
G1 X-117 F1000
G1 Y0 F1000
G1 X-130 F1000
G1 Y-1295 F1000
G1 X-143 F1000
G1 Y0 F1000
G1 X-156 F1000
G1 Y-1295 F1000
G1 X-169 F1000
G1 Y0 F1000
G1 X-182 F1000
G1 Y-1295 F1000
G1 X-195 F1000
G1 Y0 F1000
G1 X-208 F1000
G1 Y-1295 F1000
G1 X-221 F1000
G1 Y0 F1000
G1 X-234 F1000
G1 Y-1295 F1000
G1 X-247 F1000
G1 Y0 F1000
G1 X-260 F1000
G1 Y-1295 F1000
G1 X-273 F1000
G1 Y0 F1000
G1 X-286 F1000
G1 Y-1295 F1000
G1 X-299 F1000
G1 Y0 F1000
G1 X-312 F1000
G1 Y-1295 F1000
G1 X-325 F1000
G1 Y0 F1000
G1 X-338 F1000
G1 Y-1295 F1000
G1 X-351 F1000
G1 Y0 F1000
G1 X-364 F1000
G1 Y-1295 F1000
G1 X-377 F1000
G1 Y0 F1000
G1 X-390 F1000
G1 Y-1295 F1000
G1 X-403 F1000
G1 Y0 F1000
G1 X-416 F1000
G1 Y-1295 F1000
G1 X-429 F1000
G1 Y0 F1000
G1 X-442 F1000
G1 Y-1295 F1000
G1 X-455 F1000
G1 Y0 F1000
G1 X-468 F1000
G1 Y-1295 F1000
G1 X-481 F1000
G1 Y0 F1000
G1 X-494 F1000
G1 Y-1295 F1000
G1 X-507 F1000
G1 Y0 F1000
G1 X-520 F1000
G1 Y-1295 F1000
G1 X-533 F1000
G1 Y0 F1000
G1 X-546 F1000
G1 Y-1295 F1000
G1 X-559 F1000
G1 Y0 F1000
G1 X-572 F1000
G1 Y-1295 F1000
G1 X-585 F1000
G1 Y0 F1000
G1 X-598 F1000
G1 Y-1295 F1000
G1 X-611 F1000
G1 Y0 F1000
G1 X-624 F1000
G1 Y-1295 F1000
G1 X-637 F1000
G1 Y0 F1000
G1 X-650 F1000
G1 Y-1295 F1000
G1 X-663 F1000
G1 Y0 F1000
G1 X-676 F1000
G1 Y-1295 F1000
G1 X-689 F1000
G1 Y0 F1000
G1 X-702 F1000
G1 Y-1295 F1000
G1 X-715 F1000
G1 Y0 F1000
G1 X-728 F1000
G1 Y-1295 F1000
G1 X-741 F1000
G1 Y0 F1000
G1 X-754 F1000
G1 Y-1295 F1000
G1 X-767 F1000
G1 Y0 F1000
G1 X-780 F1000
G1 Y-1295 F1000
G1 X-793 F1000
G1 Y0 F1000
G1 X-806 F1000
G1 Y-1295 F1000
G1 X-819 F1000
G1 Y0 F1000
G1 X-832 F1000
G1 Y-1295 F1000
G1 X-845 F1000
G1 Y0 F1000
G1 X-858 F1000
G1 Y-1295 F1000
G1 X-871 F1000
G1 Y0 F1000
G1 X-884 F1000
G1 Y-1295 F1000
G1 X-897 F1000
G1 Y0 F1000
G1 X-910 F1000
G1 Y-1295 F1000
G1 X-923 F1000
G1 Y0 F1000
G1 X-936 F1000
G1 Y-1295 F1000
G1 X-949 F1000
G1 Y0 F1000
G1 X-962 F1000
G1 Y-1295 F1000
G1 X-975 F1000
G1 Y0 F1000
G1 X-988 F1000
G1 Y-1295 F1000
G1 X-1001 F1000
G1 Y0 F1000
G1 X-1014 F1000
G1 Y-1295 F1000
G1 X-1027 F1000
G1 Y0 F1000
G1 X-1040 F1000
G1 Y-1295 F1000
G1 X-1053 F1000
G1 Y0 F1000
G1 X-1066 F1000
G1 Y-1295 F1000
G1 X-1079 F1000
G1 Y0 F1000
G1 X-1092 F1000
G1 Y-1295 F1000
G1 X-1105 F1000
G1 Y0 F1000
G1 X-1118 F1000
G1 Y-1295 F1000
G1 X-1131 F1000
G1 Y0 F1000
G1 X-1144 F1000
G1 Y-1295 F1000
G1 X-1157 F1000
G1 Y0 F1000
G1 X-1170 F1000
G1 Y-1295 F1000
G1 X-1183 F1000
G1 Y0 F1000
G1 X-1195 F1000
G1 Y-1295 F1000

; FOOTER
G28 Z0; machine cordiante 0  z axis
M5; stop default spindle 0
G28 X0 Y0; machine cordinate X0 Y0
M2; end program
