; Generated by Kiri:Moto 3.9.2
; Sat Apr 22 2023 10:36:00 GMT-0700 (Pacific Daylight Time)
; Bed left:0 right:1195 top:1295 bottom:0
; Stock X:136 Y:757 Z:38
; Target: OpenBuild LeadCNC 1515
; Tool: MX4
; --- process ---
; processName = OpenBuild LeadCNC 1515
; camLevelTool = 1681668794759
; camLevelSpindle = 10000
; camLevelOver = 0
; camLevelSpeed = 1000
; camLevelDown = 0
; camRoughTool = 1681668794759
; camRoughSpindle = 18000
; camRoughDown = 15
; camRoughOver = 0.5
; camRoughSpeed = 2000
; camRoughPlunge = 300
; camRoughStock = 0
; camRoughVoid = true
; camRoughFlat = true
; camRoughTop = true
; camRoughIn = false
; camRoughOn = true
; camOutlineTool = 1681668794759
; camOutlineSpindle = 10000
; camOutlineDown = 10
; camOutlineOver = 0.4
; camOutlineSpeed = 1000
; camOutlinePlunge = 300
; camOutlineWide = false
; camOutlineDogbone = false
; camOutlineOmitThru = false
; camOutlineOut = false
; camOutlineIn = false
; camOutlineOn = true
; camContourTool = 1001
; camContourSpindle = 1000
; camContourOver = 0.5
; camContourSpeed = 1000
; camContourAngle = 85
; camContourBottom = true
; camContourCurves = false
; camContourIn = false
; camContourXOn = true
; camContourYOn = true
; camTraceTool = 1000
; camTraceSpindle = 1000
; camTraceType = follow
; camTraceOver = 0.5
; camTraceDown = 0
; camTraceSpeed = 250
; camTracePlunge = 200
; camTraceLines = false
; camTraceBottom = false
; camPocketSpindle = 10000
; camPocketTool = 1681668794759
; camPocketOver = 0.5
; camPocketDown = 10
; camPocketSpeed = 250
; camPocketPlunge = 200
; camPocketExpand = 1
; camPocketSmooth = 1
; camPocketContour = false
; camPocketEngrave = false
; camDrillTool = 1681670123284
; camDrillSpindle = 10000
; camDrillDownSpeed = 250
; camDrillDown = 10
; camDrillDwell = 250
; camDrillLift = 2
; camDrillMark = false
; camDrillingOn = false
; camRegisterSpeed = 1000
; camRegisterThru = 5
; camFlipAxis = X
; camFlipOther = 
; camLaserEnable = M321
; camLaserDisable = M322
; camLaserOn = M3
; camLaserOff = M5
; camLaserSpeed = 100
; camLaserPower = 1
; camLaserAdaptive = false
; camLaserAdaptMod = false
; camLaserFlatten = false
; camLaserFlatZ = 0
; camLaserPowerMin = 0
; camLaserPowerMax = 1
; camLaserZMin = 0
; camLaserZMax = 0
; camTabsWidth = 10
; camTabsHeight = 10
; camTabsDepth = 10
; camTabsMidline = true
; camDepthFirst = true
; camEaseDown = true
; camOriginTop = true
; camZAnchor = top
; camZOffset = 0
; camZBottom = 18
; camZClearance = 5
; camZThru = 0
; camFastFeed = 3000
; camFastFeedZ = 100
; camTolerance = 0
; camFlatness = 0.001
; camContourBridge = 10
; camStockX = 136
; camStockY = 757
; camStockZ = 38
; camStockOffset = false
; camStockClipTo = false
; camConventional = true
; outputInvertX = false
; outputInvertY = false
; camExpertFast = false
; camTrueShadow = false
; camForceZMax = false
; camStockIndexed = false
; camStockIndexGrid = false
; camIndexAxis = 0
; camIndexAbs = true
; camRoughOmitVoid = false
; camOutlineTop = false
; camOutlineOmitVoid = true
; camContourLeave = 0
; camContourReduce = 2
; camLatheTool = 1000
; camLatheSpindle = 1000
; camLatheOver = 0.1
; camLatheSpeed = 500
; camTraceThru = 0
; camTraceOffOver = 0
; camPocketRefine = 20
; camPocketFollow = 5
; camPocketOutline = false
; camOriginCenter = false
; camOriginOffX = 0
; camOriginOffY = 0
; camOriginOffZ = 0
; camFirstZMax = true
; camToolInit = false
; camRoughAll = true
; camLatheAngle = 1
; --- tools ---
; tool=[object Object] flute=undefined len=undefined metric=undefined
G21 ; set units to MM (required)
G90 ; absolute position mode (required)
G54 ; use working cordinates
; starting rough op
G0 Z5.0 F100
G0 X55.8925 Y283.5996 F3000
G1 Z0.0 F100
G1 X53.2482 Y284.1815 F1000
G1 X50.6316 Y284.8774
G1 X48.0477 Y285.6859
G1 X45.5011 Y286.6056
G1 X42.9969 Y287.6346
G1 X40.5395 Y288.7712
G1 X38.1336 Y290.0132
G1 X35.7839 Y291.3581
G1 X33.4945 Y292.8035
G1 X31.2699 Y294.3468
G1 X29.1142 Y295.9850
G1 X27.0315 Y297.7149
G1 X25.0258 Y299.5333
G1 X23.1004 Y301.4372
G1 X21.2595 Y303.4225
G1 X19.5063 Y305.4855
G1 X17.8439 Y307.6228
G1 X16.2758 Y309.8299
G1 X14.8048 Y312.1028
G1 X13.4335 Y314.4373
G1 X12.1647 Y316.8291
G1 X11.0005 Y319.2737
G1 X9.9433 Y321.7662
G1 X8.9952 Y324.3021
G1 X8.1576 Y326.8769
G1 X7.4325 Y329.4853
G1 X6.8209 Y332.1229
G1 X6.3242 Y334.7845
G1 X5.9432 Y337.4650
G1 X5.6786 Y340.1595
G1 X5.5309 Y342.8632
G1 X5.5005 Y345.5702
G1 X5.5874 Y348.2755
G1 X5.7913 Y350.9760
G1 X6.1018 Y353.5786
G1 X16.9436 Y430.2964
G1 X17.2716 Y432.3031
G1 X17.7422 Y434.5881
G1 X18.2964 Y436.7716
G1 X18.9404 Y438.9132
G1 X19.6760 Y441.0232
G1 X20.5026 Y443.1001
G1 X21.3964 Y445.0903
G1 X22.4198 Y447.1334
G1 X23.5108 Y449.0894
G1 X24.6641 Y450.9614
G1 X25.9359 Y452.8415
G1 X27.2555 Y454.6180
G1 X28.6785 Y456.3718
G1 X30.1638 Y458.0464
G1 X31.7176 Y459.6524
G1 X33.3407 Y461.1906
G1 X35.0280 Y462.6562
G1 X36.7774 Y464.0475
G1 X38.5865 Y465.3625
G1 X40.4374 Y466.5889
G1 X42.3636 Y467.7491
G1 X44.3289 Y468.8189
G1 X46.3368 Y469.8016
G1 X48.3853 Y470.6963
G1 X50.4700 Y471.5011
G1 X52.5885 Y472.2152
G1 X54.7365 Y472.8370
G1 X56.9091 Y473.3649
G1 X59.1011 Y473.7980
G1 X61.2675 Y474.1292
G1 X63.5307 Y474.3776
G1 X65.7641 Y474.5230
G1 X68.0 Y474.5715
G1 X70.2350 Y474.5231
G1 X72.4657 Y474.3778
G1 X74.6881 Y474.1360
G1 X76.8979 Y473.7982
G1 X79.0904 Y473.3650
G1 X81.2633 Y472.8370
G1 X83.4106 Y472.2155
G1 X85.5292 Y471.5014
G1 X87.6147 Y470.6963
G1 X89.6631 Y469.8016
G1 X91.6711 Y468.8189
G1 X93.6347 Y467.7501
G1 X95.5499 Y466.5973
G1 X97.4135 Y465.3625
G1 X99.2218 Y464.0481
G1 X100.9716 Y462.6566
G1 X102.6590 Y461.1909
G1 X104.2819 Y459.6529
G1 X105.8362 Y458.0464
G1 X107.3197 Y456.3739
G1 X108.7291 Y454.6389
G1 X110.0621 Y452.8442
G1 X111.3161 Y450.9935
G1 X112.4892 Y449.0894
G1 X113.5777 Y447.1380
G1 X114.5811 Y445.1404
G1 X115.4971 Y443.1009
G1 X116.3237 Y441.0240
G1 X117.0596 Y438.9131
G1 X117.7034 Y436.7723
G1 X118.2538 Y434.6055
G1 X118.7097 Y432.4170
G1 X119.0564 Y430.2966
G1 X129.8982 Y353.5786
G1 X130.2087 Y350.9761
G1 X130.4126 Y348.2764
G1 X130.4995 Y345.5704
G1 X130.4691 Y342.8638
G1 X130.3237 Y340.2012
G1 X130.0573 Y337.4688
G1 X129.6760 Y334.7856
G1 X129.1875 Y332.1680
G1 X128.5683 Y329.4883
G1 X127.8423 Y326.8769
G1 X127.0048 Y324.3021
G1 X126.0567 Y321.7662
G1 X124.9995 Y319.2737
G1 X123.8354 Y316.8291
G1 X122.5665 Y314.4373
G1 X121.1953 Y312.1029
G1 X119.7241 Y309.8298
G1 X118.1746 Y307.6489
G1 X116.4952 Y305.4872
G1 X114.7426 Y303.4249
G1 X112.9005 Y301.4381
G1 X110.9743 Y299.5334
G1 X108.9685 Y297.7149
G1 X106.8858 Y295.9850
G1 X104.7301 Y294.3468
G1 X102.5055 Y292.8035
G1 X100.2163 Y291.3582
G1 X97.8663 Y290.0131
G1 X95.4914 Y288.7872
G1 X93.0062 Y287.6360
G1 X90.4998 Y286.6059
G1 X87.9535 Y285.6863
G1 X85.4277 Y284.8959
G1 X82.7643 Y284.1847
G1 X80.1081 Y283.5997
G1 X77.4406 Y283.1328
G1 X74.7570 Y282.7821
G1 X72.0588 Y282.5476
G1 X69.3549 Y282.4304
G1 X66.6462
G1 X63.9415 Y282.5476
G1 X61.2438 Y282.7820
G1 X58.5605 Y283.1327
G1 X55.8925 Y283.5996
G1 X57.4426 Y291.4509 F2000
G1 X55.1371 Y291.9583
G1 X52.8555 Y292.5651
G1 X50.6024 Y293.2701
G1 X48.3819 Y294.0720
G1 X46.1983 Y294.9693
G1 X44.0555 Y295.9604
G1 X41.9576 Y297.0433
G1 X39.9089 Y298.2159
G1 X37.9127 Y299.4763
G1 X35.9727 Y300.8221
G1 X34.0932 Y302.2504
G1 X32.2770 Y303.7590
G1 X30.5282 Y305.3445
G1 X28.8494 Y307.0045
G1 X27.2441 Y308.7357
G1 X25.7156 Y310.5344
G1 X24.2658 Y312.3983
G1 X22.8986 Y314.3227
G1 X21.6159 Y316.3044
G1 X20.4203 Y318.3401
G1 X19.3139 Y320.4256
G1 X18.2986 Y322.5574
G1 X17.3769 Y324.7306
G1 X16.5502 Y326.9418
G1 X15.8199 Y329.1869
G1 X15.1876 Y331.4614
G1 X14.6543 Y333.7613
G1 X14.2212 Y336.0819
G1 X13.8889 Y338.4193
G1 X13.6582 Y340.7688
G1 X13.5295 Y343.1266
G1 X13.5029 Y345.4867
G1 X13.5787 Y347.8457
G1 X13.7565 Y350.2003
G1 X14.0362 Y352.5450
G1 X24.8537 Y429.0910
G1 X25.1413 Y430.8502
G1 X25.5420 Y432.7960
G1 X26.0087 Y434.6345
G1 X26.5525 Y436.4431
G1 X27.1740 Y438.2256
G1 X27.8723 Y439.9803
G1 X28.6258 Y441.6581
G1 X29.4939 Y443.3912
G1 X30.4138 Y445.0404
G1 X31.3868 Y446.6197
G1 X32.4640 Y448.2122
G1 X33.5763 Y449.7096
G1 X34.7809 Y451.1941
G1 X36.0346 Y452.6077
G1 X37.3471 Y453.9643
G1 X38.7186 Y455.2640
G1 X40.1439 Y456.5021
G1 X41.6219 Y457.6776
G1 X43.1502 Y458.7884
G1 X44.7131 Y459.8240
G1 X46.3424 Y460.8053
G1 X48.0018 Y461.7086
G1 X49.6980 Y462.5387
G1 X51.4287 Y463.2946
G1 X53.1902 Y463.9747
G1 X54.9797 Y464.5779
G1 X56.7945 Y465.1032
G1 X58.6301 Y465.5493
G1 X60.4818 Y465.9151
G1 X62.3088 Y466.1945
G1 X64.2273 Y466.4050
G1 X66.1109 Y466.5276
G1 X68.0002 Y466.5686
G1 X69.8882 Y466.5277
G1 X71.7728 Y466.4050
G1 X73.6503 Y466.2007
G1 X75.5173 Y465.9153
G1 X77.3694 Y465.5494
G1 X79.2055 Y465.1032
G1 X81.0196 Y464.5781
G1 X82.8094 Y463.9749
G1 X84.5712 Y463.2947
G1 X86.3018 Y462.5388
G1 X87.9982 Y461.7086
G1 X89.6573 Y460.8056
G1 X91.2751 Y459.8318
G1 X92.8497 Y458.7885
G1 X94.3775 Y457.6780
G1 X95.8556 Y456.5025
G1 X97.2813 Y455.2641
G1 X98.6524 Y453.9648
G1 X99.9655 Y452.6076
G1 X101.2188 Y451.1945
G1 X102.4094 Y449.7288
G1 X103.5357 Y448.2126
G1 X104.5951 Y446.6490
G1 X105.5863 Y445.0402
G1 X106.5058 Y443.3918
G1 X107.3535 Y441.7041
G1 X108.1274 Y439.9809
G1 X108.8258 Y438.2264
G1 X109.4475 Y436.4431
G1 X109.9914 Y434.6343
G1 X110.4563 Y432.8040
G1 X110.8416 Y430.9548
G1 X111.1463 Y429.0910
G1 X121.9638 Y352.5448
G1 X122.2435 Y350.2005
G1 X122.4213 Y347.8465
G1 X122.4970 Y345.4871
G1 X122.4705 Y343.1269
G1 X122.3439 Y340.8076
G1 X122.1112 Y338.4203
G1 X121.7790 Y336.0830
G1 X121.3535 Y333.8031
G1 X120.8125 Y331.4616
G1 X120.1801 Y329.1868
G1 X119.4499 Y326.9419
G1 X118.6231 Y324.7306
G1 X117.7014 Y322.5574
G1 X116.6862 Y320.4256
G1 X115.5798 Y318.3401
G1 X114.3842 Y316.3047
G1 X113.1014 Y314.3226
G1 X111.7513 Y312.4224
G1 X110.2847 Y310.5347
G1 X108.7578 Y308.7378
G1 X107.1513 Y307.0053
G1 X105.4717 Y305.3444
G1 X103.7230 Y303.7590
G1 X101.9068 Y302.2504
G1 X100.0273 Y300.8221
G1 X98.0873 Y299.4763
G1 X96.0913 Y298.2161
G1 X94.0422 Y297.0432
G1 X91.9732 Y295.9752
G1 X89.8027 Y294.9697
G1 X87.6189 Y294.0723
G1 X85.3986 Y293.2704
G1 X83.2000 Y292.5824
G1 X80.8707 Y291.9604
G1 X78.5574 Y291.4509
G1 X76.2317 Y291.0438
G1 X73.8921 Y290.7381
G1 X71.5388 Y290.5336
G1 X69.1816 Y290.4314
G1 X66.8196
G1 X64.4610 Y290.5336
G1 X62.1090 Y290.7379
G1 X59.7692 Y291.0437
G1 X57.4426 Y291.4509
G1 X58.9927 Y299.3023
G1 X57.0260 Y299.7351
G1 X55.0794 Y300.2527
G1 X53.1569 Y300.8543
G1 X51.2628 Y301.5383
G1 X49.3996 Y302.3040
G1 X47.5716 Y303.1495
G1 X45.7817 Y304.0734
G1 X44.0340 Y305.0737
G1 X42.3308 Y306.1491
G1 X40.6756 Y307.2974
G1 X39.0721 Y308.5158
G1 X37.5226 Y309.8029
G1 X36.0306 Y311.1556
G1 X34.5984 Y312.5718
G1 X33.2288 Y314.0488
G1 X31.9247 Y315.5834
G1 X30.6878 Y317.1737
G1 X29.5212 Y318.8156
G1 X28.4271 Y320.5061
G1 X27.4069 Y322.2430
G1 X26.4630 Y324.0222
G1 X25.5969 Y325.8410
G1 X24.8105 Y327.6950
G1 X24.1051 Y329.5817
G1 X23.4822 Y331.4968
G1 X22.9426 Y333.4376
G1 X22.4877 Y335.3997
G1 X22.1182 Y337.3794
G1 X21.8347 Y339.3737
G1 X21.6379 Y341.3782
G1 X21.5280 Y343.3901
G1 X21.5054 Y345.4032
G1 X21.5700 Y347.4158
G1 X21.7217 Y349.4248
G1 X21.9706 Y351.5112
G1 X32.7639 Y427.8857
G1 X33.0110 Y429.3971
G1 X33.3419 Y431.0039
G1 X33.7209 Y432.4971
G1 X34.1647 Y433.9732
G1 X34.6719 Y435.4279
G1 X35.2421 Y436.8607
G1 X35.8553 Y438.2259
G1 X36.5680 Y439.6489
G1 X37.3168 Y440.9913
G1 X38.1096 Y442.2781
G1 X38.9922 Y443.5829
G1 X39.8973 Y444.8014
G1 X40.8833 Y446.0165
G1 X41.9052 Y447.1687
G1 X42.9768 Y448.2763
G1 X44.0965 Y449.3375
G1 X45.2597 Y450.3479
G1 X46.4664 Y451.3076
G1 X47.7142 Y452.2145
G1 X48.9888 Y453.0590
G1 X50.3212 Y453.8616
G1 X51.6746 Y454.5983
G1 X53.0592 Y455.2760
G1 X54.4720 Y455.8930
G1 X55.9101 Y456.4482
G1 X57.3710 Y456.9406
G1 X58.8526 Y457.3695
G1 X60.3510 Y457.7336
G1 X61.8625 Y458.0323
G1 X63.3502 Y458.2597
G1 X64.9240 Y458.4324
G1 X66.4577 Y458.5323
G1 X68.0003 Y458.5657
G1 X69.5415 Y458.5323
G1 X71.0799 Y458.4322
G1 X72.6126 Y458.2654
G1 X74.1366 Y458.0324
G1 X75.6484 Y457.7337
G1 X77.1477 Y457.3694
G1 X78.6284 Y456.9408
G1 X80.0896 Y456.4483
G1 X81.5277 Y455.8931
G1 X82.9407 Y455.2760
G1 X84.3253 Y454.5984
G1 X85.6798 Y453.8611
G1 X87.0005 Y453.0662
G1 X88.2858 Y452.2146
G1 X89.5331 Y451.3079
G1 X90.7398 Y450.3483
G1 X91.9035 Y449.3374
G1 X93.0229 Y448.2766
G1 X94.0947 Y447.1688
G1 X95.1179 Y446.0153
G1 X96.0898 Y444.8188
G1 X97.0093 Y443.5809
G1 X97.8741 Y442.3046
G1 X98.6833 Y440.9911
G1 X99.4340 Y439.6454
G1 X100.1259 Y438.2679
G1 X100.7578 Y436.8610
G1 X101.3278 Y435.4288
G1 X101.8353 Y433.9730
G1 X102.2793 Y432.4964
G1 X102.6589 Y431.0022
G1 X102.9734 Y429.4928
G1 X103.2362 Y427.8853
G1 X114.0294 Y351.5110
G1 X114.2783 Y349.4249
G1 X114.4300 Y347.4166
G1 X114.4946 Y345.4038
G1 X114.4720 Y343.3898
G1 X114.3641 Y341.4144
G1 X114.1650 Y339.3719
G1 X113.8820 Y337.3804
G1 X113.5196 Y335.4384
G1 X113.0566 Y333.4346
G1 X112.5179 Y331.4969
G1 X111.8949 Y329.5817
G1 X111.1895 Y327.6950
G1 X110.4031 Y325.8410
G1 X109.5370 Y324.0222
G1 X108.5931 Y322.2430
G1 X107.5731 Y320.5064
G1 X106.4786 Y318.8153
G1 X105.3281 Y317.1961
G1 X104.0742 Y315.5821
G1 X102.7730 Y314.0510
G1 X101.4021 Y312.5724
G1 X99.9692 Y311.1554
G1 X98.4775 Y309.8031
G1 X96.9277 Y308.5158
G1 X95.3244 Y307.2974
G1 X93.6691 Y306.1490
G1 X91.9664 Y305.0740
G1 X90.2181 Y304.0733
G1 X88.4551 Y303.1632
G1 X86.5991 Y302.3035
G1 X84.7380 Y301.5387
G1 X82.8438 Y300.8545
G1 X80.9721 Y300.2689
G1 X78.9771 Y299.7361
G1 X77.0066 Y299.3021
G1 X75.0229 Y298.9549
G1 X73.0268 Y298.6940
G1 X71.0193 Y298.5196
G1 X69.0081 Y298.4324
G1 X66.9927
G1 X64.9807 Y298.5196
G1 X62.9742 Y298.6939
G1 X60.9778 Y298.9548
G1 X58.9927 Y299.3023
G1 X60.5429 Y307.1536
G1 X58.9148 Y307.5118
G1 X57.3033 Y307.9404
G1 X55.7118 Y308.4384
G1 X54.1434 Y309.0048
G1 X52.6010 Y309.6386
G1 X51.0877 Y310.3386
G1 X49.6056 Y311.1036
G1 X48.1590 Y311.9316
G1 X46.7489 Y312.8220
G1 X45.3785 Y313.7726
G1 X44.0511 Y314.7813
G1 X42.7682 Y315.8469
G1 X41.5330 Y316.9668
G1 X40.3474 Y318.1391
G1 X39.2134 Y319.3620
G1 X38.1338 Y320.6325
G1 X37.1098 Y321.9490
G1 X36.1440 Y323.3084
G1 X35.2383 Y324.7077
G1 X34.3936 Y326.1458
G1 X33.6121 Y327.6189
G1 X32.8952 Y329.1244
G1 X32.2442 Y330.6594
G1 X31.6601 Y332.2216
G1 X31.1444 Y333.8067
G1 X30.6977 Y335.4138
G1 X30.3211 Y337.0380
G1 X30.0152 Y338.6768
G1 X29.7805 Y340.3280
G1 X29.6175 Y341.9875
G1 X29.5266 Y343.6535
G1 X29.5078 Y345.3197
G1 X29.5613 Y346.9859
G1 X29.6870 Y348.6493
G1 X29.9050 Y350.4773
G1 X40.6740 Y426.6803
G1 X40.8806 Y427.9440
G1 X41.1417 Y429.2118
G1 X41.4331 Y430.3600
G1 X41.7769 Y431.5031
G1 X42.1698 Y432.6303
G1 X42.6119 Y433.7409
G1 X43.0847 Y434.7938
G1 X43.6422 Y435.9067
G1 X44.2198 Y436.9422
G1 X44.8322 Y437.9363
G1 X45.5204 Y438.9537
G1 X46.2181 Y439.8930
G1 X46.9856 Y440.8388
G1 X47.7759 Y441.7299
G1 X48.6064 Y442.5883
G1 X49.4744 Y443.4109
G1 X50.3756 Y444.1937
G1 X51.3110 Y444.9376
G1 X52.2780 Y445.6405
G1 X53.2645 Y446.2941
G1 X54.2998 Y446.9177
G1 X55.3476 Y447.4881
G1 X56.4205 Y448.0132
G1 X57.5153 Y448.4913
G1 X58.6301 Y448.9217
G1 X59.7623 Y449.3034
G1 X60.9105 Y449.6357
G1 X62.0720 Y449.9180
G1 X63.2433 Y450.1494
G1 X64.3916 Y450.3250
G1 X65.6206 Y450.4598
G1 X66.8045 Y450.5369
G1 X68.0005 Y450.5628
G1 X69.1947 Y450.5370
G1 X70.3870 Y450.4593
G1 X71.5748 Y450.3301
G1 X72.7561 Y450.1495
G1 X73.9275 Y449.9181
G1 X75.0898 Y449.6356
G1 X76.2372 Y449.3035
G1 X77.3698 Y448.9218
G1 X78.4843 Y448.4915
G1 X79.5794 Y448.0132
G1 X80.6525 Y447.4881
G1 X81.7022 Y446.9167
